meetpal644/Sit-to-Stand-Motion-Synthesis-For-Humanoids/keyframes/chair1_pose_0.05z.csv
name,qpos_0,qpos_1,qpos_2,qpos_3,qpos_4,qpos_5,qpos_6,qpos_7,qpos_8,qpos_9,qpos_10,qpos_11,qpos_12,qpos_13,qpos_14,qpos_15,qpos_16,qpos_17,qpos_18,qpos_19,qpos_20,qpos_21,qpos_22,qpos_23,qpos_24,qpos_25,qpos_26,qpos_27,qpos_28,qpos_29,qpos_30,qpos_31,qpos_32,qpos_33,qpos_34,qpos_35,ctrl_0,ctrl_1,ctrl_2,ctrl_3,ctrl_4,ctrl_5,ctrl_6,ctrl_7,ctrl_8,ctrl_9,ctrl_10,ctrl_11,ctrl_12,ctrl_13,ctrl_14,ctrl_15,ctrl_16,ctrl_17,ctrl_18,ctrl_19,ctrl_20,ctrl_21,ctrl_22,ctrl_23,ctrl_24,ctrl_25,ctrl_26,ctrl_27,ctrl_28
gen_000000_tz+0.05_tx-0.03_ty-0.02_p-0.05_fx-0.03_fy+0.00,-0.27953,2.4713548,0.506276,0.999109,0.0231067,0.0352015,0.00276353,-1.4344,-0.00336528,-0.0162938,1.60554,-0.241553,-0.0625365,-1.46558,-0.0038668,-0.0172297,1.64668,-0.251493,-0.0635849,-0.00125469,-0.0303717,-0.0922179,0.2,0.2,0,1.28,0,0,0,0.2,-0.2,0,1.28,0,0,0,-1.4344,-0.00336528,-0.0162938,1.60554,-0.241553,-0.0625365,-1.46558,-0.0038668,-0.0172297,1.64668,-0.251493,-0.0635849,-0.00125469,-0.0303717,-0.0922179,0.2,0.2,0,1.28,0,0,0,0.2,-0.2,0,1.28,0,0,0
gen_000001_tz+0.05_tx-0.03_ty-0.02_p-0.05_fx-0.02_fy+0.00,-0.278767,2.4713563,0.506274,0.999367,0.0230856,0.0269272,0.00261352,-1.42331,-0.003537,-0.0163523,1.5865,-0.217049,-0.0625272,-1.45464,-0.00404851,-0.0172809,1.62763,-0.226835,-0.0635742,-0.000832151,-0.0302993,-0.0756708,0.2,0.2,0,1.28,0,0,0,0.2,-0.2,0,1.28,0,0,0,-1.42331,-0.003537,-0.0163523,1.5865,-0.217049,-0.0625272,-1.45464,-0.00404851,-0.0172809,1.62763,-0.226835,-0.0635742,-0.000832151,-0.0302993,-0.0756708,0.2,0.2,0,1.28,0,0,0,0.2,-0.2,0,1.28,0,0,0
gen_000002_tz+0.05_tx-0.03_ty-0.02_p-0.05_fx-0.01_fy+0.00,-0.27801,2.471357,0.506283,0.999556,0.0230596,0.0187225,0.00246124,-1.41172,-0.00369002,-0.0164206,1.56671,-0.192444,-0.0625192,-1.4432,-0.00421102,-0.0173423,1.60785,-0.202095,-0.0635647,-0.000407612,-0.0302138,-0.0592672,0.2,0.2,0,1.28,0,0,0,0.2,-0.2,0,1.28,0,0,0,-1.41172,-0.00369002,-0.0164206,1.56671,-0.192444,-0.0625192,-1.4432,-0.00421102,-0.0173423,1.60785,-0.202095,-0.0635647,-0.000407612,-0.0302138,-0.0592672,0.2,0.2,0,1.28,0,0,0,0.2,-0.2,0,1.28,0,0,0
gen_000003_tz+0.05_tx-0.03_ty-0.02_p-0.05_fx+0.00_fy+0.00,-0.277257,2.4713572,0.506303,0.999676,0.0230305,0.0105762,0.00230483,-1.39961,-0.00382092,-0.0164945,1.54618,-0.167745,-0.0625116,-1.43122,-0.0043508,-0.0174099,1.58735,-0.177278,-0.0635556,2.25675e-05,-0.0301188,-0.0429836,0.2,0.2,0,1.28,0,0,0,0.2,-0.2,0,1.28,0,0,0,-1.39961,-0.00382092,-0.0164945,1.54618,-0.167745,-0.0625116,-1.43122,-0.0043508,-0.0174099,1.58735,-0.177278,-0.0635556,2.25675e-05,-0.0301188,-0.0429836,0.2,0.2,0,1.28,0,0,0,0.2,-0.2,0,1.28,0,0,0
gen_000004_tz+0.05_tx-0.03_ty-0.02_p-0.05_fx+0.01_fy+0.00,-0.276507,2.4713566,0.506333,0.99973,0.0229957,0.00247848,0.00214554,-1.38694,-0.00393233,-0.0165818,1.52492,-0.142955,-0.0625062,-1.41868,-0.00447072,-0.0174913,1.56611,-0.152389,-0.0635486,0.000455911,-0.0300084,-0.026799,0.2,0.2,0,1.28,0,0,0,0.2,-0.2,0,1.28,0,0,0,-1.38694,-0.00393233,-0.0165818,1.52492,-0.142955,-0.0625062,-1.41868,-0.00447072,-0.0174913,1.56611,-0.152389,-0.0635486,0.000455911,-0.0300084,-0.026799,0.2,0.2,0,1.28,0,0,0,0.2,-0.2,0,1.28,0,0,0
gen_000005_tz+0.05_tx-0.03_ty-0.02_p-0.05_fx+0.02_fy+0.00,-0.27576,2.4713551,0.506374,0.999719,0.0229541,-0.00557768,0.0019834,-1.37371,-0.00402429,-0.0166849,1.50291,-0.118072,-0.0625037,-1.40557,-0.00457087,-0.0175891,1.54414,-0.127427,-0.0635443,0.00089218,-0.0298807,-0.0106988,0.2,0.2,0,1.28,0,0,0,0.2,-0.2,0,1.28,0,0,0,-1.37371,-0.00402429,-0.0166849,1.50291,-0.118072,-0.0625037,-1.40557,-0.00457087,-0.0175891,1.54414,-0.127427,-0.0635443,0.00089218,-0.0298807,-0.0106988,0.2,0.2,0,1.28,0,0,0,0.2,-0.2,0,1.28,0,0,0
gen_000006_tz+0.05_tx-0.03_ty-0.02_p-0.05_fx+0.03_fy+0.00,-0.275016,2.4713527,0.506424,0.999643,0.0229055,-0.0135996,0.00181809,-1.35989,-0.00409607,-0.016805,1.48015,-0.0930932,-0.0625044,-1.39187,-0.00465056,-0.0177044,1.52143,-0.102389,-0.0635431,0.00133179,-0.0297351,0.00533296,0.2,0.2,0,1.28,0,0,0,0.2,-0.2,0,1.28,0,0,0,-1.35989,-0.00409607,-0.016805,1.48015,-0.0930932,-0.0625044,-1.39187,-0.00465056,-0.0177044,1.52143,-0.102389,-0.0635431,0.00133179,-0.0297351,0.00533296,0.2,0.2,0,1.28,0,0,0,0.2,-0.2,0,1.28,0,0,0
gen_000007_tz+0.05_tx-0.02_ty-0.02_p-0.05_fx-0.03_fy+0.00,-0.270299,2.4713525,0.506289,0.998779,0.0231219,0.043551,0.00291243,-1.44502,-0.00317712,-0.0162473,1.62385,-0.265954,-0.0625475,-1.47603,-0.00366817,-0.0171909,1.665,-0.276068,-0.0635971,-0.00167731,-0.0304288,-0.108921,0.2,0.2,0,1.28,0,0,0,0.2,-0.2,0,1.28,0,0,0,-1.44502,-0.00317712,-0.0162473,1.62385,-0.265954,-0.0625475,-1.47603,-0.00366817,-0.0171909,1.665,-0.276068,-0.0635971,-0.00167731,-0.0304288,-0.108921,0.2,0.2,0,1.28,0,0,0,0.2,-0.2,0,1.28,0,0,0
gen_000008_tz+0.05_tx-0.02_ty-0.02_p-0.05_fx-0.02_fy+0.00,-0.26953,2.4713548,0.506276,0.999109,0.0231068,0.0352017,0.00276355,-1.4344,-0.0033653,-0.0162936,1.60554,-0.241553,-0.0625364,-1.46558,-0.00386682,-0.0172296,1.64668,-0.251493,-0.0635848,-0.00125473,-0.0303718,-0.0922183,0.2,0.2,0,1.28,0,0,0,0.2,-0.2,0,1.28,0,0,0,-1.4344,-0.0033653,-0.0162936,1.60554,-0.241553,-0.0625364,-1.46558,-0.00386682,-0.0172296,1.64668,-0.251493,-0.0635848,-0.00125473,-0.0303718,-0.0922183,0.2,0.2,0,1.28,0,0,0,0.2,-0.2,0,1.28,0,0,0
gen_000009_tz+0.05_tx-0.02_ty-0.02_p-0.05_fx-0.01_fy+0.00,-0.268767,2.4713563,0.506274,0.999367,0.0230856,0.0269274,0.00261354,-1.42331,-0.00353702,-0.0163522,1.5865,-0.217049,-0.0625271,-1.45464,-0.00404853,-0.0172808,1.62763,-0.226835,-0.0635742,-0.000832192,-0.0302994,-0.0756712,0.2,0.2,0,1.28,0,0,0,0.2,-0.2,0,1.28,0,0,0,-1.42331,-0.00353702,-0.0163522,1.5865,-0.217049,-0.0625271,-1.45464,-0.00404853,-0.0172808,1.62763,-0.226835,-0.0635742,-0.000832192,-0.0302994,-0.0756712,0.2,0.2,0,1.28,0,0,0,0.2,-0.2,0,1.28,0,0,0
gen_000010_tz+0.05_tx-0.02_ty-0.02_p-0.05_fx+0.00_fy+0.00,-0.26801,2.471357,0.506283,0.999556,0.0230588,0.0187228,0.00246181,-1.41172,-0.00369115,-0.0164226,1.56671,-0.192443,-0.0625196,-1.4432,-0.00421218,-0.0173443,1.60785,-0.202095,-0.0635652,-0.000408729,-0.0302122,-0.0592679,0.2,0.2,0,1.28,0,0,0,0.2,-0.2,0,1.28,0,0,0,-1.41172,-0.00369115,-0.0164226,1.56671,-0.192443,-0.0625196,-1.4432,-0.00421218,-0.0173443,1.60785,-0.202095,-0.0635652,-0.000408729,-0.0302122,-0.0592679,0.2,0.2,0,1.28,0,0,0,0.2,-0.2,0,1.28,0,0,0
gen_000011_tz+0.05_tx-0.02_ty-0.02_p-0.05_fx+0.01_fy+0.00,-0.267257,2.4713572,0.506303,0.999676,0.0230306,0.0105764,0.00230484,-1.39961,-0.00382092,-0.0164945,1.54618,-0.167745,-0.0625116,-1.43122,-0.0043508,-0.0174098,1.58735,-0.177278,-0.0635556,2.25564e-05,-0.0301188,-0.0429838,0.2,0.2,0,1.28,0,0,0,0.2,-0.2,0,1.28,0,0,0,-1.39961,-0.00382092,-0.0164945,1.54618,-0.167745,-0.0625116,-1.43122,-0.0043508,-0.0174098,1.58735,-0.177278,-0.0635556,2.25564e-05,-0.0301188,-0.0429838,0.2,0.2,0,1.28,0,0,0,0.2,-0.2,0,1.28,0,0,0
gen_000012_tz+0.05_tx-0.02_ty-0.02_p-0.05_fx+0.02_fy+0.00,-0.266507,2.4713566,0.506333,0.99973,0.0229957,0.00247858,0.00214554,-1.38694,-0.00393233,-0.0165818,1.52492,-0.142955,-0.0625062,-1.41869,-0.00447072,-0.0174913,1.56611,-0.152389,-0.0635486,0.000455911,-0.0300083,-0.0267992,0.2,0.2,0,1.28,0,0,0,0.2,-0.2,0,1.28,0,0,0,-1.38694,-0.00393233,-0.0165818,1.52492,-0.142955,-0.0625062,-1.41869,-0.00447072,-0.0174913,1.56611,-0.152389,-0.0635486,0.000455911,-0.0300083,-0.0267992,0.2,0.2,0,1.28,0,0,0,0.2,-0.2,0,1.28,0,0,0
gen_000013_tz+0.05_tx-0.02_ty-0.02_p-0.05_fx+0.03_fy+0.00,-0.26576,2.4713551,0.506374,0.999719,0.0229541,-0.00557759,0.0019834,-1.37371,-0.00402428,-0.0166849,1.50291,-0.118072,-0.0625037,-1.40557,-0.00457086,-0.0175891,1.54414,-0.127427,-0.0635443,0.000892183,-0.0298807,-0.0106989,0.2,0.2,0,1.28,0,0,0,0.2,-0.2,0,1.28,0,0,0,-1.37371,-0.00402428,-0.0166849,1.50291,-0.118072,-0.0625037,-1.40557,-0.00457086,-0.0175891,1.54414,-0.127427,-0.0635443,0.000892183,-0.0298807,-0.0106989,0.2,0.2,0,1.28,0,0,0,0.2,-0.2,0,1.28,0,0,0
gen_000014_tz+0.05_tx-0.01_ty-0.02_p-0.05_fx-0.03_fy+0.00,-0.261073,2.4713492,0.506314,0.998376,0.0231302,0.0519769,0.00306115,-1.45516,-0.00297451,-0.0162149,1.64143,-0.290251,-0.0625607,-1.486,-0.00345462,-0.0171664,1.6826,-0.300561,-0.0636114,-0.00210153,-0.0304684,-0.125784,0.2,0.2,0,1.28,0,0,0,0.2,-0.2,0,1.28,0,0,0,-1.45516,-0.00297451,-0.0162149,1.64143,-0.290251,-0.0625607,-1.486,-0.00345462,-0.0171664,1.6826,-0.300561,-0.0636114,-0.00210153,-0.0304684,-0.125784,0.2,0.2,0,1.28,0,0,0,0.2,-0.2,0,1.28,0,0,0
gen_000015_tz+0.05_tx-0.01_ty-0.02_p-0.05_fx-0.02_fy+0.00,-0.260299,2.4713524,0.506289,0.998779,0.0231216,0.0435502,0.00291268,-1.44502,-0.00317765,-0.0162481,1.62386,-0.265954,-0.0625477,-1.47603,-0.00366872,-0.0171917,1.665,-0.276069,-0.0635973,-0.00167778,-0.0304281,-0.10892,0.2,0.2,0,1.28,0,0,0,0.2,-0.2,0,1.28,0,0,0,-1.44502,-0.00317765,-0.0162481,1.62386,-0.265954,-0.0625477,-1.47603,-0.00366872,-0.0171917,1.665,-0.276069,-0.0635973,-0.00167778,-0.0304281,-0.10892,0.2,0.2,0,1.28,0,0,0,0.2,-0.2,0,1.28,0,0,0
gen_000016_tz+0.05_tx-0.01_ty-0.02_p-0.05_fx-0.01_fy+0.00,-0.25953,2.4713548,0.506276,0.999109,0.0231068,0.0352018,0.00276356,-1.4344,-0.00336532,-0.0162935,1.60554,-0.241553,-0.0625364,-1.46558,-0.00386684,-0.0172294,1.64668,-0.251493,-0.0635848,-0.00125476,-0.0303719,-0.0922186,0.2,0.2,0,1.28,0,0,0,0.2,-0.2,0,1.28,0,0,0,-1.4344,-0.00336532,-0.0162935,1.60554,-0.241553,-0.0625364,-1.46558,-0.00386684,-0.0172294,1.64668,-0.251493,-0.0635848,-0.00125476,-0.0303719,-0.0922186,0.2,0.2,0,1.28,0,0,0,0.2,-0.2,0,1.28,0,0,0
gen_000017_tz+0.05_tx-0.01_ty-0.02_p-0.05_fx+0.00_fy+0.00,-0.258767,2.4713562,0.506274,0.999367,0.0230849,0.0269271,0.00261402,-1.42331,-0.003538,-0.0163539,1.5865,-0.217049,-0.0625275,-1.45464,-0.00404955,-0.0172825,1.62763,-0.226835,-0.0635746,-0.000833114,-0.030298,-0.0756706,0.2,0.2,0,1.28,0,0,0,0.2,-0.2,0,1.28,0,0,0,-1.42331,-0.003538,-0.0163539,1.5865,-0.217049,-0.0625275,-1.45464,-0.00404955,-0.0172825,1.62763,-0.226835,-0.0635746,-0.000833114,-0.030298,-0.0756706,0.2,0.2,0,1.28,0,0,0,0.2,-0.2,0,1.28,0,0,0
gen_000018_tz+0.05_tx-0.01_ty-0.02_p-0.05_fx+0.01_fy+0.00,-0.25801,2.471357,0.506283,0.999556,0.0230588,0.018723,0.00246182,-1.41172,-0.00369114,-0.0164226,1.56671,-0.192443,-0.0625196,-1.4432,-0.00421218,-0.0173442,1.60785,-0.202095,-0.0635652,-0.000408739,-0.0302122,-0.0592683,0.2,0.2,0,1.28,0,0,0,0.2,-0.2,0,1.28,0,0,0,-1.41172,-0.00369114,-0.0164226,1.56671,-0.192443,-0.0625196,-1.4432,-0.00421218,-0.0173442,1.60785,-0.202095,-0.0635652,-0.000408739,-0.0302122,-0.0592683,0.2,0.2,0,1.28,0,0,0,0.2,-0.2,0,1.28,0,0,0
gen_000019_tz+0.05_tx-0.01_ty-0.02_p-0.05_fx+0.02_fy+0.00,-0.257257,2.4713572,0.506303,0.999676,0.0230306,0.0105765,0.00230483,-1.39961,-0.00382091,-0.0164945,1.54618,-0.167745,-0.0625116,-1.43122,-0.00435079,-0.0174099,1.58735,-0.177278,-0.0635556,2.25603e-05,-0.0301188,-0.0429841,0.2,0.2,0,1.28,0,0,0,0.2,-0.2,0,1.28,0,0,0,-1.39961,-0.00382091,-0.0164945,1.54618,-0.167745,-0.0625116,-1.43122,-0.00435079,-0.0174099,1.58735,-0.177278,-0.0635556,2.25603e-05,-0.0301188,-0.0429841,0.2,0.2,0,1.28,0,0,0,0.2,-0.2,0,1.28,0,0,0
gen_000020_tz+0.05_tx-0.01_ty-0.02_p-0.05_fx+0.03_fy+0.00,-0.256507,2.4713566,0.506333,0.99973,0.0229961,0.00247786,0.00214517,-1.38694,-0.00393163,-0.0165807,1.52492,-0.142956,-0.062506,-1.41868,-0.00446999,-0.0174902,1.56611,-0.15239,-0.0635484,0.000456658,-0.0300092,-0.0267978,0.2,0.2,0,1.28,0,0,0,0.2,-0.2,0,1.28,0,0,0,-1.38694,-0.00393163,-0.0165807,1.52492,-0.142956,-0.062506,-1.41868,-0.00446999,-0.0174902,1.56611,-0.15239,-0.0635484,0.000456658,-0.0300092,-0.0267978,0.2,0.2,0,1.28,0,0,0,0.2,-0.2,0,1.28,0,0,0
gen_000021_tz+0.05_tx+0.00_ty-0.02_p-0.05_fx-0.03_fy+0.00,-0.251854,2.471345,0.506352,0.997896,0.0231324,0.0604843,0.00320937,-1.46485,-0.00275673,-0.0161936,1.65828,-0.31444,-0.0625754,-1.4955,-0.00322535,-0.0171531,1.69947,-0.324966,-0.063627,-0.00252658,-0.0304926,-0.142818,0.2,0.2,0,1.28,0,0,0,0.2,-0.2,0,1.28,0,0,0,-1.46485,-0.00275673,-0.0161936,1.65828,-0.31444,-0.0625754,-1.4955,-0.00322535,-0.0171531,1.69947,-0.324966,-0.063627,-0.00252658,-0.0304926,-0.142818,0.2,0.2,0,1.28,0,0,0,0.2,-0.2,0,1.28,0,0,0
gen_000022_tz+0.05_tx+0.00_ty-0.02_p-0.05_fx-0.02_fy+0.00,-0.251073,2.4713492,0.506314,0.998376,0.0231302,0.051977,0.00306115,-1.45516,-0.00297452,-0.0162149,1.64143,-0.290251,-0.0625607,-1.486,-0.00345463,-0.0171663,1.6826,-0.300561,-0.0636114,-0.00210155,-0.0304685,-0.125784,0.2,0.2,0,1.28,0,0,0,0.2,-0.2,0,1.28,0,0,0,-1.45516,-0.00297452,-0.0162149,1.64143,-0.290251,-0.0625607,-1.486,-0.00345463,-0.0171663,1.6826,-0.300561,-0.0636114,-0.00210155,-0.0304685,-0.125784,0.2,0.2,0,1.28,0,0,0,0.2,-0.2,0,1.28,0,0,0
gen_000023_tz+0.05_tx+0.00_ty-0.02_p-0.05_fx-0.01_fy+0.00,-0.250299,2.4713524,0.506289,0.998779,0.0231216,0.0435504,0.00291269,-1.44502,-0.00317766,-0.0162481,1.62386,-0.265954,-0.0625477,-1.47603,-0.00366872,-0.0171916,1.665,-0.276069,-0.0635973,-0.00167779,-0.0304282,-0.10892,0.2,0.2,0,1.28,0,0,0,0.2,-0.2,0,1.28,0,0,0,-1.44502,-0.00317766,-0.0162481,1.62386,-0.265954,-0.0625477,-1.47603,-0.00366872,-0.0171916,1.665,-0.276069,-0.0635973,-0.00167779,-0.0304282,-0.10892,0.2,0.2,0,1.28,0,0,0,0.2,-0.2,0,1.28,0,0,0
gen_000024_tz+0.05_tx+0.00_ty-0.02_p-0.05_fx+0.00_fy+0.00,-0.24953,2.4713548,0.506276,0.999109,0.0231068,0.035202,0.00276356,-1.4344,-0.00336532,-0.0162935,1.60554,-0.241553,-0.0625364,-1.46558,-0.00386684,-0.0172294,1.64668,-0.251493,-0.0635848,-0.00125477,-0.0303719,-0.0922189,0.2,0.2,0,1.28,0,0,0,0.2,-0.2,0,1.28,0,0,0,-1.4344,-0.00336532,-0.0162935,1.60554,-0.241553,-0.0625364,-1.46558,-0.00386684,-0.0172294,1.64668,-0.251493,-0.0635848,-0.00125477,-0.0303719,-0.0922189,0.2,0.2,0,1.28,0,0,0,0.2,-0.2,0,1.28,0,0,0
gen_000025_tz+0.05_tx+0.00_ty-0.02_p-0.05_fx+0.01_fy+0.00,-0.248767,2.4713562,0.506274,0.999367,0.0230849,0.0269273,0.00261402,-1.42331,-0.00353799,-0.0163539,1.5865,-0.217048,-0.0625275,-1.45464,-0.00404954,-0.0172825,1.62763,-0.226835,-0.0635746,-0.000833115,-0.030298,-0.0756709,0.2,0.2,0,1.28,0,0,0,0.2,-0.2,0,1.28,0,0,0,-1.42331,-0.00353799,-0.0163539,1.5865,-0.217048,-0.0625275,-1.45464,-0.00404954,-0.0172825,1.62763,-0.226835,-0.0635746,-0.000833115,-0.030298,-0.0756709,0.2,0.2,0,1.28,0,0,0,0.2,-0.2,0,1.28,0,0,0
gen_000026_tz+0.05_tx+0.00_ty-0.02_p-0.05_fx+0.02_fy+0.00,-0.24801,2.471357,0.506283,0.999556,0.0230596,0.0187231,0.00246125,-1.41172,-0.00369002,-0.0164206,1.56671,-0.192443,-0.0625191,-1.4432,-0.00421101,-0.0173423,1.60785,-0.202094,-0.0635647,-0.000407639,-0.0302138,-0.0592683,0.2,0.2,0,1.28,0,0,0,0.2,-0.2,0,1.28,0,0,0,-1.41172,-0.00369002,-0.0164206,1.56671,-0.192443,-0.0625191,-1.4432,-0.00421101,-0.0173423,1.60785,-0.202094,-0.0635647,-0.000407639,-0.0302138,-0.0592683,0.2,0.2,0,1.28,0,0,0,0.2,-0.2,0,1.28,0,0,0
gen_000027_tz+0.05_tx+0.00_ty-0.02_p-0.05_fx+0.03_fy+0.00,-0.247257,2.4713572,0.506303,0.999676,0.0230305,0.0105767,0.00230482,-1.39961,-0.00382088,-0.0164946,1.54618,-0.167745,-0.0625116,-1.43122,-0.00435077,-0.01741,1.58735,-0.177278,-0.0635556,2.25772e-05,-0.0301187,-0.0429844,0.2,0.2,0,1.28,0,0,0,0.2,-0.2,0,1.28,0,0,0,-1.39961,-0.00382088,-0.0164946,1.54618,-0.167745,-0.0625116,-1.43122,-0.00435077,-0.01741,1.58735,-0.177278,-0.0635556,2.25772e-05,-0.0301187,-0.0429844,0.2,0.2,0,1.28,0,0,0,0.2,-0.2,0,1.28,0,0,0
gen_000028_tz+0.05_tx+0.01_ty-0.02_p-0.05_fx-0.03_fy+0.00,-0.242641,2.4713399,0.506402,0.997338,0.0231285,0.0690762,0.00335737,-1.4741,-0.00252432,-0.0161828,1.67439,-0.338517,-0.0625915,-1.50454,-0.00298086,-0.0171505,1.71561,-0.34928,-0.0636438,-0.00295279,-0.030501,-0.160031,0.2,0.2,0,1.28,0,0,0,0.2,-0.2,0,1.28,0,0,0,-1.4741,-0.00252432,-0.0161828,1.67439,-0.338517,-0.0625915,-1.50454,-0.00298086,-0.0171505,1.71561,-0.34928,-0.0636438,-0.00295279,-0.030501,-0.160031,0.2,0.2,0,1.28,0,0,0,0.2,-0.2,0,1.28,0,0,0
gen_000029_tz+0.05_tx+0.01_ty-0.02_p-0.05_fx-0.02_fy+0.00,-0.241854,2.471345,0.506352,0.997896,0.0231324,0.0604844,0.00320937,-1.46486,-0.00275674,-0.0161936,1.65828,-0.31444,-0.0625754,-1.4955,-0.00322535,-0.0171531,1.69947,-0.324966,-0.063627,-0.00252659,-0.0304926,-0.142818,0.2,0.2,0,1.28,0,0,0,0.2,-0.2,0,1.28,0,0,0,-1.46486,-0.00275674,-0.0161936,1.65828,-0.31444,-0.0625754,-1.4955,-0.00322535,-0.0171531,1.69947,-0.324966,-0.063627,-0.00252659,-0.0304926,-0.142818,0.2,0.2,0,1.28,0,0,0,0.2,-0.2,0,1.28,0,0,0
gen_000030_tz+0.05_tx+0.01_ty-0.02_p-0.05_fx-0.01_fy+0.00,-0.241073,2.4713492,0.506314,0.998376,0.0231302,0.0519771,0.00306116,-1.45516,-0.00297453,-0.0162148,1.64143,-0.290251,-0.0625607,-1.486,-0.00345463,-0.0171663,1.6826,-0.300561,-0.0636113,-0.00210156,-0.0304685,-0.125784,0.2,0.2,0,1.28,0,0,0,0.2,-0.2,0,1.28,0,0,0,-1.45516,-0.00297453,-0.0162148,1.64143,-0.290251,-0.0625607,-1.486,-0.00345463,-0.0171663,1.6826,-0.300561,-0.0636113,-0.00210156,-0.0304685,-0.125784,0.2,0.2,0,1.28,0,0,0,0.2,-0.2,0,1.28,0,0,0
gen_000031_tz+0.05_tx+0.01_ty-0.02_p-0.05_fx+0.00_fy+0.00,-0.240299,2.4713524,0.506289,0.998779,0.0231217,0.0435505,0.00291269,-1.44502,-0.00317766,-0.0162481,1.62386,-0.265954,-0.0625477,-1.47603,-0.00366872,-0.0171916,1.665,-0.276069,-0.0635973,-0.0016778,-0.0304282,-0.10892,0.2,0.2,0,1.28,0,0,0,0.2,-0.2,0,1.28,0,0,0,-1.44502,-0.00317766,-0.0162481,1.62386,-0.265954,-0.0625477,-1.47603,-0.00366872,-0.0171916,1.665,-0.276069,-0.0635973,-0.0016778,-0.0304282,-0.10892,0.2,0.2,0,1.28,0,0,0,0.2,-0.2,0,1.28,0,0,0
gen_000032_tz+0.05_tx+0.01_ty-0.02_p-0.05_fx+0.01_fy+0.00,-0.23953,2.4713548,0.506276,0.999109,0.0231068,0.0352021,0.00276356,-1.4344,-0.00336531,-0.0162935,1.60554,-0.241552,-0.0625364,-1.46558,-0.00386683,-0.0172295,1.64668,-0.251493,-0.0635848,-0.00125477,-0.0303719,-0.0922191,0.2,0.2,0,1.28,0,0,0,0.2,-0.2,0,1.28,0,0,0,-1.4344,-0.00336531,-0.0162935,1.60554,-0.241552,-0.0625364,-1.46558,-0.00386683,-0.0172295,1.64668,-0.251493,-0.0635848,-0.00125477,-0.0303719,-0.0922191,0.2,0.2,0,1.28,0,0,0,0.2,-0.2,0,1.28,0,0,0
gen_000033_tz+0.05_tx+0.01_ty-0.02_p-0.05_fx+0.02_fy+0.00,-0.238767,2.4713562,0.506274,0.999367,0.0230849,0.0269274,0.00261401,-1.42331,-0.00353796,-0.0163541,1.5865,-0.217048,-0.0625276,-1.45464,-0.00404951,-0.0172826,1.62763,-0.226835,-0.0635746,-0.000833094,-0.0302979,-0.0756712,0.2,0.2,0,1.28,0,0,0,0.2,-0.2,0,1.28,0,0,0,-1.42331,-0.00353796,-0.0163541,1.5865,-0.217048,-0.0625276,-1.45464,-0.00404951,-0.0172826,1.62763,-0.226835,-0.0635746,-0.000833094,-0.0302979,-0.0756712,0.2,0.2,0,1.28,0,0,0,0.2,-0.2,0,1.28,0,0,0
gen_000034_tz+0.05_tx+0.01_ty-0.02_p-0.05_fx+0.03_fy+0.00,-0.23801,2.471357,0.506283,0.999556,0.0230595,0.0187232,0.00246124,-1.41172,-0.00368998,-0.0164208,1.56671,-0.192443,-0.0625192,-1.4432,-0.00421097,-0.0173425,1.60785,-0.202094,-0.0635648,-0.000407609,-0.0302137,-0.0592687,0.2,0.2,0,1.28,0,0,0,0.2,-0.2,0,1.28,0,0,0,-1.41172,-0.00368998,-0.0164208,1.56671,-0.192443,-0.0625192,-1.4432,-0.00421097,-0.0173425,1.60785,-0.202094,-0.0635648,-0.000407609,-0.0302137,-0.0592687,0.2,0.2,0,1.28,0,0,0,0.2,-0.2,0,1.28,0,0,0
gen_000035_tz+0.05_tx+0.02_ty-0.02_p-0.05_fx-0.03_fy+0.00,-0.233434,2.4713339,0.506465,0.996698,0.0231184,0.0777538,0.00350554,-1.48292,-0.00227804,-0.0161823,1.68977,-0.362478,-0.0626088,-1.51313,-0.00272192,-0.0171584,1.73102,-0.373497,-0.0636617,-0.0033806,-0.0304933,-0.177426,0.2,0.2,0,1.28,0,0,0,0.2,-0.2,0,1.28,0,0,0,-1.48292,-0.00227804,-0.0161823,1.68977,-0.362478,-0.0626088,-1.51313,-0.00272192,-0.0171584,1.73102,-0.373497,-0.0636617,-0.0033806,-0.0304933,-0.177426,0.2,0.2,0,1.28,0,0,0,0.2,-0.2,0,1.28,0,0,0
gen_000036_tz+0.05_tx+0.02_ty-0.02_p-0.05_fx-0.02_fy+0.00,-0.232641,2.4713399,0.506402,0.997338,0.0231285,0.0690763,0.00335738,-1.4741,-0.00252432,-0.0161827,1.67439,-0.338517,-0.0625915,-1.50454,-0.00298086,-0.0171505,1.71561,-0.34928,-0.0636438,-0.0029528,-0.030501,-0.160031,0.2,0.2,0,1.28,0,0,0,0.2,-0.2,0,1.28,0,0,0,-1.4741,-0.00252432,-0.0161827,1.67439,-0.338517,-0.0625915,-1.50454,-0.00298086,-0.0171505,1.71561,-0.34928,-0.0636438,-0.0029528,-0.030501,-0.160031,0.2,0.2,0,1.28,0,0,0,0.2,-0.2,0,1.28,0,0,0
gen_000037_tz+0.05_tx+0.02_ty-0.02_p-0.05_fx-0.01_fy+0.00,-0.231854,2.471345,0.506352,0.997896,0.0231324,0.0604845,0.00320937,-1.46486,-0.00275674,-0.0161935,1.65828,-0.31444,-0.0625754,-1.4955,-0.00322535,-0.0171531,1.69947,-0.324966,-0.063627,-0.0025266,-0.0304926,-0.142818,0.2,0.2,0,1.28,0,0,0,0.2,-0.2,0,1.28,0,0,0,-1.46486,-0.00275674,-0.0161935,1.65828,-0.31444,-0.0625754,-1.4955,-0.00322535,-0.0171531,1.69947,-0.324966,-0.063627,-0.0025266,-0.0304926,-0.142818,0.2,0.2,0,1.28,0,0,0,0.2,-0.2,0,1.28,0,0,0
gen_000038_tz+0.05_tx+0.02_ty-0.02_p-0.05_fx+0.00_fy+0.00,-0.231073,2.4713492,0.506314,0.998376,0.0231302,0.0519771,0.00306116,-1.45516,-0.00297452,-0.0162148,1.64143,-0.290251,-0.0625607,-1.486,-0.00345463,-0.0171663,1.6826,-0.300561,-0.0636114,-0.00210156,-0.0304685,-0.125784,0.2,0.2,0,1.28,0,0,0,0.2,-0.2,0,1.28,0,0,0,-1.45516,-0.00297452,-0.0162148,1.64143,-0.290251,-0.0625607,-1.486,-0.00345463,-0.0171663,1.6826,-0.300561,-0.0636114,-0.00210156,-0.0304685,-0.125784,0.2,0.2,0,1.28,0,0,0,0.2,-0.2,0,1.28,0,0,0
gen_000039_tz+0.05_tx+0.02_ty-0.02_p-0.05_fx+0.01_fy+0.00,-0.230299,2.4713524,0.506289,0.998779,0.0231216,0.0435505,0.00291268,-1.44502,-0.00317765,-0.0162481,1.62386,-0.265954,-0.0625477,-1.47603,-0.00366871,-0.0171917,1.665,-0.276069,-0.0635973,-0.00167779,-0.0304281,-0.10892,0.2,0.2,0,1.28,0,0,0,0.2,-0.2,0,1.28,0,0,0,-1.44502,-0.00317765,-0.0162481,1.62386,-0.265954,-0.0625477,-1.47603,-0.00366871,-0.0171917,1.665,-0.276069,-0.0635973,-0.00167779,-0.0304281,-0.10892,0.2,0.2,0,1.28,0,0,0,0.2,-0.2,0,1.28,0,0,0
gen_000040_tz+0.05_tx+0.02_ty-0.02_p-0.05_fx+0.02_fy+0.00,-0.22953,2.4713548,0.506276,0.999109,0.0231068,0.0352022,0.00276355,-1.43441,-0.00336529,-0.0162936,1.60554,-0.241552,-0.0625364,-1.46558,-0.00386681,-0.0172296,1.64668,-0.251493,-0.0635848,-0.00125474,-0.0303718,-0.0922193,0.2,0.2,0,1.28,0,0,0,0.2,-0.2,0,1.28,0,0,0,-1.43441,-0.00336529,-0.0162936,1.60554,-0.241552,-0.0625364,-1.46558,-0.00386681,-0.0172296,1.64668,-0.251493,-0.0635848,-0.00125474,-0.0303718,-0.0922193,0.2,0.2,0,1.28,0,0,0,0.2,-0.2,0,1.28,0,0,0
gen_000041_tz+0.05_tx+0.02_ty-0.02_p-0.05_fx+0.03_fy+0.00,-0.228767,2.4713562,0.506274,0.999367,0.0230848,0.0269276,0.00261399,-1.42331,-0.00353792,-0.0163543,1.5865,-0.217048,-0.0625276,-1.45464,-0.00404948,-0.0172828,1.62763,-0.226835,-0.0635746,-0.000833056,-0.0302977,-0.0756715,0.2,0.2,0,1.28,0,0,0,0.2,-0.2,0,1.28,0,0,0,-1.42331,-0.00353792,-0.0163543,1.5865,-0.217048,-0.0625276,-1.45464,-0.00404948,-0.0172828,1.62763,-0.226835,-0.0635746,-0.000833056,-0.0302977,-0.0756715,0.2,0.2,0,1.28,0,0,0,0.2,-0.2,0,1.28,0,0,0
gen_000042_tz+0.05_tx+0.03_ty-0.02_p-0.05_fx-0.03_fy+0.00,-0.224234,2.471327,0.506541,0.995976,0.0231021,0.0865194,0.00365401,-1.4913,-0.00201814,-0.0161911,1.70441,-0.386315,-0.0626273,-1.52128,-0.00244871,-0.0171757,1.7457,-0.397611,-0.0636806,-0.00381003,-0.0304695,-0.195011,0.2,0.2,0,1.28,0,0,0,0.2,-0.2,0,1.28,0,0,0,-1.4913,-0.00201814,-0.0161911,1.70441,-0.386315,-0.0626273,-1.52128,-0.00244871,-0.0171757,1.7457,-0.397611,-0.0636806,-0.00381003,-0.0304695,-0.195011,0.2,0.2,0,1.28,0,0,0,0.2,-0.2,0,1.28,0,0,0
gen_000043_tz+0.05_tx+0.03_ty-0.02_p-0.05_fx-0.02_fy+0.00,-0.223434,2.4713339,0.506465,0.996698,0.0231184,0.0777539,0.00350555,-1.48292,-0.00227805,-0.0161822,1.68977,-0.362478,-0.0626088,-1.51313,-0.00272192,-0.0171584,1.73102,-0.373497,-0.0636617,-0.00338061,-0.0304933,-0.177426,0.2,0.2,0,1.28,0,0,0,0.2,-0.2,0,1.28,0,0,0,-1.48292,-0.00227805,-0.0161822,1.68977,-0.362478,-0.0626088,-1.51313,-0.00272192,-0.0171584,1.73102,-0.373497,-0.0636617,-0.00338061,-0.0304933,-0.177426,0.2,0.2,0,1.28,0,0,0,0.2,-0.2,0,1.28,0,0,0
gen_000044_tz+0.05_tx+0.03_ty-0.02_p-0.05_fx-0.01_fy+0.00,-0.222641,2.4713399,0.506402,0.997338,0.0231285,0.0690764,0.00335738,-1.4741,-0.00252432,-0.0161827,1.67439,-0.338517,-0.0625915,-1.50454,-0.00298086,-0.0171505,1.71561,-0.34928,-0.0636438,-0.0029528,-0.030501,-0.160031,0.2,0.2,0,1.28,0,0,0,0.2,-0.2,0,1.28,0,0,0,-1.4741,-0.00252432,-0.0161827,1.67439,-0.338517,-0.0625915,-1.50454,-0.00298086,-0.0171505,1.71561,-0.34928,-0.0636438,-0.0029528,-0.030501,-0.160031,0.2,0.2,0,1.28,0,0,0,0.2,-0.2,0,1.28,0,0,0
gen_000045_tz+0.05_tx+0.03_ty-0.02_p-0.05_fx+0.00_fy+0.00,-0.221854,2.471345,0.506352,0.997896,0.0231324,0.0604845,0.00320937,-1.46486,-0.00275673,-0.0161936,1.65828,-0.31444,-0.0625754,-1.4955,-0.00322535,-0.0171531,1.69947,-0.324966,-0.063627,-0.0025266,-0.0304926,-0.142818,0.2,0.2,0,1.28,0,0,0,0.2,-0.2,0,1.28,0,0,0,-1.46486,-0.00275673,-0.0161936,1.65828,-0.31444,-0.0625754,-1.4955,-0.00322535,-0.0171531,1.69947,-0.324966,-0.063627,-0.0025266,-0.0304926,-0.142818,0.2,0.2,0,1.28,0,0,0,0.2,-0.2,0,1.28,0,0,0
gen_000046_tz+0.05_tx+0.03_ty-0.02_p-0.05_fx+0.01_fy+0.00,-0.221073,2.4713492,0.506314,0.998376,0.0231302,0.0519772,0.00306115,-1.45516,-0.00297451,-0.0162149,1.64143,-0.290251,-0.0625607,-1.486,-0.00345462,-0.0171663,1.6826,-0.300561,-0.0636114,-0.00210155,-0.0304685,-0.125784,0.2,0.2,0,1.28,0,0,0,0.2,-0.2,0,1.28,0,0,0,-1.45516,-0.00297451,-0.0162149,1.64143,-0.290251,-0.0625607,-1.486,-0.00345462,-0.0171663,1.6826,-0.300561,-0.0636114,-0.00210155,-0.0304685,-0.125784,0.2,0.2,0,1.28,0,0,0,0.2,-0.2,0,1.28,0,0,0
gen_000047_tz+0.05_tx+0.03_ty-0.02_p-0.05_fx+0.02_fy+0.00,-0.220299,2.4713524,0.506289,0.998779,0.0231216,0.0435506,0.00291267,-1.44502,-0.00317763,-0.0162482,1.62386,-0.265954,-0.0625477,-1.47603,-0.00366869,-0.0171918,1.665,-0.276069,-0.0635973,-0.00167777,-0.0304281,-0.10892,0.2,0.2,0,1.28,0,0,0,0.2,-0.2,0,1.28,0,0,0,-1.44502,-0.00317763,-0.0162482,1.62386,-0.265954,-0.0625477,-1.47603,-0.00366869,-0.0171918,1.665,-0.276069,-0.0635973,-0.00167777,-0.0304281,-0.10892,0.2,0.2,0,1.28,0,0,0,0.2,-0.2,0,1.28,0,0,0
gen_000048_tz+0.05_tx+0.03_ty-0.02_p-0.05_fx+0.03_fy+0.00,-0.21953,2.4713548,0.506276,0.999109,0.0231067,0.0352022,0.00276354,-1.43441,-0.00336525,-0.0162938,1.60554,-0.241552,-0.0625365,-1.46558,-0.00386678,-0.0172297,1.64668,-0.251493,-0.0635849,-0.00125471,-0.0303717,-0.0922194,0.2,0.2,0,1.28,0,0,0,0.2,-0.2,0,1.28,0,0,0,-1.43441,-0.00336525,-0.0162938,1.60554,-0.241552,-0.0625365,-1.46558,-0.00386678,-0.0172297,1.64668,-0.251493,-0.0635849,-0.00125471,-0.0303717,-0.0922194,0.2,0.2,0,1.28,0,0,0,0.2,-0.2,0,1.28,0,0,0
gen_000049_tz+0.05_tx-0.03_ty-0.01_p-0.05_fx-0.03_fy+0.00,-0.27952,2.4806378,0.50625,0.999266,0.0151621,0.0350884,0.00265706,-1.44102,-0.00393451,-0.0121628,1.61402,-0.24314,-0.0425363,-1.46126,-0.00417383,-0.012538,1.64207,-0.250935,-0.0429935,-0.000486778,-0.0145119,-0.0920057,0.2,0.2,0,1.28,0,0,0,0.2,-0.2,0,1.28,0,0,0,-1.44102,-0.00393451,-0.0121628,1.61402,-0.24314,-0.0425363,-1.46126,-0.00417383,-0.012538,1.64207,-0.250935,-0.0429935,-0.000486778,-0.0145119,-0.0920057,0.2,0.2,0,1.28,0,0,0,0.2,-0.2,0,1.28,0,0,0
gen_000050_tz+0.05_tx-0.03_ty-0.01_p-0.05_fx-0.02_fy+0.00,-0.278757,2.480639,0.506249,0.999523,0.0151472,0.0268107,0.00254718,-1.42995,-0.00403333,-0.0122046,1.59497,-0.218613,-0.0425274,-1.45031,-0.0042774,-0.0125766,1.62302,-0.226287,-0.0429839,-0.000276184,-0.0144444,-0.0754588,0.2,0.2,0,1.28,0,0,0,0.2,-0.2,0,1.28,0,0,0,-1.42995,-0.00403333,-0.0122046,1.59497,-0.218613,-0.0425274,-1.45031,-0.0042774,-0.0125766,1.62302,-0.226287,-0.0429839,-0.000276184,-0.0144444,-0.0754588,0.2,0.2,0,1.28,0,0,0,0.2,-0.2,0,1.28,0,0,0
gen_000051_tz+0.05_tx-0.03_ty-0.01_p-0.05_fx-0.01_fy+0.00,-0.278,2.4806395,0.506258,0.999709,0.0151274,0.0186105,0.00243755,-1.4184,-0.00412218,-0.0122581,1.57518,-0.193981,-0.0425204,-1.43887,-0.00437084,-0.012627,1.60323,-0.201548,-0.0429761,-6.73485e-05,-0.014366,-0.0590712,0.2,0.2,0,1.28,0,0,0,0.2,-0.2,0,1.28,0,0,0,-1.4184,-0.00412218,-0.0122581,1.57518,-0.193981,-0.0425204,-1.43887,-0.00437084,-0.012627,1.60323,-0.201548,-0.0429761,-6.73485e-05,-0.014366,-0.0590712,0.2,0.2,0,1.28,0,0,0,0.2,-0.2,0,1.28,0,0,0
gen_000052_tz+0.05_tx-0.03_ty-0.01_p-0.05_fx+0.00_fy+0.00,-0.277247,2.4806404,0.506278,0.999828,0.0151138,0.0104659,0.00232101,-1.40631,-0.00418713,-0.0122952,1.55465,-0.169263,-0.042509,-1.4269,-0.00443985,-0.0126615,1.58273,-0.176732,-0.0429639,0.000153599,-0.0142991,-0.0427978,0.2,0.2,0,1.28,0,0,0,0.2,-0.2,0,1.28,0,0,0,-1.40631,-0.00418713,-0.0122952,1.55465,-0.169263,-0.042509,-1.4269,-0.00443985,-0.0126615,1.58273,-0.176732,-0.0429639,0.000153599,-0.0142991,-0.0427978,0.2,0.2,0,1.28,0,0,0,0.2,-0.2,0,1.28,0,0,0
gen_000053_tz+0.05_tx-0.03_ty-0.01_p-0.05_fx+0.01_fy+0.00,-0.276497,2.4806404,0.506309,0.999881,0.0150935,0.0023668,0.00220461,-1.39366,-0.00424253,-0.0123491,1.53339,-0.14446,-0.0425006,-1.41436,-0.00449923,-0.0127129,1.56149,-0.151846,-0.0429547,0.000372926,-0.0142175,-0.0266176,0.2,0.2,0,1.28,0,0,0,0.2,-0.2,0,1.28,0,0,0,-1.39366,-0.00424253,-0.0123491,1.53339,-0.14446,-0.0425006,-1.41436,-0.00449923,-0.0127129,1.56149,-0.151846,-0.0429547,0.000372926,-0.0142175,-0.0266176,0.2,0.2,0,1.28,0,0,0,0.2,-0.2,0,1.28,0,0,0
gen_000054_tz+0.05_tx-0.03_ty-0.01_p-0.05_fx+0.02_fy+0.00,-0.275751,2.4806398,0.50635,0.999868,0.0150683,-0.00568784,0.0020873,-1.38045,-0.00428607,-0.0124155,1.51139,-0.119565,-0.0424944,-1.40125,-0.00454664,-0.0127771,1.53952,-0.126882,-0.0429476,0.00059246,-0.0141247,-0.0105274,0.2,0.2,0,1.28,0,0,0,0.2,-0.2,0,1.28,0,0,0,-1.38045,-0.00428607,-0.0124155,1.51139,-0.119565,-0.0424944,-1.40125,-0.00454664,-0.0127771,1.53952,-0.126882,-0.0429476,0.00059246,-0.0141247,-0.0105274,0.2,0.2,0,1.28,0,0,0,0.2,-0.2,0,1.28,0,0,0
gen_000055_tz+0.05_tx-0.03_ty-0.01_p-0.05_fx+0.03_fy+0.00,-0.275006,2.4806386,0.5064,0.999791,0.015039,-0.0137076,0.00196804,-1.36665,-0.00431569,-0.0124925,1.48864,-0.0945777,-0.0424899,-1.38755,-0.00457998,-0.0128521,1.51681,-0.10184,-0.0429423,0.000814077,-0.0140223,0.00549309,0.2,0.2,0,1.28,0,0,0,0.2,-0.2,0,1.28,0,0,0,-1.36665,-0.00431569,-0.0124925,1.48864,-0.0945777,-0.0424899,-1.38755,-0.00457998,-0.0128521,1.51681,-0.10184,-0.0429423,0.000814077,-0.0140223,0.00549309,0.2,0.2,0,1.28,0,0,0,0.2,-0.2,0,1.28,0,0,0
gen_000056_tz+0.05_tx-0.02_ty-0.01_p-0.05_fx-0.03_fy+0.00,-0.270288,2.480636,0.506263,0.998937,0.0151719,0.0434395,0.00276752,-1.45162,-0.00382662,-0.0121326,1.63233,-0.26757,-0.042547,-1.47172,-0.00406101,-0.0125112,1.66039,-0.275501,-0.0430049,-0.000699562,-0.0145683,-0.108705,0.2,0.2,0,1.28,0,0,0,0.2,-0.2,0,1.28,0,0,0,-1.45162,-0.00382662,-0.0121326,1.63233,-0.26757,-0.042547,-1.47172,-0.00406101,-0.0125112,1.66039,-0.275501,-0.0430049,-0.000699562,-0.0145683,-0.108705,0.2,0.2,0,1.28,0,0,0,0.2,-0.2,0,1.28,0,0,0
gen_000057_tz+0.05_tx-0.02_ty-0.01_p-0.05_fx-0.02_fy+0.00,-0.26952,2.4806378,0.50625,0.999266,0.0151618,0.0350876,0.00265723,-1.44102,-0.00393488,-0.0121634,1.61402,-0.243141,-0.0425364,-1.46126,-0.00417421,-0.0125386,1.64207,-0.250936,-0.0429937,-0.000487106,-0.0145115,-0.0920042,0.2,0.2,0,1.28,0,0,0,0.2,-0.2,0,1.28,0,0,0,-1.44102,-0.00393488,-0.0121634,1.61402,-0.243141,-0.0425364,-1.46126,-0.00417421,-0.0125386,1.64207,-0.250936,-0.0429937,-0.000487106,-0.0145115,-0.0920042,0.2,0.2,0,1.28,0,0,0,0.2,-0.2,0,1.28,0,0,0
gen_000058_tz+0.05_tx-0.02_ty-0.01_p-0.05_fx-0.01_fy+0.00,-0.268757,2.480639,0.506249,0.999523,0.0151467,0.0268102,0.00254749,-1.42995,-0.00403398,-0.0122058,1.59497,-0.218613,-0.0425277,-1.45031,-0.00427807,-0.0125778,1.62302,-0.226287,-0.0429842,-0.000276791,-0.0144435,-0.0754579,0.2,0.2,0,1.28,0,0,0,0.2,-0.2,0,1.28,0,0,0,-1.42995,-0.00403398,-0.0122058,1.59497,-0.218613,-0.0425277,-1.45031,-0.00427807,-0.0125778,1.62302,-0.226287,-0.0429842,-0.000276791,-0.0144435,-0.0754579,0.2,0.2,0,1.28,0,0,0,0.2,-0.2,0,1.28,0,0,0
gen_000059_tz+0.05_tx-0.02_ty-0.01_p-0.05_fx+0.00_fy+0.00,-0.268,2.4806396,0.506258,0.999709,0.0151283,0.0186107,0.00243709,-1.4184,-0.00412124,-0.0122558,1.57518,-0.193981,-0.0425199,-1.43887,-0.00436987,-0.0126248,1.60324,-0.201548,-0.0429756,-6.64554e-05,-0.0143678,-0.0590717,0.2,0.2,0,1.28,0,0,0,0.2,-0.2,0,1.28,0,0,0,-1.4184,-0.00412124,-0.0122558,1.57518,-0.193981,-0.0425199,-1.43887,-0.00436987,-0.0126248,1.60324,-0.201548,-0.0429756,-6.64554e-05,-0.0143678,-0.0590717,0.2,0.2,0,1.28,0,0,0,0.2,-0.2,0,1.28,0,0,0
gen_000060_tz+0.05_tx-0.02_ty-0.01_p-0.05_fx+0.01_fy+0.00,-0.267247,2.4806404,0.506278,0.999828,0.0151138,0.0104661,0.00232101,-1.40631,-0.00418713,-0.0122952,1.55465,-0.169263,-0.042509,-1.4269,-0.00443985,-0.0126615,1.58273,-0.176732,-0.0429639,0.000153589,-0.0142991,-0.0427982,0.2,0.2,0,1.28,0,0,0,0.2,-0.2,0,1.28,0,0,0,-1.40631,-0.00418713,-0.0122952,1.55465,-0.169263,-0.042509,-1.4269,-0.00443985,-0.0126615,1.58273,-0.176732,-0.0429639,0.000153589,-0.0142991,-0.0427982,0.2,0.2,0,1.28,0,0,0,0.2,-0.2,0,1.28,0,0,0
gen_000061_tz+0.05_tx-0.02_ty-0.01_p-0.05_fx+0.02_fy+0.00,-0.266497,2.4806404,0.506309,0.999881,0.0150935,0.00236691,0.00220461,-1.39366,-0.00424253,-0.0123491,1.53339,-0.14446,-0.0425006,-1.41436,-0.00449923,-0.0127129,1.56149,-0.151846,-0.0429547,0.000372926,-0.0142175,-0.0266179,0.2,0.2,0,1.28,0,0,0,0.2,-0.2,0,1.28,0,0,0,-1.39366,-0.00424253,-0.0123491,1.53339,-0.14446,-0.0425006,-1.41436,-0.00449923,-0.0127129,1.56149,-0.151846,-0.0429547,0.000372926,-0.0142175,-0.0266179,0.2,0.2,0,1.28,0,0,0,0.2,-0.2,0,1.28,0,0,0
gen_000062_tz+0.05_tx-0.02_ty-0.01_p-0.05_fx+0.03_fy+0.00,-0.265751,2.4806398,0.50635,0.999868,0.0150683,-0.00568775,0.0020873,-1.38045,-0.00428607,-0.0124155,1.51139,-0.119565,-0.0424944,-1.40125,-0.00454663,-0.0127771,1.53952,-0.126882,-0.0429476,0.000592463,-0.0141247,-0.0105276,0.2,0.2,0,1.28,0,0,0,0.2,-0.2,0,1.28,0,0,0,-1.38045,-0.00428607,-0.0124155,1.51139,-0.119565,-0.0424944,-1.40125,-0.00454663,-0.0127771,1.53952,-0.126882,-0.0429476,0.000592463,-0.0141247,-0.0105276,0.2,0.2,0,1.28,0,0,0,0.2,-0.2,0,1.28,0,0,0
gen_000063_tz+0.05_tx-0.01_ty-0.01_p-0.05_fx-0.03_fy+0.00,-0.261063,2.4806335,0.506288,0.998534,0.0151779,0.0518685,0.00287797,-1.46174,-0.00370847,-0.0121105,1.64991,-0.291898,-0.0425586,-1.48171,-0.00393769,-0.0124925,1.67798,-0.29998,-0.0430171,-0.000913297,-0.014616,-0.125567,0.2,0.2,0,1.28,0,0,0,0.2,-0.2,0,1.28,0,0,0,-1.46174,-0.00370847,-0.0121105,1.64991,-0.291898,-0.0425586,-1.48171,-0.00393769,-0.0124925,1.67798,-0.29998,-0.0430171,-0.000913297,-0.014616,-0.125567,0.2,0.2,0,1.28,0,0,0,0.2,-0.2,0,1.28,0,0,0
gen_000064_tz+0.05_tx-0.01_ty-0.01_p-0.05_fx-0.02_fy+0.00,-0.260289,2.480636,0.506263,0.998937,0.0151719,0.0434397,0.00276752,-1.45162,-0.00382663,-0.0121326,1.63233,-0.267569,-0.042547,-1.47172,-0.00406102,-0.0125112,1.66039,-0.275501,-0.0430049,-0.000699577,-0.0145683,-0.108705,0.2,0.2,0,1.28,0,0,0,0.2,-0.2,0,1.28,0,0,0,-1.45162,-0.00382663,-0.0121326,1.63233,-0.267569,-0.042547,-1.47172,-0.00406102,-0.0125112,1.66039,-0.275501,-0.0430049,-0.000699577,-0.0145683,-0.108705,0.2,0.2,0,1.28,0,0,0,0.2,-0.2,0,1.28,0,0,0
gen_000065_tz+0.05_tx-0.01_ty-0.01_p-0.05_fx-0.01_fy+0.00,-0.25952,2.4806378,0.50625,0.999266,0.0151618,0.0350878,0.00265724,-1.44102,-0.00393489,-0.0121633,1.61402,-0.243141,-0.0425364,-1.46126,-0.00417422,-0.0125385,1.64207,-0.250936,-0.0429936,-0.000487125,-0.0145115,-0.0920046,0.2,0.2,0,1.28,0,0,0,0.2,-0.2,0,1.28,0,0,0,-1.44102,-0.00393489,-0.0121633,1.61402,-0.243141,-0.0425364,-1.46126,-0.00417422,-0.0125385,1.64207,-0.250936,-0.0429936,-0.000487125,-0.0145115,-0.0920046,0.2,0.2,0,1.28,0,0,0,0.2,-0.2,0,1.28,0,0,0
gen_000066_tz+0.05_tx-0.01_ty-0.01_p-0.05_fx+0.00_fy+0.00,-0.258757,2.480639,0.506249,0.999523,0.0151468,0.0268105,0.0025475,-1.42995,-0.00403399,-0.0122057,1.59497,-0.218613,-0.0425277,-1.45031,-0.00427808,-0.0125777,1.62302,-0.226287,-0.0429842,-0.000276813,-0.0144435,-0.0754585,0.2,0.2,0,1.28,0,0,0,0.2,-0.2,0,1.28,0,0,0,-1.42995,-0.00403399,-0.0122057,1.59497,-0.218613,-0.0425277,-1.45031,-0.00427808,-0.0125777,1.62302,-0.226287,-0.0429842,-0.000276813,-0.0144435,-0.0754585,0.2,0.2,0,1.28,0,0,0,0.2,-0.2,0,1.28,0,0,0
gen_000067_tz+0.05_tx-0.01_ty-0.01_p-0.05_fx+0.01_fy+0.00,-0.258,2.4806396,0.506258,0.999709,0.0151283,0.0186111,0.00243709,-1.4184,-0.00412124,-0.0122558,1.57518,-0.19398,-0.0425199,-1.43887,-0.00436987,-0.0126248,1.60323,-0.201547,-0.0429756,-6.64673e-05,-0.0143678,-0.0590725,0.2,0.2,0,1.28,0,0,0,0.2,-0.2,0,1.28,0,0,0,-1.4184,-0.00412124,-0.0122558,1.57518,-0.19398,-0.0425199,-1.43887,-0.00436987,-0.0126248,1.60323,-0.201547,-0.0429756,-6.64673e-05,-0.0143678,-0.0590725,0.2,0.2,0,1.28,0,0,0,0.2,-0.2,0,1.28,0,0,0
gen_000068_tz+0.05_tx-0.01_ty-0.01_p-0.05_fx+0.02_fy+0.00,-0.257247,2.4806404,0.506278,0.999828,0.0151142,0.0104654,0.00232073,-1.4063,-0.00418659,-0.0122942,1.55465,-0.169264,-0.0425087,-1.4269,-0.00443929,-0.0126605,1.58273,-0.176732,-0.0429637,0.000154143,-0.0142999,-0.0427968,0.2,0.2,0,1.28,0,0,0,0.2,-0.2,0,1.28,0,0,0,-1.4063,-0.00418659,-0.0122942,1.55465,-0.169264,-0.0425087,-1.4269,-0.00443929,-0.0126605,1.58273,-0.176732,-0.0429637,0.000154143,-0.0142999,-0.0427968,0.2,0.2,0,1.28,0,0,0,0.2,-0.2,0,1.28,0,0,0
gen_000069_tz+0.05_tx-0.01_ty-0.01_p-0.05_fx+0.03_fy+0.00,-0.256497,2.4806404,0.506309,0.999881,0.0150935,0.00236704,0.00220461,-1.39366,-0.00424252,-0.0123491,1.53339,-0.14446,-0.0425006,-1.41436,-0.00449922,-0.0127129,1.56149,-0.151845,-0.0429547,0.000372933,-0.0142175,-0.0266181,0.2,0.2,0,1.28,0,0,0,0.2,-0.2,0,1.28,0,0,0,-1.39366,-0.00424252,-0.0123491,1.53339,-0.14446,-0.0425006,-1.41436,-0.00449922,-0.0127129,1.56149,-0.151845,-0.0429547,0.000372933,-0.0142175,-0.0266181,0.2,0.2,0,1.28,0,0,0,0.2,-0.2,0,1.28,0,0,0
gen_000070_tz+0.05_tx+0.00_ty-0.01_p-0.05_fx-0.03_fy+0.00,-0.251844,2.4806305,0.506326,0.998056,0.0151804,0.0603787,0.00298851,-1.4714,-0.00358024,-0.0120954,1.66676,-0.316123,-0.042571,-1.49122,-0.00380402,-0.012481,1.69485,-0.324371,-0.04303,-0.00112805,-0.0146557,-0.1426,0.2,0.2,0,1.28,0,0,0,0.2,-0.2,0,1.28,0,0,0,-1.4714,-0.00358024,-0.0120954,1.66676,-0.316123,-0.042571,-1.49122,-0.00380402,-0.012481,1.69485,-0.324371,-0.04303,-0.00112805,-0.0146557,-0.1426,0.2,0.2,0,1.28,0,0,0,0.2,-0.2,0,1.28,0,0,0
gen_000071_tz+0.05_tx+0.00_ty-0.01_p-0.05_fx-0.02_fy+0.00,-0.251063,2.4806335,0.506288,0.998534,0.0151778,0.0518676,0.00287805,-1.46173,-0.00370866,-0.0121108,1.64991,-0.291899,-0.0425587,-1.4817,-0.00393788,-0.0124928,1.67798,-0.299981,-0.0430172,-0.000913453,-0.0146158,-0.125565,0.2,0.2,0,1.28,0,0,0,0.2,-0.2,0,1.28,0,0,0,-1.46173,-0.00370866,-0.0121108,1.64991,-0.291899,-0.0425587,-1.4817,-0.00393788,-0.0124928,1.67798,-0.299981,-0.0430172,-0.000913453,-0.0146158,-0.125565,0.2,0.2,0,1.28,0,0,0,0.2,-0.2,0,1.28,0,0,0
gen_000072_tz+0.05_tx+0.00_ty-0.01_p-0.05_fx-0.01_fy+0.00,-0.250288,2.4806359,0.506263,0.998937,0.0151717,0.0434388,0.00276764,-1.45161,-0.00382688,-0.012133,1.63233,-0.26757,-0.042547,-1.47172,-0.00406128,-0.0125116,1.66039,-0.275502,-0.0430049,-0.00069979,-0.014568,-0.108704,0.2,0.2,0,1.28,0,0,0,0.2,-0.2,0,1.28,0,0,0,-1.45161,-0.00382688,-0.012133,1.63233,-0.26757,-0.042547,-1.47172,-0.00406128,-0.0125116,1.66039,-0.275502,-0.0430049,-0.00069979,-0.014568,-0.108704,0.2,0.2,0,1.28,0,0,0,0.2,-0.2,0,1.28,0,0,0
gen_000073_tz+0.05_tx+0.00_ty-0.01_p-0.05_fx+0.00_fy+0.00,-0.24952,2.4806378,0.50625,0.999266,0.0151619,0.035088,0.00265724,-1.44102,-0.00393489,-0.0121633,1.61402,-0.243141,-0.0425364,-1.46126,-0.00417422,-0.0125385,1.64207,-0.250936,-0.0429936,-0.000487132,-0.0145115,-0.0920049,0.2,0.2,0,1.28,0,0,0,0.2,-0.2,0,1.28,0,0,0,-1.44102,-0.00393489,-0.0121633,1.61402,-0.243141,-0.0425364,-1.46126,-0.00417422,-0.0125385,1.64207,-0.250936,-0.0429936,-0.000487132,-0.0145115,-0.0920049,0.2,0.2,0,1.28,0,0,0,0.2,-0.2,0,1.28,0,0,0
gen_000074_tz+0.05_tx+0.00_ty-0.01_p-0.05_fx+0.01_fy+0.00,-0.248757,2.480639,0.506249,0.999523,0.0151468,0.0268108,0.0025475,-1.42995,-0.00403399,-0.0122057,1.59497,-0.218613,-0.0425277,-1.45031,-0.00427807,-0.0125777,1.62302,-0.226287,-0.0429842,-0.000276813,-0.0144435,-0.075459,0.2,0.2,0,1.28,0,0,0,0.2,-0.2,0,1.28,0,0,0,-1.42995,-0.00403399,-0.0122057,1.59497,-0.218613,-0.0425277,-1.45031,-0.00427807,-0.0125777,1.62302,-0.226287,-0.0429842,-0.000276813,-0.0144435,-0.075459,0.2,0.2,0,1.28,0,0,0,0.2,-0.2,0,1.28,0,0,0
gen_000075_tz+0.05_tx+0.00_ty-0.01_p-0.05_fx+0.02_fy+0.00,-0.248,2.4806396,0.506258,0.999709,0.0151282,0.0186115,0.00243708,-1.4184,-0.00412121,-0.0122559,1.57518,-0.19398,-0.0425199,-1.43887,-0.00436984,-0.0126249,1.60323,-0.201547,-0.0429756,-6.64489e-05,-0.0143678,-0.0590732,0.2,0.2,0,1.28,0,0,0,0.2,-0.2,0,1.28,0,0,0,-1.4184,-0.00412121,-0.0122559,1.57518,-0.19398,-0.0425199,-1.43887,-0.00436984,-0.0126249,1.60323,-0.201547,-0.0429756,-6.64489e-05,-0.0143678,-0.0590732,0.2,0.2,0,1.28,0,0,0,0.2,-0.2,0,1.28,0,0,0
gen_000076_tz+0.05_tx+0.00_ty-0.01_p-0.05_fx+0.03_fy+0.00,-0.247247,2.4806404,0.506278,0.999828,0.0151141,0.0104656,0.00232072,-1.4063,-0.00418657,-0.0122943,1.55465,-0.169264,-0.0425088,-1.4269,-0.00443927,-0.0126606,1.58273,-0.176732,-0.0429637,0.000154159,-0.0142998,-0.0427972,0.2,0.2,0,1.28,0,0,0,0.2,-0.2,0,1.28,0,0,0,-1.4063,-0.00418657,-0.0122943,1.55465,-0.169264,-0.0425088,-1.4269,-0.00443927,-0.0126606,1.58273,-0.176732,-0.0429637,0.000154159,-0.0142998,-0.0427972,0.2,0.2,0,1.28,0,0,0,0.2,-0.2,0,1.28,0,0,0
gen_000077_tz+0.05_tx+0.01_ty-0.01_p-0.05_fx-0.03_fy+0.00,-0.242631,2.4806269,0.506375,0.997498,0.0151794,0.0689741,0.00309924,-1.48062,-0.00344208,-0.0120866,1.68288,-0.340239,-0.0425839,-1.50028,-0.00366016,-0.0124759,1.71098,-0.348666,-0.0430435,-0.0013439,-0.0146874,-0.159812,0.2,0.2,0,1.28,0,0,0,0.2,-0.2,0,1.28,0,0,0,-1.48062,-0.00344208,-0.0120866,1.68288,-0.340239,-0.0425839,-1.50028,-0.00366016,-0.0124759,1.71098,-0.348666,-0.0430435,-0.0013439,-0.0146874,-0.159812,0.2,0.2,0,1.28,0,0,0,0.2,-0.2,0,1.28,0,0,0
gen_000078_tz+0.05_tx+0.01_ty-0.01_p-0.05_fx-0.02_fy+0.00,-0.241844,2.4806305,0.506326,0.998056,0.0151804,0.0603788,0.00298851,-1.4714,-0.00358024,-0.0120954,1.66676,-0.316123,-0.042571,-1.49122,-0.00380403,-0.012481,1.69485,-0.32437,-0.04303,-0.00112806,-0.0146557,-0.1426,0.2,0.2,0,1.28,0,0,0,0.2,-0.2,0,1.28,0,0,0,-1.4714,-0.00358024,-0.0120954,1.66676,-0.316123,-0.042571,-1.49122,-0.00380403,-0.012481,1.69485,-0.32437,-0.04303,-0.00112806,-0.0146557,-0.1426,0.2,0.2,0,1.28,0,0,0,0.2,-0.2,0,1.28,0,0,0
gen_000079_tz+0.05_tx+0.01_ty-0.01_p-0.05_fx-0.01_fy+0.00,-0.241063,2.4806335,0.506288,0.998534,0.0151778,0.0518677,0.00287806,-1.46173,-0.00370866,-0.0121107,1.64991,-0.291899,-0.0425587,-1.4817,-0.00393789,-0.0124928,1.67798,-0.299981,-0.0430172,-0.000913458,-0.0146158,-0.125565,0.2,0.2,0,1.28,0,0,0,0.2,-0.2,0,1.28,0,0,0,-1.46173,-0.00370866,-0.0121107,1.64991,-0.291899,-0.0425587,-1.4817,-0.00393789,-0.0124928,1.67798,-0.299981,-0.0430172,-0.000913458,-0.0146158,-0.125565,0.2,0.2,0,1.28,0,0,0,0.2,-0.2,0,1.28,0,0,0
gen_000080_tz+0.05_tx+0.01_ty-0.01_p-0.05_fx+0.00_fy+0.00,-0.240288,2.4806359,0.506263,0.998937,0.0151717,0.0434389,0.00276764,-1.45161,-0.00382688,-0.012133,1.63233,-0.26757,-0.042547,-1.47172,-0.00406127,-0.0125116,1.66039,-0.275501,-0.0430049,-0.000699792,-0.014568,-0.108704,0.2,0.2,0,1.28,0,0,0,0.2,-0.2,0,1.28,0,0,0,-1.45161,-0.00382688,-0.012133,1.63233,-0.26757,-0.042547,-1.47172,-0.00406127,-0.0125116,1.66039,-0.275501,-0.0430049,-0.000699792,-0.014568,-0.108704,0.2,0.2,0,1.28,0,0,0,0.2,-0.2,0,1.28,0,0,0
gen_000081_tz+0.05_tx+0.01_ty-0.01_p-0.05_fx+0.01_fy+0.00,-0.23952,2.4806378,0.50625,0.999266,0.0151618,0.0350881,0.00265724,-1.44102,-0.00393489,-0.0121633,1.61402,-0.243141,-0.0425364,-1.46126,-0.00417421,-0.0125385,1.64207,-0.250936,-0.0429936,-0.000487128,-0.0145115,-0.0920052,0.2,0.2,0,1.28,0,0,0,0.2,-0.2,0,1.28,0,0,0,-1.44102,-0.00393489,-0.0121633,1.61402,-0.243141,-0.0425364,-1.46126,-0.00417421,-0.0125385,1.64207,-0.250936,-0.0429936,-0.000487128,-0.0145115,-0.0920052,0.2,0.2,0,1.28,0,0,0,0.2,-0.2,0,1.28,0,0,0
gen_000082_tz+0.05_tx+0.01_ty-0.01_p-0.05_fx+0.02_fy+0.00,-0.238757,2.480639,0.506249,0.999523,0.0151467,0.026811,0.0025475,-1.42995,-0.00403396,-0.0122058,1.59497,-0.218613,-0.0425277,-1.45031,-0.00427805,-0.0125778,1.62302,-0.226287,-0.0429842,-0.000276793,-0.0144435,-0.0754595,0.2,0.2,0,1.28,0,0,0,0.2,-0.2,0,1.28,0,0,0,-1.42995,-0.00403396,-0.0122058,1.59497,-0.218613,-0.0425277,-1.45031,-0.00427805,-0.0125778,1.62302,-0.226287,-0.0429842,-0.000276793,-0.0144435,-0.0754595,0.2,0.2,0,1.28,0,0,0,0.2,-0.2,0,1.28,0,0,0
gen_000083_tz+0.05_tx+0.01_ty-0.01_p-0.05_fx+0.03_fy+0.00,-0.238,2.4806396,0.506258,0.999709,0.0151282,0.0186118,0.00243707,-1.4184,-0.00412117,-0.0122561,1.57518,-0.19398,-0.0425199,-1.43887,-0.0043698,-0.0126251,1.60323,-0.201546,-0.0429757,-6.64075e-05,-0.0143676,-0.0590739,0.2,0.2,0,1.28,0,0,0,0.2,-0.2,0,1.28,0,0,0,-1.4184,-0.00412117,-0.0122561,1.57518,-0.19398,-0.0425199,-1.43887,-0.0043698,-0.0126251,1.60323,-0.201546,-0.0429757,-6.64075e-05,-0.0143676,-0.0590739,0.2,0.2,0,1.28,0,0,0,0.2,-0.2,0,1.28,0,0,0
gen_000084_tz+0.05_tx+0.02_ty-0.01_p-0.05_fx-0.03_fy+0.00,-0.233425,2.4806227,0.506438,0.99686,0.0151749,0.0776556,0.00321037,-1.4894,-0.00329447,-0.0120839,1.69826,-0.364242,-0.0425974,-1.5089,-0.00350654,-0.0124769,1.72639,-0.372863,-0.0430574,-0.00156112,-0.014711,-0.177208,0.2,0.2,0,1.28,0,0,0,0.2,-0.2,0,1.28,0,0,0,-1.4894,-0.00329447,-0.0120839,1.69826,-0.364242,-0.0425974,-1.5089,-0.00350654,-0.0124769,1.72639,-0.372863,-0.0430574,-0.00156112,-0.014711,-0.177208,0.2,0.2,0,1.28,0,0,0,0.2,-0.2,0,1.28,0,0,0
gen_000085_tz+0.05_tx+0.02_ty-0.01_p-0.05_fx-0.02_fy+0.00,-0.232631,2.4806269,0.506375,0.997498,0.0151794,0.0689741,0.00309924,-1.48062,-0.00344208,-0.0120866,1.68288,-0.340239,-0.0425839,-1.50028,-0.00366016,-0.0124759,1.71098,-0.348666,-0.0430435,-0.0013439,-0.0146874,-0.159812,0.2,0.2,0,1.28,0,0,0,0.2,-0.2,0,1.28,0,0,0,-1.48062,-0.00344208,-0.0120866,1.68288,-0.340239,-0.0425839,-1.50028,-0.00366016,-0.0124759,1.71098,-0.348666,-0.0430435,-0.0013439,-0.0146874,-0.159812,0.2,0.2,0,1.28,0,0,0,0.2,-0.2,0,1.28,0,0,0
gen_000086_tz+0.05_tx+0.02_ty-0.01_p-0.05_fx-0.01_fy+0.00,-0.231844,2.4806305,0.506326,0.998056,0.0151804,0.0603789,0.00298851,-1.4714,-0.00358024,-0.0120953,1.66676,-0.316123,-0.042571,-1.49122,-0.00380403,-0.012481,1.69484,-0.32437,-0.04303,-0.00112806,-0.0146557,-0.1426,0.2,0.2,0,1.28,0,0,0,0.2,-0.2,0,1.28,0,0,0,-1.4714,-0.00358024,-0.0120953,1.66676,-0.316123,-0.042571,-1.49122,-0.00380403,-0.012481,1.69484,-0.32437,-0.04303,-0.00112806,-0.0146557,-0.1426,0.2,0.2,0,1.28,0,0,0,0.2,-0.2,0,1.28,0,0,0
gen_000087_tz+0.05_tx+0.02_ty-0.01_p-0.05_fx+0.00_fy+0.00,-0.231063,2.4806335,0.506288,0.998534,0.0151778,0.0518678,0.00287806,-1.46174,-0.00370866,-0.0121108,1.64991,-0.291899,-0.0425587,-1.4817,-0.00393788,-0.0124928,1.67798,-0.299981,-0.0430172,-0.000913458,-0.0146158,-0.125566,0.2,0.2,0,1.28,0,0,0,0.2,-0.2,0,1.28,0,0,0,-1.46174,-0.00370866,-0.0121108,1.64991,-0.291899,-0.0425587,-1.4817,-0.00393788,-0.0124928,1.67798,-0.299981,-0.0430172,-0.000913458,-0.0146158,-0.125566,0.2,0.2,0,1.28,0,0,0,0.2,-0.2,0,1.28,0,0,0
gen_000088_tz+0.05_tx+0.02_ty-0.01_p-0.05_fx+0.01_fy+0.00,-0.230288,2.4806359,0.506263,0.998937,0.0151717,0.043439,0.00276764,-1.45161,-0.00382688,-0.012133,1.63233,-0.26757,-0.0425471,-1.47172,-0.00406127,-0.0125116,1.66039,-0.275501,-0.043005,-0.000699787,-0.0145679,-0.108704,0.2,0.2,0,1.28,0,0,0,0.2,-0.2,0,1.28,0,0,0,-1.45161,-0.00382688,-0.012133,1.63233,-0.26757,-0.0425471,-1.47172,-0.00406127,-0.0125116,1.66039,-0.275501,-0.043005,-0.000699787,-0.0145679,-0.108704,0.2,0.2,0,1.28,0,0,0,0.2,-0.2,0,1.28,0,0,0
gen_000089_tz+0.05_tx+0.02_ty-0.01_p-0.05_fx+0.02_fy+0.00,-0.22952,2.4806378,0.50625,0.999266,0.0151618,0.0350882,0.00265724,-1.44102,-0.00393487,-0.0121634,1.61402,-0.24314,-0.0425364,-1.46126,-0.0041742,-0.0125386,1.64207,-0.250935,-0.0429937,-0.000487113,-0.0145115,-0.0920054,0.2,0.2,0,1.28,0,0,0,0.2,-0.2,0,1.28,0,0,0,-1.44102,-0.00393487,-0.0121634,1.61402,-0.24314,-0.0425364,-1.46126,-0.0041742,-0.0125386,1.64207,-0.250935,-0.0429937,-0.000487113,-0.0145115,-0.0920054,0.2,0.2,0,1.28,0,0,0,0.2,-0.2,0,1.28,0,0,0
gen_000090_tz+0.05_tx+0.02_ty-0.01_p-0.05_fx+0.03_fy+0.00,-0.228757,2.480639,0.506249,0.999523,0.0151467,0.0268112,0.00254748,-1.42995,-0.00403392,-0.012206,1.59497,-0.218612,-0.0425277,-1.45031,-0.00427801,-0.012578,1.62302,-0.226286,-0.0429842,-0.000276758,-0.0144433,-0.0754599,0.2,0.2,0,1.28,0,0,0,0.2,-0.2,0,1.28,0,0,0,-1.42995,-0.00403392,-0.012206,1.59497,-0.218612,-0.0425277,-1.45031,-0.00427801,-0.012578,1.62302,-0.226286,-0.0429842,-0.000276758,-0.0144433,-0.0754599,0.2,0.2,0,1.28,0,0,0,0.2,-0.2,0,1.28,0,0,0
gen_000091_tz+0.05_tx+0.03_ty-0.01_p-0.05_fx-0.03_fy+0.00,-0.224225,2.480618,0.506515,0.996137,0.0151669,0.0864256,0.00332202,-1.49776,-0.00313763,-0.0120867,1.71291,-0.388126,-0.0426113,-1.51707,-0.0033434,-0.0124836,1.74107,-0.396955,-0.0430717,-0.00177984,-0.0147266,-0.194794,0.2,0.2,0,1.28,0,0,0,0.2,-0.2,0,1.28,0,0,0,-1.49776,-0.00313763,-0.0120867,1.71291,-0.388126,-0.0426113,-1.51707,-0.0033434,-0.0124836,1.74107,-0.396955,-0.0430717,-0.00177984,-0.0147266,-0.194794,0.2,0.2,0,1.28,0,0,0,0.2,-0.2,0,1.28,0,0,0
gen_000092_tz+0.05_tx+0.03_ty-0.01_p-0.05_fx-0.02_fy+0.00,-0.223425,2.4806227,0.506438,0.99686,0.0151749,0.0776557,0.00321037,-1.4894,-0.00329447,-0.0120839,1.69826,-0.364242,-0.0425974,-1.5089,-0.00350654,-0.0124769,1.72639,-0.372863,-0.0430574,-0.00156113,-0.014711,-0.177208,0.2,0.2,0,1.28,0,0,0,0.2,-0.2,0,1.28,0,0,0,-1.4894,-0.00329447,-0.0120839,1.69826,-0.364242,-0.0425974,-1.5089,-0.00350654,-0.0124769,1.72639,-0.372863,-0.0430574,-0.00156113,-0.014711,-0.177208,0.2,0.2,0,1.28,0,0,0,0.2,-0.2,0,1.28,0,0,0
gen_000093_tz+0.05_tx+0.03_ty-0.01_p-0.05_fx-0.01_fy+0.00,-0.222631,2.4806269,0.506375,0.997498,0.0151793,0.0689732,0.00309929,-1.48062,-0.00344221,-0.0120868,1.68288,-0.34024,-0.042584,-1.50028,-0.00366029,-0.0124761,1.71098,-0.348667,-0.0430435,-0.00134399,-0.0146872,-0.15981,0.2,0.2,0,1.28,0,0,0,0.2,-0.2,0,1.28,0,0,0,-1.48062,-0.00344221,-0.0120868,1.68288,-0.34024,-0.042584,-1.50028,-0.00366029,-0.0124761,1.71098,-0.348667,-0.0430435,-0.00134399,-0.0146872,-0.15981,0.2,0.2,0,1.28,0,0,0,0.2,-0.2,0,1.28,0,0,0
gen_000094_tz+0.05_tx+0.03_ty-0.01_p-0.05_fx+0.00_fy+0.00,-0.221844,2.4806305,0.506326,0.998056,0.0151804,0.060379,0.00298851,-1.4714,-0.00358024,-0.0120954,1.66676,-0.316123,-0.042571,-1.49122,-0.00380402,-0.012481,1.69484,-0.32437,-0.04303,-0.00112806,-0.0146557,-0.1426,0.2,0.2,0,1.28,0,0,0,0.2,-0.2,0,1.28,0,0,0,-1.4714,-0.00358024,-0.0120954,1.66676,-0.316123,-0.042571,-1.49122,-0.00380402,-0.012481,1.69484,-0.32437,-0.04303,-0.00112806,-0.0146557,-0.1426,0.2,0.2,0,1.28,0,0,0,0.2,-0.2,0,1.28,0,0,0
gen_000095_tz+0.05_tx+0.03_ty-0.01_p-0.05_fx+0.01_fy+0.00,-0.221063,2.4806335,0.506288,0.998534,0.0151778,0.0518678,0.00287805,-1.46174,-0.00370866,-0.0121108,1.64991,-0.291899,-0.0425587,-1.4817,-0.00393788,-0.0124928,1.67798,-0.299981,-0.0430172,-0.000913452,-0.0146158,-0.125566,0.2,0.2,0,1.28,0,0,0,0.2,-0.2,0,1.28,0,0,0,-1.46174,-0.00370866,-0.0121108,1.64991,-0.291899,-0.0425587,-1.4817,-0.00393788,-0.0124928,1.67798,-0.299981,-0.0430172,-0.000913452,-0.0146158,-0.125566,0.2,0.2,0,1.28,0,0,0,0.2,-0.2,0,1.28,0,0,0
gen_000096_tz+0.05_tx+0.03_ty-0.01_p-0.05_fx+0.02_fy+0.00,-0.220288,2.4806359,0.506263,0.998937,0.0151717,0.043439,0.00276763,-1.45161,-0.00382686,-0.0121331,1.63233,-0.26757,-0.0425471,-1.47172,-0.00406126,-0.0125116,1.66039,-0.275501,-0.043005,-0.000699774,-0.0145679,-0.108704,0.2,0.2,0,1.28,0,0,0,0.2,-0.2,0,1.28,0,0,0,-1.45161,-0.00382686,-0.0121331,1.63233,-0.26757,-0.0425471,-1.47172,-0.00406126,-0.0125116,1.66039,-0.275501,-0.043005,-0.000699774,-0.0145679,-0.108704,0.2,0.2,0,1.28,0,0,0,0.2,-0.2,0,1.28,0,0,0
gen_000097_tz+0.05_tx+0.03_ty-0.01_p-0.05_fx+0.03_fy+0.00,-0.21952,2.4806378,0.50625,0.999266,0.0151618,0.0350883,0.00265723,-1.44102,-0.00393485,-0.0121635,1.61402,-0.24314,-0.0425364,-1.46126,-0.00417418,-0.0125387,1.64207,-0.250935,-0.0429937,-0.000487091,-0.0145114,-0.0920056,0.2,0.2,0,1.28,0,0,0,0.2,-0.2,0,1.28,0,0,0,-1.44102,-0.00393485,-0.0121635,1.61402,-0.24314,-0.0425364,-1.46126,-0.00417418,-0.0125387,1.64207,-0.250935,-0.0429937,-0.000487091,-0.0145114,-0.0920056,0.2,0.2,0,1.28,0,0,0,0.2,-0.2,0,1.28,0,0,0
gen_000098_tz+0.05_tx-0.03_ty+0.00_p-0.05_fx-0.03_fy+0.00,-0.279513,2.4899191,0.506235,0.999357,0.00719983,0.0350241,0.00254893,-1.44721,-0.00443808,-0.00791925,1.62174,-0.244513,-0.0223951,-1.45648,-0.00450655,-0.00797142,1.6367,-0.25019,-0.0224888,0.000282712,0.00138073,-0.091908,0.2,0.2,0,1.28,0,0,0,0.2,-0.2,0,1.28,0,0,0,-1.44721,-0.00443808,-0.00791925,1.62174,-0.244513,-0.0223951,-1.45648,-0.00450655,-0.00797142,1.6367,-0.25019,-0.0224888,0.000282712,0.00138073,-0.091908,0.2,0.2,0,1.28,0,0,0,0.2,-0.2,0,1.28,0,0,0
gen_000099_tz+0.05_tx-0.03_ty+0.00_p-0.05_fx-0.02_fy+0.00,-0.27875,2.4899203,0.506234,0.999613,0.0071953,0.0267442,0.00247652,-1.43615,-0.00445715,-0.00793521,1.6027,-0.219967,-0.0223845,-1.44551,-0.00452695,-0.00798665,1.61766,-0.225553,-0.022478,0.000286244,0.00143512,-0.0753593,0.2,0.2,0,1.28,0,0,0,0.2,-0.2,0,1.28,0,0,0,-1.43615,-0.00445715,-0.00793521,1.6027,-0.219967,-0.0223845,-1.44551,-0.00452695,-0.00798665,1.61766,-0.225553,-0.022478,0.000286244,0.00143512,-0.0753593,0.2,0.2,0,1.28,0,0,0,0.2,-0.2,0,1.28,0,0,0
gen_000100_tz+0.05_tx-0.03_ty+0.00_p-0.05_fx-0.01_fy+0.00,-0.277994,2.4899217,0.506243,0.999799,0.00719342,0.0185532,0.00240185,-1.42463,-0.00446506,-0.00794511,1.5829,-0.19531,-0.022372,-1.43409,-0.00453609,-0.00799594,1.59787,-0.20081,-0.0224655,0.000294486,0.00148267,-0.0589926,0.2,0.2,0,1.28,0,0,0,0.2,-0.2,0,1.28,0,0,0,-1.42463,-0.00446506,-0.00794511,1.5829,-0.19531,-0.022372,-1.43409,-0.00453609,-0.00799594,1.59787,-0.20081,-0.0224655,0.000294486,0.00148267,-0.0589926,0.2,0.2,0,1.28,0,0,0,0.2,-0.2,0,1.28,0,0,0
gen_000101_tz+0.05_tx-0.03_ty+0.00_p-0.05_fx+0.00_fy+0.00,-0.277241,2.489922,0.506264,0.999917,0.00718189,0.0104035,0.00233342,-1.41255,-0.0044796,-0.00798043,1.56238,-0.170578,-0.0223644,-1.4221,-0.00455192,-0.00803057,1.57736,-0.176009,-0.0224576,0.00029008,0.0015486,-0.0427117,0.2,0.2,0,1.28,0,0,0,0.2,-0.2,0,1.28,0,0,0,-1.41255,-0.0044796,-0.00798043,1.56238,-0.170578,-0.0223644,-1.4221,-0.00455192,-0.00803057,1.57736,-0.176009,-0.0224576,0.00029008,0.0015486,-0.0427117,0.2,0.2,0,1.28,0,0,0,0.2,-0.2,0,1.28,0,0,0
gen_000102_tz+0.05_tx-0.03_ty+0.00_p-0.05_fx+0.01_fy+0.00,-0.276491,2.4899225,0.506295,0.999969,0.00717362,0.00230522,0.0022616,-1.39993,-0.00448107,-0.00800853,1.54112,-0.145761,-0.0223546,-1.40955,-0.00455458,-0.00805812,1.55613,-0.151127,-0.0224477,0.000291936,0.00160666,-0.0265357,0.2,0.2,0,1.28,0,0,0,0.2,-0.2,0,1.28,0,0,0,-1.39993,-0.00448107,-0.00800853,1.54112,-0.145761,-0.0223546,-1.40955,-0.00455458,-0.00805812,1.55613,-0.151127,-0.0224477,0.000291936,0.00160666,-0.0265357,0.2,0.2,0,1.28,0,0,0,0.2,-0.2,0,1.28,0,0,0
gen_000103_tz+0.05_tx-0.03_ty+0.00_p-0.05_fx+0.02_fy+0.00,-0.275745,2.4899228,0.506335,0.999955,0.00716454,-0.00574926,0.0021891,-1.38674,-0.00447496,-0.00803982,1.51912,-0.120857,-0.022345,-1.39644,-0.00454962,-0.00808895,1.53415,-0.126165,-0.022438,0.000294692,0.00166518,-0.0104483,0.2,0.2,0,1.28,0,0,0,0.2,-0.2,0,1.28,0,0,0,-1.38674,-0.00447496,-0.00803982,1.51912,-0.120857,-0.022345,-1.39644,-0.00454962,-0.00808895,1.53415,-0.126165,-0.022438,0.000294692,0.00166518,-0.0104483,0.2,0.2,0,1.28,0,0,0,0.2,-0.2,0,1.28,0,0,0
gen_000104_tz+0.05_tx-0.03_ty+0.00_p-0.05_fx+0.03_fy+0.00,-0.275001,2.4899228,0.506386,0.999877,0.00715446,-0.0137675,0.00211579,-1.37296,-0.00446103,-0.00807491,1.49638,-0.0958636,-0.0223357,-1.38275,-0.0045368,-0.00812367,1.51144,-0.101121,-0.0224285,0.000298455,0.00172466,0.00556653,0.2,0.2,0,1.28,0,0,0,0.2,-0.2,0,1.28,0,0,0,-1.37296,-0.00446103,-0.00807491,1.49638,-0.0958636,-0.0223357,-1.38275,-0.0045368,-0.00812367,1.51144,-0.101121,-0.0224285,0.000298455,0.00172466,0.00556653,0.2,0.2,0,1.28,0,0,0,0.2,-0.2,0,1.28,0,0,0
gen_000105_tz+0.05_tx-0.02_ty+0.00_p-0.05_fx-0.03_fy+0.00,-0.270282,2.4899177,0.506248,0.999029,0.00720403,0.043376,0.00262113,-1.45778,-0.00441227,-0.00790473,1.64006,-0.268967,-0.0224054,-1.46695,-0.00447934,-0.0079577,1.65502,-0.274743,-0.0224993,0.000279589,0.00132557,-0.108606,0.2,0.2,0,1.28,0,0,0,0.2,-0.2,0,1.28,0,0,0,-1.45778,-0.00441227,-0.00790473,1.64006,-0.268967,-0.0224054,-1.46695,-0.00447934,-0.0079577,1.65502,-0.274743,-0.0224993,0.000279589,0.00132557,-0.108606,0.2,0.2,0,1.28,0,0,0,0.2,-0.2,0,1.28,0,0,0
gen_000106_tz+0.05_tx-0.02_ty+0.00_p-0.05_fx-0.02_fy+0.00,-0.269513,2.4899191,0.506235,0.999357,0.00719983,0.0350243,0.00254893,-1.44721,-0.00443809,-0.00791926,1.62174,-0.244513,-0.0223951,-1.45648,-0.00450656,-0.00797143,1.6367,-0.25019,-0.0224888,0.000282708,0.00138073,-0.0919084,0.2,0.2,0,1.28,0,0,0,0.2,-0.2,0,1.28,0,0,0,-1.44721,-0.00443809,-0.00791926,1.62174,-0.244513,-0.0223951,-1.45648,-0.00450656,-0.00797143,1.6367,-0.25019,-0.0224888,0.000282708,0.00138073,-0.0919084,0.2,0.2,0,1.28,0,0,0,0.2,-0.2,0,1.28,0,0,0
gen_000107_tz+0.05_tx-0.02_ty+0.00_p-0.05_fx-0.01_fy+0.00,-0.26875,2.4899203,0.506234,0.999613,0.00719529,0.0267447,0.00247653,-1.43615,-0.00445716,-0.00793523,1.6027,-0.219966,-0.0223845,-1.44551,-0.00452696,-0.00798667,1.61766,-0.225553,-0.0224781,0.000286233,0.00143514,-0.0753601,0.2,0.2,0,1.28,0,0,0,0.2,-0.2,0,1.28,0,0,0,-1.43615,-0.00445716,-0.00793523,1.6027,-0.219966,-0.0223845,-1.44551,-0.00452696,-0.00798667,1.61766,-0.225553,-0.0224781,0.000286233,0.00143514,-0.0753601,0.2,0.2,0,1.28,0,0,0,0.2,-0.2,0,1.28,0,0,0
gen_000108_tz+0.05_tx-0.02_ty+0.00_p-0.05_fx+0.00_fy+0.00,-0.267994,2.4899216,0.506243,0.999799,0.00719295,0.018554,0.00240218,-1.42463,-0.00446571,-0.00794631,1.5829,-0.195309,-0.0223723,-1.43409,-0.00453675,-0.00799712,1.59787,-0.20081,-0.0224657,0.000293862,0.00148363,-0.0589941,0.2,0.2,0,1.28,0,0,0,0.2,-0.2,0,1.28,0,0,0,-1.42463,-0.00446571,-0.00794631,1.5829,-0.195309,-0.0223723,-1.43409,-0.00453675,-0.00799712,1.59787,-0.20081,-0.0224657,0.000293862,0.00148363,-0.0589941,0.2,0.2,0,1.28,0,0,0,0.2,-0.2,0,1.28,0,0,0
gen_000109_tz+0.05_tx-0.02_ty+0.00_p-0.05_fx+0.01_fy+0.00,-0.267241,2.489922,0.506264,0.999917,0.00718188,0.0104037,0.00233342,-1.41255,-0.00447961,-0.00798044,1.56238,-0.170578,-0.0223644,-1.4221,-0.00455192,-0.00803057,1.57736,-0.176009,-0.0224576,0.000290077,0.0015486,-0.0427121,0.2,0.2,0,1.28,0,0,0,0.2,-0.2,0,1.28,0,0,0,-1.41255,-0.00447961,-0.00798044,1.56238,-0.170578,-0.0223644,-1.4221,-0.00455192,-0.00803057,1.57736,-0.176009,-0.0224576,0.000290077,0.0015486,-0.0427121,0.2,0.2,0,1.28,0,0,0,0.2,-0.2,0,1.28,0,0,0
gen_000110_tz+0.05_tx-0.02_ty+0.00_p-0.05_fx+0.02_fy+0.00,-0.266491,2.4899225,0.506295,0.999969,0.00717362,0.00230534,0.0022616,-1.39993,-0.00448107,-0.00800853,1.54112,-0.145761,-0.0223546,-1.40955,-0.00455458,-0.00805812,1.55613,-0.151127,-0.0224477,0.000291938,0.00160666,-0.0265359,0.2,0.2,0,1.28,0,0,0,0.2,-0.2,0,1.28,0,0,0,-1.39993,-0.00448107,-0.00800853,1.54112,-0.145761,-0.0223546,-1.40955,-0.00455458,-0.00805812,1.55613,-0.151127,-0.0224477,0.000291938,0.00160666,-0.0265359,0.2,0.2,0,1.28,0,0,0,0.2,-0.2,0,1.28,0,0,0
gen_000111_tz+0.05_tx-0.02_ty+0.00_p-0.05_fx+0.03_fy+0.00,-0.265745,2.4899228,0.506335,0.999955,0.00716454,-0.00574917,0.0021891,-1.38674,-0.00447496,-0.00803982,1.51912,-0.120857,-0.022345,-1.39645,-0.00454962,-0.00808895,1.53415,-0.126165,-0.022438,0.000294695,0.00166518,-0.0104485,0.2,0.2,0,1.28,0,0,0,0.2,-0.2,0,1.28,0,0,0,-1.38674,-0.00447496,-0.00803982,1.51912,-0.120857,-0.022345,-1.39645,-0.00454962,-0.00808895,1.53415,-0.126165,-0.022438,0.000294695,0.00166518,-0.0104485,0.2,0.2,0,1.28,0,0,0,0.2,-0.2,0,1.28,0,0,0
gen_000112_tz+0.05_tx-0.01_ty+0.00_p-0.05_fx-0.03_fy+0.00,-0.261057,2.4899161,0.506273,0.998628,0.0072075,0.0518061,0.00269361,-1.46788,-0.0043807,-0.00789249,1.65765,-0.293325,-0.0224156,-1.47695,-0.00444631,-0.00794632,1.67261,-0.299206,-0.0225096,0.000275975,0.00127044,-0.125468,0.2,0.2,0,1.28,0,0,0,0.2,-0.2,0,1.28,0,0,0,-1.46788,-0.0043807,-0.00789249,1.65765,-0.293325,-0.0224156,-1.47695,-0.00444631,-0.00794632,1.67261,-0.299206,-0.0225096,0.000275975,0.00127044,-0.125468,0.2,0.2,0,1.28,0,0,0,0.2,-0.2,0,1.28,0,0,0
gen_000113_tz+0.05_tx-0.01_ty+0.00_p-0.05_fx-0.02_fy+0.00,-0.260282,2.4899177,0.506248,0.999029,0.00720403,0.0433761,0.00262113,-1.45778,-0.00441227,-0.00790474,1.64006,-0.268967,-0.0224054,-1.46695,-0.00447935,-0.00795771,1.65502,-0.274743,-0.0224993,0.000279587,0.00132558,-0.108606,0.2,0.2,0,1.28,0,0,0,0.2,-0.2,0,1.28,0,0,0,-1.45778,-0.00441227,-0.00790474,1.64006,-0.268967,-0.0224054,-1.46695,-0.00447935,-0.00795771,1.65502,-0.274743,-0.0224993,0.000279587,0.00132558,-0.108606,0.2,0.2,0,1.28,0,0,0,0.2,-0.2,0,1.28,0,0,0
gen_000114_tz+0.05_tx-0.01_ty+0.00_p-0.05_fx-0.01_fy+0.00,-0.259513,2.4899191,0.506235,0.999357,0.00719982,0.0350245,0.00254894,-1.44721,-0.00443809,-0.00791927,1.62174,-0.244513,-0.0223951,-1.45648,-0.00450656,-0.00797144,1.6367,-0.25019,-0.0224888,0.000282704,0.00138074,-0.0919088,0.2,0.2,0,1.28,0,0,0,0.2,-0.2,0,1.28,0,0,0,-1.44721,-0.00443809,-0.00791927,1.62174,-0.244513,-0.0223951,-1.45648,-0.00450656,-0.00797144,1.6367,-0.25019,-0.0224888,0.000282704,0.00138074,-0.0919088,0.2,0.2,0,1.28,0,0,0,0.2,-0.2,0,1.28,0,0,0
gen_000115_tz+0.05_tx-0.01_ty+0.00_p-0.05_fx+0.00_fy+0.00,-0.25875,2.4899203,0.506234,0.999613,0.00719528,0.026745,0.00247653,-1.43615,-0.00445717,-0.00793525,1.6027,-0.219966,-0.0223845,-1.44552,-0.00452697,-0.00798668,1.61766,-0.225552,-0.0224781,0.000286227,0.00143515,-0.0753609,0.2,0.2,0,1.28,0,0,0,0.2,-0.2,0,1.28,0,0,0,-1.43615,-0.00445717,-0.00793525,1.6027,-0.219966,-0.0223845,-1.44552,-0.00452697,-0.00798668,1.61766,-0.225552,-0.0224781,0.000286227,0.00143515,-0.0753609,0.2,0.2,0,1.28,0,0,0,0.2,-0.2,0,1.28,0,0,0
gen_000116_tz+0.05_tx-0.01_ty+0.00_p-0.05_fx+0.01_fy+0.00,-0.257994,2.4899216,0.506243,0.999799,0.00719254,0.0185544,0.00240246,-1.42463,-0.00446629,-0.00794735,1.5829,-0.195308,-0.0223725,-1.43409,-0.00453733,-0.00799816,1.59787,-0.20081,-0.0224659,0.000293312,0.00148446,-0.0589949,0.2,0.2,0,1.28,0,0,0,0.2,-0.2,0,1.28,0,0,0,-1.42463,-0.00446629,-0.00794735,1.5829,-0.195308,-0.0223725,-1.43409,-0.00453733,-0.00799816,1.59787,-0.20081,-0.0224659,0.000293312,0.00148446,-0.0589949,0.2,0.2,0,1.28,0,0,0,0.2,-0.2,0,1.28,0,0,0
gen_000117_tz+0.05_tx-0.01_ty+0.00_p-0.05_fx+0.02_fy+0.00,-0.257241,2.489922,0.506264,0.999917,0.00718189,0.0104039,0.00233342,-1.41256,-0.0044796,-0.00798043,1.56238,-0.170578,-0.0223644,-1.4221,-0.00455192,-0.00803057,1.57736,-0.176009,-0.0224576,0.000290082,0.0015486,-0.0427126,0.2,0.2,0,1.28,0,0,0,0.2,-0.2,0,1.28,0,0,0,-1.41256,-0.0044796,-0.00798043,1.56238,-0.170578,-0.0223644,-1.4221,-0.00455192,-0.00803057,1.57736,-0.176009,-0.0224576,0.000290082,0.0015486,-0.0427126,0.2,0.2,0,1.28,0,0,0,0.2,-0.2,0,1.28,0,0,0
gen_000118_tz+0.05_tx-0.01_ty+0.00_p-0.05_fx+0.03_fy+0.00,-0.256491,2.4899225,0.506294,0.999969,0.00717362,0.00230548,0.0022616,-1.39993,-0.00448107,-0.00800853,1.54112,-0.145761,-0.0223546,-1.40956,-0.00455458,-0.00805812,1.55613,-0.151127,-0.0224477,0.000291944,0.00160665,-0.0265362,0.2,0.2,0,1.28,0,0,0,0.2,-0.2,0,1.28,0,0,0,-1.39993,-0.00448107,-0.00800853,1.54112,-0.145761,-0.0223546,-1.40956,-0.00455458,-0.00805812,1.55613,-0.151127,-0.0224477,0.000291944,0.00160665,-0.0265362,0.2,0.2,0,1.28,0,0,0,0.2,-0.2,0,1.28,0,0,0
gen_000119_tz+0.05_tx+0.00_ty+0.00_p-0.05_fx-0.03_fy+0.00,-0.251838,2.4899142,0.50631,0.998149,0.00721018,0.0603188,0.00276656,-1.47752,-0.00434371,-0.00788248,1.6745,-0.31758,-0.0224256,-1.48648,-0.00440779,-0.0079372,1.68947,-0.323577,-0.0225198,0.000271583,0.00121539,-0.142503,0.2,0.2,0,1.28,0,0,0,0.2,-0.2,0,1.28,0,0,0,-1.47752,-0.00434371,-0.00788248,1.6745,-0.31758,-0.0224256,-1.48648,-0.00440779,-0.0079372,1.68947,-0.323577,-0.0225198,0.000271583,0.00121539,-0.142503,0.2,0.2,0,1.28,0,0,0,0.2,-0.2,0,1.28,0,0,0
gen_000120_tz+0.05_tx+0.00_ty+0.00_p-0.05_fx-0.02_fy+0.00,-0.251057,2.4899161,0.506273,0.998628,0.0072075,0.0518062,0.00269361,-1.46788,-0.0043807,-0.0078925,1.65765,-0.293324,-0.0224156,-1.47695,-0.00444632,-0.00794632,1.67261,-0.299206,-0.0225096,0.000275974,0.00127045,-0.125468,0.2,0.2,0,1.28,0,0,0,0.2,-0.2,0,1.28,0,0,0,-1.46788,-0.0043807,-0.0078925,1.65765,-0.293324,-0.0224156,-1.47695,-0.00444632,-0.00794632,1.67261,-0.299206,-0.0225096,0.000275974,0.00127045,-0.125468,0.2,0.2,0,1.28,0,0,0,0.2,-0.2,0,1.28,0,0,0
gen_000121_tz+0.05_tx+0.00_ty+0.00_p-0.05_fx-0.01_fy+0.00,-0.250282,2.4899177,0.506248,0.999029,0.00720403,0.0433763,0.00262113,-1.45778,-0.00441227,-0.00790474,1.64006,-0.268967,-0.0224054,-1.46695,-0.00447935,-0.00795771,1.65502,-0.274742,-0.0224993,0.000279585,0.00132558,-0.108607,0.2,0.2,0,1.28,0,0,0,0.2,-0.2,0,1.28,0,0,0,-1.45778,-0.00441227,-0.00790474,1.64006,-0.268967,-0.0224054,-1.46695,-0.00447935,-0.00795771,1.65502,-0.274742,-0.0224993,0.000279585,0.00132558,-0.108607,0.2,0.2,0,1.28,0,0,0,0.2,-0.2,0,1.28,0,0,0
gen_000122_tz+0.05_tx+0.00_ty+0.00_p-0.05_fx+0.00_fy+0.00,-0.249513,2.4899191,0.506235,0.999357,0.00719987,0.0350237,0.00254889,-1.44721,-0.004438,-0.00791915,1.62174,-0.244514,-0.0223951,-1.45648,-0.00450647,-0.00797132,1.6367,-0.250191,-0.0224888,0.000282789,0.00138065,-0.0919072,0.2,0.2,0,1.28,0,0,0,0.2,-0.2,0,1.28,0,0,0,-1.44721,-0.004438,-0.00791915,1.62174,-0.244514,-0.0223951,-1.45648,-0.00450647,-0.00797132,1.6367,-0.250191,-0.0224888,0.000282789,0.00138065,-0.0919072,0.2,0.2,0,1.28,0,0,0,0.2,-0.2,0,1.28,0,0,0
gen_000123_tz+0.05_tx+0.00_ty+0.00_p-0.05_fx+0.01_fy+0.00,-0.24875,2.4899203,0.506234,0.999613,0.00719539,0.0267444,0.00247644,-1.43615,-0.00445698,-0.00793497,1.6027,-0.219967,-0.0223844,-1.44551,-0.00452678,-0.00798641,1.61766,-0.225553,-0.022478,0.000286404,0.00143493,-0.0753596,0.2,0.2,0,1.28,0,0,0,0.2,-0.2,0,1.28,0,0,0,-1.43615,-0.00445698,-0.00793497,1.6027,-0.219967,-0.0223844,-1.44551,-0.00452678,-0.00798641,1.61766,-0.225553,-0.022478,0.000286404,0.00143493,-0.0753596,0.2,0.2,0,1.28,0,0,0,0.2,-0.2,0,1.28,0,0,0
gen_000124_tz+0.05_tx+0.00_ty+0.00_p-0.05_fx+0.02_fy+0.00,-0.247994,2.4899216,0.506243,0.999799,0.00719218,0.0185546,0.00240271,-1.42464,-0.00446679,-0.00794827,1.5829,-0.195308,-0.0223727,-1.43409,-0.00453784,-0.00799907,1.59787,-0.20081,-0.0224661,0.000292831,0.00148519,-0.0589953,0.2,0.2,0,1.28,0,0,0,0.2,-0.2,0,1.28,0,0,0,-1.42464,-0.00446679,-0.00794827,1.5829,-0.195308,-0.0223727,-1.43409,-0.00453784,-0.00799907,1.59787,-0.20081,-0.0224661,0.000292831,0.00148519,-0.0589953,0.2,0.2,0,1.28,0,0,0,0.2,-0.2,0,1.28,0,0,0
gen_000125_tz+0.05_tx+0.00_ty+0.00_p-0.05_fx+0.03_fy+0.00,-0.247241,2.489922,0.506264,0.999917,0.00718189,0.0104042,0.00233342,-1.41256,-0.00447959,-0.00798042,1.56238,-0.170577,-0.0223644,-1.4221,-0.00455191,-0.00803056,1.57736,-0.176008,-0.0224576,0.000290093,0.00154859,-0.042713,0.2,0.2,0,1.28,0,0,0,0.2,-0.2,0,1.28,0,0,0,-1.41256,-0.00447959,-0.00798042,1.56238,-0.170577,-0.0223644,-1.4221,-0.00455191,-0.00803056,1.57736,-0.176008,-0.0224576,0.000290093,0.00154859,-0.042713,0.2,0.2,0,1.28,0,0,0,0.2,-0.2,0,1.28,0,0,0
gen_000126_tz+0.05_tx+0.01_ty+0.00_p-0.05_fx-0.03_fy+0.00,-0.242625,2.4899121,0.50636,0.997592,0.00721209,0.068916,0.00284005,-1.48671,-0.00430149,-0.00787447,1.69062,-0.341732,-0.0224355,-1.49556,-0.00436397,-0.00793014,1.70561,-0.347851,-0.0225298,0.00026625,0.00116038,-0.159716,0.2,0.2,0,1.28,0,0,0,0.2,-0.2,0,1.28,0,0,0,-1.48671,-0.00430149,-0.00787447,1.69062,-0.341732,-0.0224355,-1.49556,-0.00436397,-0.00793014,1.70561,-0.347851,-0.0225298,0.00026625,0.00116038,-0.159716,0.2,0.2,0,1.28,0,0,0,0.2,-0.2,0,1.28,0,0,0
gen_000127_tz+0.05_tx+0.01_ty+0.00_p-0.05_fx-0.02_fy+0.00,-0.241838,2.4899142,0.50631,0.998149,0.00721018,0.0603189,0.00276656,-1.47752,-0.00434371,-0.00788248,1.6745,-0.31758,-0.0224256,-1.48648,-0.00440779,-0.00793721,1.68947,-0.323577,-0.0225198,0.000271582,0.0012154,-0.142503,0.2,0.2,0,1.28,0,0,0,0.2,-0.2,0,1.28,0,0,0,-1.47752,-0.00434371,-0.00788248,1.6745,-0.31758,-0.0224256,-1.48648,-0.00440779,-0.00793721,1.68947,-0.323577,-0.0225198,0.000271582,0.0012154,-0.142503,0.2,0.2,0,1.28,0,0,0,0.2,-0.2,0,1.28,0,0,0
gen_000128_tz+0.05_tx+0.01_ty+0.00_p-0.05_fx-0.01_fy+0.00,-0.241057,2.4899161,0.506273,0.998628,0.0072075,0.0518063,0.00269362,-1.46788,-0.0043807,-0.0078925,1.65765,-0.293324,-0.0224156,-1.47695,-0.00444632,-0.00794633,1.67261,-0.299206,-0.0225096,0.000275973,0.00127045,-0.125468,0.2,0.2,0,1.28,0,0,0,0.2,-0.2,0,1.28,0,0,0,-1.46788,-0.0043807,-0.0078925,1.65765,-0.293324,-0.0224156,-1.47695,-0.00444632,-0.00794633,1.67261,-0.299206,-0.0225096,0.000275973,0.00127045,-0.125468,0.2,0.2,0,1.28,0,0,0,0.2,-0.2,0,1.28,0,0,0
gen_000129_tz+0.05_tx+0.01_ty+0.00_p-0.05_fx+0.00_fy+0.00,-0.240282,2.4899177,0.506248,0.999029,0.00720403,0.0433764,0.00262113,-1.45778,-0.00441227,-0.00790474,1.64006,-0.268967,-0.0224054,-1.46695,-0.00447935,-0.00795771,1.65502,-0.274742,-0.0224993,0.000279585,0.00132558,-0.108607,0.2,0.2,0,1.28,0,0,0,0.2,-0.2,0,1.28,0,0,0,-1.45778,-0.00441227,-0.00790474,1.64006,-0.268967,-0.0224054,-1.46695,-0.00447935,-0.00795771,1.65502,-0.274742,-0.0224993,0.000279585,0.00132558,-0.108607,0.2,0.2,0,1.28,0,0,0,0.2,-0.2,0,1.28,0,0,0
gen_000130_tz+0.05_tx+0.01_ty+0.00_p-0.05_fx+0.01_fy+0.00,-0.239513,2.4899191,0.506235,0.999357,0.00719987,0.0350238,0.00254889,-1.44721,-0.004438,-0.00791915,1.62174,-0.244514,-0.0223951,-1.45648,-0.00450647,-0.00797132,1.6367,-0.25019,-0.0224888,0.000282791,0.00138064,-0.0919074,0.2,0.2,0,1.28,0,0,0,0.2,-0.2,0,1.28,0,0,0,-1.44721,-0.004438,-0.00791915,1.62174,-0.244514,-0.0223951,-1.45648,-0.00450647,-0.00797132,1.6367,-0.25019,-0.0224888,0.000282791,0.00138064,-0.0919074,0.2,0.2,0,1.28,0,0,0,0.2,-0.2,0,1.28,0,0,0
gen_000131_tz+0.05_tx+0.01_ty+0.00_p-0.05_fx+0.02_fy+0.00,-0.23875,2.4899203,0.506234,0.999613,0.0071954,0.0267446,0.00247643,-1.43615,-0.00445697,-0.00793496,1.6027,-0.219966,-0.0223844,-1.44551,-0.00452677,-0.0079864,1.61766,-0.225552,-0.022478,0.000286415,0.00143491,-0.0753601,0.2,0.2,0,1.28,0,0,0,0.2,-0.2,0,1.28,0,0,0,-1.43615,-0.00445697,-0.00793496,1.6027,-0.219966,-0.0223844,-1.44551,-0.00452677,-0.0079864,1.61766,-0.225552,-0.022478,0.000286415,0.00143491,-0.0753601,0.2,0.2,0,1.28,0,0,0,0.2,-0.2,0,1.28,0,0,0
gen_000132_tz+0.05_tx+0.01_ty+0.00_p-0.05_fx+0.03_fy+0.00,-0.237994,2.4899215,0.506243,0.999799,0.00719186,0.0185546,0.00240294,-1.42464,-0.00446725,-0.00794908,1.5829,-0.195308,-0.0223729,-1.43409,-0.0045383,-0.00799988,1.59787,-0.20081,-0.0224663,0.000292395,0.00148584,-0.0589954,0.2,0.2,0,1.28,0,0,0,0.2,-0.2,0,1.28,0,0,0,-1.42464,-0.00446725,-0.00794908,1.5829,-0.195308,-0.0223729,-1.43409,-0.0045383,-0.00799988,1.59787,-0.20081,-0.0224663,0.000292395,0.00148584,-0.0589954,0.2,0.2,0,1.28,0,0,0,0.2,-0.2,0,1.28,0,0,0
gen_000133_tz+0.05_tx+0.02_ty+0.00_p-0.05_fx-0.03_fy+0.00,-0.233419,2.4899097,0.506423,0.996954,0.0072132,0.0775998,0.00291418,-1.49546,-0.00425426,-0.00786832,1.70601,-0.365774,-0.0224451,-1.5042,-0.00431506,-0.00792499,1.72101,-0.372023,-0.0225395,0.000259787,0.00110543,-0.177114,0.2,0.2,0,1.28,0,0,0,0.2,-0.2,0,1.28,0,0,0,-1.49546,-0.00425426,-0.00786832,1.70601,-0.365774,-0.0224451,-1.5042,-0.00431506,-0.00792499,1.72101,-0.372023,-0.0225395,0.000259787,0.00110543,-0.177114,0.2,0.2,0,1.28,0,0,0,0.2,-0.2,0,1.28,0,0,0
gen_000134_tz+0.05_tx+0.02_ty+0.00_p-0.05_fx-0.02_fy+0.00,-0.232625,2.4899121,0.50636,0.997592,0.00721211,0.0689151,0.00284002,-1.48671,-0.00430145,-0.00787443,1.69062,-0.341733,-0.0224355,-1.49556,-0.00436393,-0.0079301,1.70561,-0.347852,-0.0225297,0.000266283,0.00116035,-0.159714,0.2,0.2,0,1.28,0,0,0,0.2,-0.2,0,1.28,0,0,0,-1.48671,-0.00430145,-0.00787443,1.69062,-0.341733,-0.0224355,-1.49556,-0.00436393,-0.0079301,1.70561,-0.347852,-0.0225297,0.000266283,0.00116035,-0.159714,0.2,0.2,0,1.28,0,0,0,0.2,-0.2,0,1.28,0,0,0
gen_000135_tz+0.05_tx+0.02_ty+0.00_p-0.05_fx-0.01_fy+0.00,-0.231838,2.4899142,0.50631,0.998149,0.00721018,0.060319,0.00276656,-1.47752,-0.00434371,-0.00788248,1.6745,-0.31758,-0.0224256,-1.48648,-0.00440779,-0.00793721,1.68947,-0.323576,-0.0225198,0.000271582,0.0012154,-0.142503,0.2,0.2,0,1.28,0,0,0,0.2,-0.2,0,1.28,0,0,0,-1.47752,-0.00434371,-0.00788248,1.6745,-0.31758,-0.0224256,-1.48648,-0.00440779,-0.00793721,1.68947,-0.323576,-0.0225198,0.000271582,0.0012154,-0.142503,0.2,0.2,0,1.28,0,0,0,0.2,-0.2,0,1.28,0,0,0
gen_000136_tz+0.05_tx+0.02_ty+0.00_p-0.05_fx+0.00_fy+0.00,-0.231057,2.4899161,0.506273,0.998628,0.0072075,0.0518064,0.00269362,-1.46788,-0.0043807,-0.0078925,1.65765,-0.293324,-0.0224156,-1.47695,-0.00444632,-0.00794633,1.67261,-0.299206,-0.0225096,0.000275974,0.00127045,-0.125468,0.2,0.2,0,1.28,0,0,0,0.2,-0.2,0,1.28,0,0,0,-1.46788,-0.0043807,-0.0078925,1.65765,-0.293324,-0.0224156,-1.47695,-0.00444632,-0.00794633,1.67261,-0.299206,-0.0225096,0.000275974,0.00127045,-0.125468,0.2,0.2,0,1.28,0,0,0,0.2,-0.2,0,1.28,0,0,0
gen_000137_tz+0.05_tx+0.02_ty+0.00_p-0.05_fx+0.01_fy+0.00,-0.230282,2.4899177,0.506248,0.999029,0.00720403,0.0433764,0.00262113,-1.45778,-0.00441227,-0.00790474,1.64006,-0.268967,-0.0224054,-1.46695,-0.00447935,-0.00795771,1.65502,-0.274742,-0.0224993,0.000279587,0.00132558,-0.108607,0.2,0.2,0,1.28,0,0,0,0.2,-0.2,0,1.28,0,0,0,-1.45778,-0.00441227,-0.00790474,1.64006,-0.268967,-0.0224054,-1.46695,-0.00447935,-0.00795771,1.65502,-0.274742,-0.0224993,0.000279587,0.00132558,-0.108607,0.2,0.2,0,1.28,0,0,0,0.2,-0.2,0,1.28,0,0,0
gen_000138_tz+0.05_tx+0.02_ty+0.00_p-0.05_fx+0.02_fy+0.00,-0.229513,2.4899191,0.506235,0.999357,0.00719988,0.0350239,0.00254888,-1.44721,-0.00443799,-0.00791914,1.62174,-0.244513,-0.0223951,-1.45648,-0.00450646,-0.00797131,1.6367,-0.25019,-0.0224888,0.000282797,0.00138063,-0.0919076,0.2,0.2,0,1.28,0,0,0,0.2,-0.2,0,1.28,0,0,0,-1.44721,-0.00443799,-0.00791914,1.62174,-0.244513,-0.0223951,-1.45648,-0.00450646,-0.00797131,1.6367,-0.25019,-0.0224888,0.000282797,0.00138063,-0.0919076,0.2,0.2,0,1.28,0,0,0,0.2,-0.2,0,1.28,0,0,0
gen_000139_tz+0.05_tx+0.02_ty+0.00_p-0.05_fx+0.03_fy+0.00,-0.22875,2.4899203,0.506234,0.999613,0.00719541,0.0267449,0.00247643,-1.43615,-0.00445696,-0.00793493,1.6027,-0.219966,-0.0223844,-1.44552,-0.00452676,-0.00798637,1.61766,-0.225552,-0.022478,0.000286429,0.00143489,-0.0753607,0.2,0.2,0,1.28,0,0,0,0.2,-0.2,0,1.28,0,0,0,-1.43615,-0.00445696,-0.00793493,1.6027,-0.219966,-0.0223844,-1.44552,-0.00452676,-0.00798637,1.61766,-0.225552,-0.022478,0.000286429,0.00143489,-0.0753607,0.2,0.2,0,1.28,0,0,0,0.2,-0.2,0,1.28,0,0,0
gen_000140_tz+0.05_tx+0.03_ty+0.00_p-0.05_fx-0.03_fy+0.00,-0.224219,2.4899071,0.5065,0.996232,0.00721348,0.0863723,0.00298906,-1.50378,-0.00420227,-0.00786393,1.72066,-0.3897,-0.0224545,-1.51241,-0.00426131,-0.00792162,1.73569,-0.396088,-0.022549,0.000251994,0.0010506,-0.194702,0.2,0.2,0,1.28,0,0,0,0.2,-0.2,0,1.28,0,0,0,-1.50378,-0.00420227,-0.00786393,1.72066,-0.3897,-0.0224545,-1.51241,-0.00426131,-0.00792162,1.73569,-0.396088,-0.022549,0.000251994,0.0010506,-0.194702,0.2,0.2,0,1.28,0,0,0,0.2,-0.2,0,1.28,0,0,0
gen_000141_tz+0.05_tx+0.03_ty+0.00_p-0.05_fx-0.02_fy+0.00,-0.223419,2.4899097,0.506423,0.996954,0.0072132,0.0775998,0.00291418,-1.49546,-0.00425426,-0.00786832,1.70601,-0.365774,-0.0224451,-1.5042,-0.00431506,-0.00792499,1.72101,-0.372023,-0.0225395,0.000259787,0.00110543,-0.177114,0.2,0.2,0,1.28,0,0,0,0.2,-0.2,0,1.28,0,0,0,-1.49546,-0.00425426,-0.00786832,1.70601,-0.365774,-0.0224451,-1.5042,-0.00431506,-0.00792499,1.72101,-0.372023,-0.0225395,0.000259787,0.00110543,-0.177114,0.2,0.2,0,1.28,0,0,0,0.2,-0.2,0,1.28,0,0,0
gen_000142_tz+0.05_tx+0.03_ty+0.00_p-0.05_fx-0.01_fy+0.00,-0.222625,2.4899121,0.50636,0.997592,0.00721211,0.0689152,0.00284002,-1.48671,-0.00430145,-0.00787443,1.69062,-0.341733,-0.0224355,-1.49556,-0.00436393,-0.0079301,1.70561,-0.347851,-0.0225297,0.000266283,0.00116035,-0.159714,0.2,0.2,0,1.28,0,0,0,0.2,-0.2,0,1.28,0,0,0,-1.48671,-0.00430145,-0.00787443,1.69062,-0.341733,-0.0224355,-1.49556,-0.00436393,-0.0079301,1.70561,-0.347851,-0.0225297,0.000266283,0.00116035,-0.159714,0.2,0.2,0,1.28,0,0,0,0.2,-0.2,0,1.28,0,0,0
gen_000143_tz+0.05_tx+0.03_ty+0.00_p-0.05_fx+0.00_fy+0.00,-0.221838,2.4899142,0.50631,0.998149,0.00721018,0.0603191,0.00276656,-1.47752,-0.00434371,-0.00788248,1.6745,-0.31758,-0.0224256,-1.48648,-0.00440779,-0.00793721,1.68947,-0.323576,-0.0225198,0.000271582,0.0012154,-0.142503,0.2,0.2,0,1.28,0,0,0,0.2,-0.2,0,1.28,0,0,0,-1.47752,-0.00434371,-0.00788248,1.6745,-0.31758,-0.0224256,-1.48648,-0.00440779,-0.00793721,1.68947,-0.323576,-0.0225198,0.000271582,0.0012154,-0.142503,0.2,0.2,0,1.28,0,0,0,0.2,-0.2,0,1.28,0,0,0
gen_000144_tz+0.05_tx+0.03_ty+0.00_p-0.05_fx+0.01_fy+0.00,-0.221057,2.4899161,0.506273,0.998628,0.0072075,0.0518064,0.00269362,-1.46788,-0.0043807,-0.0078925,1.65765,-0.293324,-0.0224156,-1.47695,-0.00444632,-0.00794632,1.67261,-0.299206,-0.0225096,0.000275975,0.00127045,-0.125468,0.2,0.2,0,1.28,0,0,0,0.2,-0.2,0,1.28,0,0,0,-1.46788,-0.0043807,-0.0078925,1.65765,-0.293324,-0.0224156,-1.47695,-0.00444632,-0.00794632,1.67261,-0.299206,-0.0225096,0.000275975,0.00127045,-0.125468,0.2,0.2,0,1.28,0,0,0,0.2,-0.2,0,1.28,0,0,0
gen_000145_tz+0.05_tx+0.03_ty+0.00_p-0.05_fx+0.02_fy+0.00,-0.220282,2.4899177,0.506248,0.999029,0.00720403,0.0433765,0.00262113,-1.45778,-0.00441227,-0.00790473,1.64006,-0.268967,-0.0224054,-1.46695,-0.00447935,-0.0079577,1.65502,-0.274742,-0.0224993,0.00027959,0.00132558,-0.108607,0.2,0.2,0,1.28,0,0,0,0.2,-0.2,0,1.28,0,0,0,-1.45778,-0.00441227,-0.00790473,1.64006,-0.268967,-0.0224054,-1.46695,-0.00447935,-0.0079577,1.65502,-0.274742,-0.0224993,0.00027959,0.00132558,-0.108607,0.2,0.2,0,1.28,0,0,0,0.2,-0.2,0,1.28,0,0,0
gen_000146_tz+0.05_tx+0.03_ty+0.00_p-0.05_fx+0.03_fy+0.00,-0.219513,2.4899191,0.506235,0.999357,0.00719988,0.035024,0.00254888,-1.44721,-0.00443799,-0.00791913,1.62174,-0.244513,-0.0223951,-1.45648,-0.00450646,-0.0079713,1.6367,-0.25019,-0.0224888,0.000282802,0.00138062,-0.0919078,0.2,0.2,0,1.28,0,0,0,0.2,-0.2,0,1.28,0,0,0,-1.44721,-0.00443799,-0.00791913,1.62174,-0.244513,-0.0223951,-1.45648,-0.00450646,-0.0079713,1.6367,-0.25019,-0.0224888,0.000282802,0.00138062,-0.0919078,0.2,0.2,0,1.28,0,0,0,0.2,-0.2,0,1.28,0,0,0
gen_000147_tz+0.05_tx-0.03_ty+0.01_p-0.05_fx-0.03_fy+0.00,-0.279511,2.499199523,0.506231,0.999384,-0.000770979,0.0350112,0.00244099,-1.45296,-0.00488611,-0.00355897,1.62872,-0.245676,-0.00212429,-1.45124,-0.00487652,-0.00352723,1.63059,-0.249251,-0.00208428,0.0010524,0.0172894,-0.0919299,0.2,0.2,0,1.28,0,0,0,0.2,-0.2,0,1.28,0,0,0,-1.45296,-0.00488611,-0.00355897,1.62872,-0.245676,-0.00212429,-1.45124,-0.00487652,-0.00352723,1.63059,-0.249251,-0.00208428,0.0010524,0.0172894,-0.0919299,0.2,0.2,0,1.28,0,0,0,0.2,-0.2,0,1.28,0,0,0
gen_000148_tz+0.05_tx-0.03_ty+0.01_p-0.05_fx-0.02_fy+0.00,-0.278748,2.499200714,0.50623,0.999639,-0.00076628,0.0267341,0.00240684,-1.44192,-0.00482577,-0.00355291,1.60967,-0.221109,-0.00211265,-1.44027,-0.0048161,-0.00352111,1.61154,-0.224624,-0.00207299,0.00084732,0.0173329,-0.075385,0.2,0.2,0,1.28,0,0,0,0.2,-0.2,0,1.28,0,0,0,-1.44192,-0.00482577,-0.00355291,1.60967,-0.221109,-0.00211265,-1.44027,-0.0048161,-0.00352111,1.61154,-0.224624,-0.00207299,0.00084732,0.0173329,-0.075385,0.2,0.2,0,1.28,0,0,0,0.2,-0.2,0,1.28,0,0,0
gen_000149_tz+0.05_tx-0.03_ty+0.01_p-0.05_fx-0.01_fy+0.00,-0.277991,2.499201936,0.506239,0.999825,-0.000760515,0.0185327,0.00237404,-1.4304,-0.0047658,-0.00354641,1.58988,-0.196445,-0.0021005,-1.42881,-0.0047561,-0.00351457,1.59176,-0.199904,-0.0020612,0.00064104,0.0173705,-0.0589957,0.2,0.2,0,1.28,0,0,0,0.2,-0.2,0,1.28,0,0,0,-1.4304,-0.0047658,-0.00354641,1.58988,-0.196445,-0.0021005,-1.42881,-0.0047561,-0.00351457,1.59176,-0.199904,-0.0020612,0.00064104,0.0173705,-0.0589957,0.2,0.2,0,1.28,0,0,0,0.2,-0.2,0,1.28,0,0,0
gen_000150_tz+0.05_tx-0.03_ty+0.01_p-0.05_fx+0.00_fy+0.00,-0.277238,2.499202707,0.50626,0.999943,-0.000759209,0.010389,0.00234622,-1.41835,-0.00471362,-0.00355347,1.56936,-0.171696,-0.00209087,-1.41682,-0.00470386,-0.00352159,1.57125,-0.175105,-0.00205189,0.000425936,0.0174136,-0.042725,0.2,0.2,0,1.28,0,0,0,0.2,-0.2,0,1.28,0,0,0,-1.41835,-0.00471362,-0.00355347,1.56936,-0.171696,-0.00209087,-1.41682,-0.00470386,-0.00352159,1.57125,-0.175105,-0.00205189,0.000425936,0.0174136,-0.042725,0.2,0.2,0,1.28,0,0,0,0.2,-0.2,0,1.28,0,0,0
gen_000151_tz+0.05_tx-0.03_ty+0.01_p-0.05_fx+0.01_fy+0.00,-0.276489,2.499203689,0.50629,0.999994,-0.000754955,0.00229227,0.00231848,-1.40574,-0.00465915,-0.00355529,1.5481,-0.146868,-0.00207957,-1.40428,-0.00464938,-0.0035234,1.55001,-0.150229,-0.00204093,0.000211252,0.017447,-0.0265502,0.2,0.2,0,1.28,0,0,0,0.2,-0.2,0,1.28,0,0,0,-1.40574,-0.00465915,-0.00355529,1.5481,-0.146868,-0.00207957,-1.40428,-0.00464938,-0.0035234,1.55001,-0.150229,-0.00204093,0.000211252,0.017447,-0.0265502,0.2,0.2,0,1.28,0,0,0,0.2,-0.2,0,1.28,0,0,0
gen_000152_tz+0.05_tx-0.03_ty+0.01_p-0.05_fx+0.02_fy+0.00,-0.275743,2.499204873,0.506331,0.999981,-0.00074786,-0.00576038,0.00229064,-1.39256,-0.00460208,-0.00355212,1.5261,-0.121955,-0.00206671,-1.39116,-0.00459234,-0.00352023,1.52803,-0.12527,-0.00202843,-2.53718e-06,0.0174712,-0.0104647,0.2,0.2,0,1.28,0,0,0,0.2,-0.2,0,1.28,0,0,0,-1.39256,-0.00460208,-0.00355212,1.5261,-0.121955,-0.00206671,-1.39116,-0.00459234,-0.00352023,1.52803,-0.12527,-0.00202843,-2.53718e-06,0.0174712,-0.0104647,0.2,0.2,0,1.28,0,0,0,0.2,-0.2,0,1.28,0,0,0
gen_000153_tz+0.05_tx-0.03_ty+0.01_p-0.05_fx+0.03_fy+0.00,-0.274999,2.499206184,0.506382,0.999902,-0.000738796,-0.0137777,0.00226318,-1.37879,-0.00454342,-0.00354614,1.50336,-0.0969571,-0.00205275,-1.37746,-0.00453375,-0.00351427,1.50531,-0.100227,-0.00201486,-0.000216529,0.0174879,0.00555011,0.2,0.2,0,1.28,0,0,0,0.2,-0.2,0,1.28,0,0,0,-1.37879,-0.00454342,-0.00354614,1.50336,-0.0969571,-0.00205275,-1.37746,-0.00453375,-0.00351427,1.50531,-0.100227,-0.00201486,-0.000216529,0.0174879,0.00555011,0.2,0.2,0,1.28,0,0,0,0.2,-0.2,0,1.28,0,0,0
gen_000154_tz+0.05_tx-0.02_ty+0.01_p-0.05_fx-0.03_fy+0.00,-0.270279,2.499198565,0.506244,0.999056,-0.000772338,0.043363,0.00247495,-1.46351,-0.00494365,-0.0035589,1.64704,-0.270152,-0.00213415,-1.46172,-0.00493417,-0.00352723,1.6489,-0.273787,-0.0020938,0.00125901,0.0172353,-0.10863,0.2,0.2,0,1.28,0,0,0,0.2,-0.2,0,1.28,0,0,0,-1.46351,-0.00494365,-0.0035589,1.64704,-0.270152,-0.00213415,-1.46172,-0.00493417,-0.00352723,1.6489,-0.273787,-0.0020938,0.00125901,0.0172353,-0.10863,0.2,0.2,0,1.28,0,0,0,0.2,-0.2,0,1.28,0,0,0
gen_000155_tz+0.05_tx-0.02_ty+0.01_p-0.05_fx-0.02_fy+0.00,-0.269511,2.499199519,0.506231,0.999384,-0.000771016,0.0350114,0.00244098,-1.45296,-0.00488611,-0.00355907,1.62872,-0.245676,-0.00212432,-1.45124,-0.00487651,-0.00352733,1.63059,-0.24925,-0.0020843,0.00105242,0.0172894,-0.0919303,0.2,0.2,0,1.28,0,0,0,0.2,-0.2,0,1.28,0,0,0,-1.45296,-0.00488611,-0.00355907,1.62872,-0.245676,-0.00212432,-1.45124,-0.00487651,-0.00352733,1.63059,-0.24925,-0.0020843,0.00105242,0.0172894,-0.0919303,0.2,0.2,0,1.28,0,0,0,0.2,-0.2,0,1.28,0,0,0
gen_000156_tz+0.05_tx-0.02_ty+0.01_p-0.05_fx-0.01_fy+0.00,-0.268748,2.499200709,0.50623,0.999639,-0.000766336,0.0267344,0.00240683,-1.44192,-0.00482576,-0.00355306,1.60967,-0.221109,-0.00211269,-1.44027,-0.0048161,-0.00352126,1.61154,-0.224624,-0.00207303,0.00084734,0.017333,-0.0753856,0.2,0.2,0,1.28,0,0,0,0.2,-0.2,0,1.28,0,0,0,-1.44192,-0.00482576,-0.00355306,1.60967,-0.221109,-0.00211269,-1.44027,-0.0048161,-0.00352126,1.61154,-0.224624,-0.00207303,0.00084734,0.017333,-0.0753856,0.2,0.2,0,1.28,0,0,0,0.2,-0.2,0,1.28,0,0,0
gen_000157_tz+0.05_tx-0.02_ty+0.01_p-0.05_fx+0.00_fy+0.00,-0.267991,2.499201931,0.506239,0.999825,-0.00076057,0.018533,0.00237404,-1.4304,-0.00476581,-0.00354655,1.58988,-0.196445,-0.00210054,-1.42881,-0.0047561,-0.00351471,1.59176,-0.199904,-0.00206124,0.000641055,0.0173706,-0.0589964,0.2,0.2,0,1.28,0,0,0,0.2,-0.2,0,1.28,0,0,0,-1.4304,-0.00476581,-0.00354655,1.58988,-0.196445,-0.00210054,-1.42881,-0.0047561,-0.00351471,1.59176,-0.199904,-0.00206124,0.000641055,0.0173706,-0.0589964,0.2,0.2,0,1.28,0,0,0,0.2,-0.2,0,1.28,0,0,0
gen_000158_tz+0.05_tx-0.02_ty+0.01_p-0.05_fx+0.01_fy+0.00,-0.267238,2.499202705,0.50626,0.999943,-0.000759224,0.0103892,0.00234622,-1.41835,-0.00471362,-0.0035535,1.56935,-0.171696,-0.00209088,-1.41682,-0.00470386,-0.00352163,1.57125,-0.175105,-0.0020519,0.00042594,0.0174136,-0.0427254,0.2,0.2,0,1.28,0,0,0,0.2,-0.2,0,1.28,0,0,0,-1.41835,-0.00471362,-0.0035535,1.56935,-0.171696,-0.00209088,-1.41682,-0.00470386,-0.00352163,1.57125,-0.175105,-0.0020519,0.00042594,0.0174136,-0.0427254,0.2,0.2,0,1.28,0,0,0,0.2,-0.2,0,1.28,0,0,0
gen_000159_tz+0.05_tx-0.02_ty+0.01_p-0.05_fx+0.02_fy+0.00,-0.266489,2.499203689,0.50629,0.999994,-0.000754953,0.00229238,0.00231848,-1.40574,-0.00465916,-0.00355528,1.5481,-0.146867,-0.00207957,-1.40428,-0.00464938,-0.00352339,1.55001,-0.150229,-0.00204093,0.000211254,0.017447,-0.0265504,0.2,0.2,0,1.28,0,0,0,0.2,-0.2,0,1.28,0,0,0,-1.40574,-0.00465916,-0.00355528,1.5481,-0.146867,-0.00207957,-1.40428,-0.00464938,-0.00352339,1.55001,-0.150229,-0.00204093,0.000211254,0.017447,-0.0265504,0.2,0.2,0,1.28,0,0,0,0.2,-0.2,0,1.28,0,0,0
gen_000160_tz+0.05_tx-0.02_ty+0.01_p-0.05_fx+0.03_fy+0.00,-0.265743,2.499204873,0.506331,0.999981,-0.000747853,-0.00576028,0.00229064,-1.39256,-0.00460208,-0.0035521,1.5261,-0.121955,-0.0020667,-1.39116,-0.00459234,-0.00352021,1.52803,-0.12527,-0.00202842,-2.53413e-06,0.0174712,-0.0104649,0.2,0.2,0,1.28,0,0,0,0.2,-0.2,0,1.28,0,0,0,-1.39256,-0.00460208,-0.0035521,1.5261,-0.121955,-0.0020667,-1.39116,-0.00459234,-0.00352021,1.52803,-0.12527,-0.00202842,-2.53413e-06,0.0174712,-0.0104649,0.2,0.2,0,1.28,0,0,0,0.2,-0.2,0,1.28,0,0,0
gen_000161_tz+0.05_tx-0.01_ty+0.01_p-0.05_fx-0.03_fy+0.00,-0.261054,2.499197742,0.506269,0.998654,-0.000771418,0.0517931,0.00250949,-1.47358,-0.00499999,-0.00355545,1.66463,-0.294534,-0.00214282,-1.47174,-0.00499067,-0.00352385,1.66649,-0.29823,-0.00210216,0.00146559,0.0171728,-0.125493,0.2,0.2,0,1.28,0,0,0,0.2,-0.2,0,1.28,0,0,0,-1.47358,-0.00499999,-0.00355545,1.66463,-0.294534,-0.00214282,-1.47174,-0.00499067,-0.00352385,1.66649,-0.29823,-0.00210216,0.00146559,0.0171728,-0.125493,0.2,0.2,0,1.28,0,0,0,0.2,-0.2,0,1.28,0,0,0
gen_000162_tz+0.05_tx-0.01_ty+0.01_p-0.05_fx-0.02_fy+0.00,-0.260279,2.499198563,0.506244,0.999056,-0.000772362,0.0433631,0.00247495,-1.46351,-0.00494365,-0.00355896,1.64704,-0.270152,-0.00213417,-1.46172,-0.00493417,-0.00352729,1.6489,-0.273786,-0.00209382,0.00125902,0.0172353,-0.10863,0.2,0.2,0,1.28,0,0,0,0.2,-0.2,0,1.28,0,0,0,-1.46351,-0.00494365,-0.00355896,1.64704,-0.270152,-0.00213417,-1.46172,-0.00493417,-0.00352729,1.6489,-0.273786,-0.00209382,0.00125902,0.0172353,-0.10863,0.2,0.2,0,1.28,0,0,0,0.2,-0.2,0,1.28,0,0,0
gen_000163_tz+0.05_tx-0.01_ty+0.01_p-0.05_fx-0.01_fy+0.00,-0.259511,2.499199517,0.506231,0.999384,-0.000771045,0.0350116,0.00244098,-1.45296,-0.00488611,-0.00355914,1.62872,-0.245676,-0.00212434,-1.45124,-0.00487651,-0.0035274,1.63059,-0.24925,-0.00208432,0.00105243,0.0172895,-0.0919306,0.2,0.2,0,1.28,0,0,0,0.2,-0.2,0,1.28,0,0,0,-1.45296,-0.00488611,-0.00355914,1.62872,-0.245676,-0.00212434,-1.45124,-0.00487651,-0.0035274,1.63059,-0.24925,-0.00208432,0.00105243,0.0172895,-0.0919306,0.2,0.2,0,1.28,0,0,0,0.2,-0.2,0,1.28,0,0,0
gen_000164_tz+0.05_tx-0.01_ty+0.01_p-0.05_fx+0.00_fy+0.00,-0.258748,2.499200706,0.50623,0.999639,-0.000766368,0.0267347,0.00240683,-1.44192,-0.00482576,-0.00355315,1.60967,-0.221108,-0.00211271,-1.44027,-0.0048161,-0.00352135,1.61154,-0.224624,-0.00207305,0.00084735,0.017333,-0.0753861,0.2,0.2,0,1.28,0,0,0,0.2,-0.2,0,1.28,0,0,0,-1.44192,-0.00482576,-0.00355315,1.60967,-0.221108,-0.00211271,-1.44027,-0.0048161,-0.00352135,1.61154,-0.224624,-0.00207305,0.00084735,0.017333,-0.0753861,0.2,0.2,0,1.28,0,0,0,0.2,-0.2,0,1.28,0,0,0
gen_000165_tz+0.05_tx-0.01_ty+0.01_p-0.05_fx+0.01_fy+0.00,-0.257991,2.49920193,0.506239,0.999825,-0.000760579,0.0185334,0.00237404,-1.4304,-0.00476581,-0.00354658,1.58988,-0.196445,-0.00210055,-1.42881,-0.00475611,-0.00351473,1.59176,-0.199904,-0.00206124,0.000641063,0.0173706,-0.058997,0.2,0.2,0,1.28,0,0,0,0.2,-0.2,0,1.28,0,0,0,-1.4304,-0.00476581,-0.00354658,1.58988,-0.196445,-0.00210055,-1.42881,-0.00475611,-0.00351473,1.59176,-0.199904,-0.00206124,0.000641063,0.0173706,-0.058997,0.2,0.2,0,1.28,0,0,0,0.2,-0.2,0,1.28,0,0,0
gen_000166_tz+0.05_tx-0.01_ty+0.01_p-0.05_fx+0.02_fy+0.00,-0.257238,2.499202664,0.50626,0.999943,-0.000759699,0.0103886,0.00234657,-1.41835,-0.00471434,-0.0035547,1.56936,-0.171696,-0.00209114,-1.41682,-0.00470457,-0.00352283,1.57125,-0.175106,-0.00205215,0.000425224,0.0174145,-0.0427241,0.2,0.2,0,1.28,0,0,0,0.2,-0.2,0,1.28,0,0,0,-1.41835,-0.00471434,-0.0035547,1.56936,-0.171696,-0.00209114,-1.41682,-0.00470457,-0.00352283,1.57125,-0.175106,-0.00205215,0.000425224,0.0174145,-0.0427241,0.2,0.2,0,1.28,0,0,0,0.2,-0.2,0,1.28,0,0,0
gen_000167_tz+0.05_tx-0.01_ty+0.01_p-0.05_fx+0.03_fy+0.00,-0.256489,2.49920369,0.50629,0.999994,-0.000754937,0.00229251,0.00231848,-1.40574,-0.00465916,-0.00355524,1.5481,-0.146867,-0.00207956,-1.40428,-0.00464938,-0.00352335,1.55001,-0.150229,-0.00204092,0.000211258,0.017447,-0.0265507,0.2,0.2,0,1.28,0,0,0,0.2,-0.2,0,1.28,0,0,0,-1.40574,-0.00465916,-0.00355524,1.5481,-0.146867,-0.00207956,-1.40428,-0.00464938,-0.00352335,1.55001,-0.150229,-0.00204092,0.000211258,0.017447,-0.0265507,0.2,0.2,0,1.28,0,0,0,0.2,-0.2,0,1.28,0,0,0
gen_000168_tz+0.05_tx+0.00_ty+0.01_p-0.05_fx-0.03_fy+0.00,-0.251835,2.499197032,0.506306,0.998176,-0.000768452,0.0603051,0.00254481,-1.4832,-0.00505551,-0.00354925,1.68149,-0.31882,-0.00215045,-1.48129,-0.0050464,-0.00351774,1.68335,-0.322579,-0.00210948,0.00167171,0.0171022,-0.142528,0.2,0.2,0,1.28,0,0,0,0.2,-0.2,0,1.28,0,0,0,-1.4832,-0.00505551,-0.00354925,1.68149,-0.31882,-0.00215045,-1.48129,-0.0050464,-0.00351774,1.68335,-0.322579,-0.00210948,0.00167171,0.0171022,-0.142528,0.2,0.2,0,1.28,0,0,0,0.2,-0.2,0,1.28,0,0,0
gen_000169_tz+0.05_tx+0.00_ty+0.01_p-0.05_fx-0.02_fy+0.00,-0.251054,2.499197741,0.506269,0.998654,-0.000771434,0.0517933,0.00250949,-1.47359,-0.00499998,-0.00355549,1.66463,-0.294534,-0.00214283,-1.47174,-0.00499067,-0.00352389,1.66649,-0.29823,-0.00210217,0.00146559,0.0171728,-0.125493,0.2,0.2,0,1.28,0,0,0,0.2,-0.2,0,1.28,0,0,0,-1.47359,-0.00499998,-0.00355549,1.66463,-0.294534,-0.00214283,-1.47174,-0.00499067,-0.00352389,1.66649,-0.29823,-0.00210217,0.00146559,0.0171728,-0.125493,0.2,0.2,0,1.28,0,0,0,0.2,-0.2,0,1.28,0,0,0
gen_000170_tz+0.05_tx+0.00_ty+0.01_p-0.05_fx-0.01_fy+0.00,-0.250279,2.499198561,0.506244,0.999056,-0.000772378,0.0433633,0.00247494,-1.46351,-0.00494365,-0.00355901,1.64704,-0.270152,-0.00213418,-1.46172,-0.00493417,-0.00352733,1.6489,-0.273786,-0.00209383,0.00125903,0.0172354,-0.10863,0.2,0.2,0,1.28,0,0,0,0.2,-0.2,0,1.28,0,0,0,-1.46351,-0.00494365,-0.00355901,1.64704,-0.270152,-0.00213418,-1.46172,-0.00493417,-0.00352733,1.6489,-0.273786,-0.00209383,0.00125903,0.0172354,-0.10863,0.2,0.2,0,1.28,0,0,0,0.2,-0.2,0,1.28,0,0,0
gen_000171_tz+0.05_tx+0.00_ty+0.01_p-0.05_fx+0.00_fy+0.00,-0.249511,2.499199516,0.506231,0.999384,-0.000771057,0.0350117,0.00244098,-1.45296,-0.00488611,-0.00355917,1.62872,-0.245676,-0.00212434,-1.45124,-0.00487651,-0.00352743,1.63059,-0.24925,-0.00208433,0.00105243,0.0172895,-0.091931,0.2,0.2,0,1.28,0,0,0,0.2,-0.2,0,1.28,0,0,0,-1.45296,-0.00488611,-0.00355917,1.62872,-0.245676,-0.00212434,-1.45124,-0.00487651,-0.00352743,1.63059,-0.24925,-0.00208433,0.00105243,0.0172895,-0.091931,0.2,0.2,0,1.28,0,0,0,0.2,-0.2,0,1.28,0,0,0
gen_000172_tz+0.05_tx+0.00_ty+0.01_p-0.05_fx+0.01_fy+0.00,-0.248748,2.499200706,0.50623,0.999639,-0.000766362,0.0267349,0.00240683,-1.44192,-0.00482577,-0.00355313,1.60967,-0.221108,-0.00211271,-1.44027,-0.0048161,-0.00352133,1.61154,-0.224623,-0.00207305,0.000847354,0.017333,-0.0753866,0.2,0.2,0,1.28,0,0,0,0.2,-0.2,0,1.28,0,0,0,-1.44192,-0.00482577,-0.00355313,1.60967,-0.221108,-0.00211271,-1.44027,-0.0048161,-0.00352133,1.61154,-0.224623,-0.00207305,0.000847354,0.017333,-0.0753866,0.2,0.2,0,1.28,0,0,0,0.2,-0.2,0,1.28,0,0,0
gen_000173_tz+0.05_tx+0.00_ty+0.01_p-0.05_fx+0.02_fy+0.00,-0.247991,2.499201933,0.506239,0.999825,-0.000760541,0.0185336,0.00237404,-1.4304,-0.00476581,-0.00354648,1.58988,-0.196444,-0.00210052,-1.42881,-0.00475611,-0.00351463,1.59176,-0.199903,-0.00206122,0.000641066,0.0173706,-0.0589976,0.2,0.2,0,1.28,0,0,0,0.2,-0.2,0,1.28,0,0,0,-1.4304,-0.00476581,-0.00354648,1.58988,-0.196444,-0.00210052,-1.42881,-0.00475611,-0.00351463,1.59176,-0.199903,-0.00206122,0.000641066,0.0173706,-0.0589976,0.2,0.2,0,1.28,0,0,0,0.2,-0.2,0,1.28,0,0,0
gen_000174_tz+0.05_tx+0.00_ty+0.01_p-0.05_fx+0.03_fy+0.00,-0.247238,2.499202666,0.50626,0.999943,-0.000759666,0.0103887,0.00234657,-1.41835,-0.00471434,-0.00355462,1.56936,-0.171696,-0.00209112,-1.41682,-0.00470458,-0.00352275,1.57125,-0.175106,-0.00205213,0.000425227,0.0174145,-0.0427245,0.2,0.2,0,1.28,0,0,0,0.2,-0.2,0,1.28,0,0,0,-1.41835,-0.00471434,-0.00355462,1.56936,-0.171696,-0.00209112,-1.41682,-0.00470458,-0.00352275,1.57125,-0.175106,-0.00205213,0.000425227,0.0174145,-0.0427245,0.2,0.2,0,1.28,0,0,0,0.2,-0.2,0,1.28,0,0,0
gen_000175_tz+0.05_tx+0.01_ty+0.01_p-0.05_fx-0.03_fy+0.00,-0.242622,2.499196409,0.506356,0.99762,-0.000763654,0.0689026,0.00258109,-1.49236,-0.00511066,-0.00354089,1.69762,-0.343003,-0.00215718,-1.49039,-0.00510178,-0.00350949,1.69948,-0.346827,-0.00211591,0.00187696,0.0170238,-0.159744,0.2,0.2,0,1.28,0,0,0,0.2,-0.2,0,1.28,0,0,0,-1.49236,-0.00511066,-0.00354089,1.69762,-0.343003,-0.00215718,-1.49039,-0.00510178,-0.00350949,1.69948,-0.346827,-0.00211591,0.00187696,0.0170238,-0.159744,0.2,0.2,0,1.28,0,0,0,0.2,-0.2,0,1.28,0,0,0
gen_000176_tz+0.05_tx+0.01_ty+0.01_p-0.05_fx-0.02_fy+0.00,-0.241835,2.499197031,0.506306,0.998176,-0.000768463,0.0603052,0.00254481,-1.4832,-0.00505551,-0.00354927,1.68149,-0.31882,-0.00215046,-1.48129,-0.0050464,-0.00351777,1.68335,-0.322579,-0.00210949,0.00167171,0.0171022,-0.142528,0.2,0.2,0,1.28,0,0,0,0.2,-0.2,0,1.28,0,0,0,-1.4832,-0.00505551,-0.00354927,1.68149,-0.31882,-0.00215046,-1.48129,-0.0050464,-0.00351777,1.68335,-0.322579,-0.00210949,0.00167171,0.0171022,-0.142528,0.2,0.2,0,1.28,0,0,0,0.2,-0.2,0,1.28,0,0,0
gen_000177_tz+0.05_tx+0.01_ty+0.01_p-0.05_fx-0.01_fy+0.00,-0.241054,2.49919774,0.506269,0.998654,-0.000771443,0.0517934,0.00250949,-1.47359,-0.00499998,-0.00355551,1.66463,-0.294534,-0.00214284,-1.47174,-0.00499067,-0.00352392,1.66649,-0.29823,-0.00210218,0.0014656,0.0171728,-0.125493,0.2,0.2,0,1.28,0,0,0,0.2,-0.2,0,1.28,0,0,0,-1.47359,-0.00499998,-0.00355551,1.66463,-0.294534,-0.00214284,-1.47174,-0.00499067,-0.00352392,1.66649,-0.29823,-0.00210218,0.0014656,0.0171728,-0.125493,0.2,0.2,0,1.28,0,0,0,0.2,-0.2,0,1.28,0,0,0
gen_000178_tz+0.05_tx+0.01_ty+0.01_p-0.05_fx+0.00_fy+0.00,-0.240279,2.499198561,0.506244,0.999056,-0.000772381,0.0433634,0.00247495,-1.46351,-0.00494365,-0.00355901,1.64704,-0.270152,-0.00213418,-1.46172,-0.00493417,-0.00352734,1.6489,-0.273786,-0.00209383,0.00125903,0.0172354,-0.10863,0.2,0.2,0,1.28,0,0,0,0.2,-0.2,0,1.28,0,0,0,-1.46351,-0.00494365,-0.00355901,1.64704,-0.270152,-0.00213418,-1.46172,-0.00493417,-0.00352734,1.6489,-0.273786,-0.00209383,0.00125903,0.0172354,-0.10863,0.2,0.2,0,1.28,0,0,0,0.2,-0.2,0,1.28,0,0,0
gen_000179_tz+0.05_tx+0.01_ty+0.01_p-0.05_fx+0.01_fy+0.00,-0.239511,2.499199549,0.506231,0.999384,-0.000770686,0.0350109,0.00244072,-1.45296,-0.00488557,-0.00355824,1.62872,-0.245677,-0.00212413,-1.45124,-0.00487598,-0.0035265,1.63059,-0.249251,-0.00208412,0.0010529,0.0172888,-0.0919294,0.2,0.2,0,1.28,0,0,0,0.2,-0.2,0,1.28,0,0,0,-1.45296,-0.00488557,-0.00355824,1.62872,-0.245677,-0.00212413,-1.45124,-0.00487598,-0.0035265,1.63059,-0.249251,-0.00208412,0.0010529,0.0172888,-0.0919294,0.2,0.2,0,1.28,0,0,0,0.2,-0.2,0,1.28,0,0,0
gen_000180_tz+0.05_tx+0.01_ty+0.01_p-0.05_fx+0.02_fy+0.00,-0.238748,2.49920071,0.50623,0.999639,-0.000766322,0.0267351,0.00240684,-1.44192,-0.00482577,-0.00355302,1.60967,-0.221108,-0.00211268,-1.44027,-0.00481611,-0.00352122,1.61154,-0.224623,-0.00207302,0.000847352,0.017333,-0.0753869,0.2,0.2,0,1.28,0,0,0,0.2,-0.2,0,1.28,0,0,0,-1.44192,-0.00482577,-0.00355302,1.60967,-0.221108,-0.00211268,-1.44027,-0.00481611,-0.00352122,1.61154,-0.224623,-0.00207302,0.000847352,0.017333,-0.0753869,0.2,0.2,0,1.28,0,0,0,0.2,-0.2,0,1.28,0,0,0
gen_000181_tz+0.05_tx+0.01_ty+0.01_p-0.05_fx+0.03_fy+0.00,-0.237991,2.49920194,0.506239,0.999825,-0.00076047,0.0185339,0.00237404,-1.4304,-0.00476582,-0.00354629,1.58988,-0.196444,-0.00210048,-1.42882,-0.00475612,-0.00351444,1.59176,-0.199903,-0.00206117,0.000641061,0.0173704,-0.0589982,0.2,0.2,0,1.28,0,0,0,0.2,-0.2,0,1.28,0,0,0,-1.4304,-0.00476582,-0.00354629,1.58988,-0.196444,-0.00210048,-1.42882,-0.00475612,-0.00351444,1.59176,-0.199903,-0.00206117,0.000641061,0.0173704,-0.0589982,0.2,0.2,0,1.28,0,0,0,0.2,-0.2,0,1.28,0,0,0
gen_000182_tz+0.05_tx+0.02_ty+0.01_p-0.05_fx-0.03_fy+0.00,-0.233416,2.499195882,0.506419,0.996982,-0.00075691,0.0775868,0.00261824,-1.50108,-0.00516529,-0.00353017,1.71301,-0.36708,-0.00216295,-1.49906,-0.0051567,-0.00349888,1.71488,-0.370971,-0.0021214,0.00208136,0.0169375,-0.177144,0.2,0.2,0,1.28,0,0,0,0.2,-0.2,0,1.28,0,0,0,-1.50108,-0.00516529,-0.00353017,1.71301,-0.36708,-0.00216295,-1.49906,-0.0051567,-0.00349888,1.71488,-0.370971,-0.0021214,0.00208136,0.0169375,-0.177144,0.2,0.2,0,1.28,0,0,0,0.2,-0.2,0,1.28,0,0,0
gen_000183_tz+0.05_tx+0.02_ty+0.01_p-0.05_fx-0.02_fy+0.00,-0.232622,2.499196409,0.506356,0.99762,-0.000763661,0.0689027,0.00258109,-1.49236,-0.00511066,-0.00354091,1.69762,-0.343003,-0.00215719,-1.49039,-0.00510178,-0.00350951,1.69948,-0.346827,-0.00211592,0.00187697,0.0170239,-0.159744,0.2,0.2,0,1.28,0,0,0,0.2,-0.2,0,1.28,0,0,0,-1.49236,-0.00511066,-0.00354091,1.69762,-0.343003,-0.00215719,-1.49039,-0.00510178,-0.00350951,1.69948,-0.346827,-0.00211592,0.00187697,0.0170239,-0.159744,0.2,0.2,0,1.28,0,0,0,0.2,-0.2,0,1.28,0,0,0
gen_000184_tz+0.05_tx+0.02_ty+0.01_p-0.05_fx-0.01_fy+0.00,-0.231835,2.49919703,0.506306,0.998176,-0.000768467,0.0603052,0.00254481,-1.4832,-0.00505551,-0.00354929,1.68149,-0.318819,-0.00215046,-1.48129,-0.0050464,-0.00351778,1.68335,-0.322579,-0.00210949,0.00167171,0.0171022,-0.142528,0.2,0.2,0,1.28,0,0,0,0.2,-0.2,0,1.28,0,0,0,-1.4832,-0.00505551,-0.00354929,1.68149,-0.318819,-0.00215046,-1.48129,-0.0050464,-0.00351778,1.68335,-0.322579,-0.00210949,0.00167171,0.0171022,-0.142528,0.2,0.2,0,1.28,0,0,0,0.2,-0.2,0,1.28,0,0,0
gen_000185_tz+0.05_tx+0.02_ty+0.01_p-0.05_fx+0.00_fy+0.00,-0.231054,2.49919774,0.506269,0.998654,-0.000771441,0.0517934,0.00250949,-1.47359,-0.00499999,-0.00355551,1.66463,-0.294534,-0.00214284,-1.47174,-0.00499067,-0.00352391,1.66649,-0.29823,-0.00210217,0.0014656,0.0171728,-0.125494,0.2,0.2,0,1.28,0,0,0,0.2,-0.2,0,1.28,0,0,0,-1.47359,-0.00499999,-0.00355551,1.66463,-0.294534,-0.00214284,-1.47174,-0.00499067,-0.00352391,1.66649,-0.29823,-0.00210217,0.0014656,0.0171728,-0.125494,0.2,0.2,0,1.28,0,0,0,0.2,-0.2,0,1.28,0,0,0
gen_000186_tz+0.05_tx+0.02_ty+0.01_p-0.05_fx+0.01_fy+0.00,-0.230279,2.499198562,0.506244,0.999056,-0.000772369,0.0433634,0.00247495,-1.46351,-0.00494365,-0.00355898,1.64704,-0.270152,-0.00213417,-1.46173,-0.00493417,-0.00352731,1.6489,-0.273786,-0.00209382,0.00125903,0.0172354,-0.108631,0.2,0.2,0,1.28,0,0,0,0.2,-0.2,0,1.28,0,0,0,-1.46351,-0.00494365,-0.00355898,1.64704,-0.270152,-0.00213417,-1.46173,-0.00493417,-0.00352731,1.6489,-0.273786,-0.00209382,0.00125903,0.0172354,-0.108631,0.2,0.2,0,1.28,0,0,0,0.2,-0.2,0,1.28,0,0,0
gen_000187_tz+0.05_tx+0.02_ty+0.01_p-0.05_fx+0.02_fy+0.00,-0.229511,2.499199552,0.506231,0.999384,-0.000770656,0.035011,0.00244073,-1.45296,-0.00488558,-0.00355816,1.62872,-0.245676,-0.00212411,-1.45124,-0.00487599,-0.00352642,1.63059,-0.249251,-0.0020841,0.00105289,0.0172887,-0.0919296,0.2,0.2,0,1.28,0,0,0,0.2,-0.2,0,1.28,0,0,0,-1.45296,-0.00488558,-0.00355816,1.62872,-0.245676,-0.00212411,-1.45124,-0.00487599,-0.00352642,1.63059,-0.249251,-0.0020841,0.00105289,0.0172887,-0.0919296,0.2,0.2,0,1.28,0,0,0,0.2,-0.2,0,1.28,0,0,0
gen_000188_tz+0.05_tx+0.02_ty+0.01_p-0.05_fx+0.03_fy+0.00,-0.228748,2.499200715,0.50623,0.999639,-0.000766262,0.0267353,0.00240684,-1.44192,-0.00482579,-0.00355286,1.60967,-0.221108,-0.00211264,-1.44027,-0.00481612,-0.00352106,1.61154,-0.224623,-0.00207298,0.00084734,0.0173328,-0.0753873,0.2,0.2,0,1.28,0,0,0,0.2,-0.2,0,1.28,0,0,0,-1.44192,-0.00482579,-0.00355286,1.60967,-0.221108,-0.00211264,-1.44027,-0.00481612,-0.00352106,1.61154,-0.224623,-0.00207298,0.00084734,0.0173328,-0.0753873,0.2,0.2,0,1.28,0,0,0,0.2,-0.2,0,1.28,0,0,0
