meetpal644/Sit-to-Stand-Motion-Synthesis-For-Humanoids/keyframes/chair1_pose_0.03z.csv
name,qpos_0,qpos_1,qpos_2,qpos_3,qpos_4,qpos_5,qpos_6,qpos_7,qpos_8,qpos_9,qpos_10,qpos_11,qpos_12,qpos_13,qpos_14,qpos_15,qpos_16,qpos_17,qpos_18,qpos_19,qpos_20,qpos_21,qpos_22,qpos_23,qpos_24,qpos_25,qpos_26,qpos_27,qpos_28,qpos_29,qpos_30,qpos_31,qpos_32,qpos_33,qpos_34,qpos_35,ctrl_0,ctrl_1,ctrl_2,ctrl_3,ctrl_4,ctrl_5,ctrl_6,ctrl_7,ctrl_8,ctrl_9,ctrl_10,ctrl_11,ctrl_12,ctrl_13,ctrl_14,ctrl_15,ctrl_16,ctrl_17,ctrl_18,ctrl_19,ctrl_20,ctrl_21,ctrl_22,ctrl_23,ctrl_24,ctrl_25,ctrl_26,ctrl_27,ctrl_28
gen_000000_tz+0.03_tx-0.03_ty-0.02_p-0.05_fx-0.03_fy+0.00,-0.278968,1.4714568,0.486378,0.9993,0.0242776,0.0283376,0.00274199,-1.47593,-0.00447047,-0.0161829,1.67883,-0.259571,-0.0649525,-1.50868,-0.00506102,-0.0172243,1.72,-0.267971,-0.0661502,-0.00117679,-0.0326817,-0.0784712,0.2,0.2,0,1.28,0,0,0,0.2,-0.2,0,1.28,0,0,0,-1.47593,-0.00447047,-0.0161829,1.67883,-0.259571,-0.0649525,-1.50868,-0.00506102,-0.0172243,1.72,-0.267971,-0.0661502,-0.00117679,-0.0326817,-0.0784712,0.2,0.2,0,1.28,0,0,0,0.2,-0.2,0,1.28,0,0,0
gen_000001_tz+0.03_tx-0.03_ty-0.02_p-0.05_fx-0.02_fy+0.00,-0.278205,1.4714579,0.486388,0.999502,0.024255,0.0200338,0.00259564,-1.46509,-0.00467808,-0.0162259,1.6597,-0.234682,-0.0649382,-1.49797,-0.00527886,-0.0172577,1.70084,-0.242917,-0.0661342,-0.000742775,-0.0326052,-0.0618669,0.2,0.2,0,1.28,0,0,0,0.2,-0.2,0,1.28,0,0,0,-1.46509,-0.00467808,-0.0162259,1.6597,-0.234682,-0.0649382,-1.49797,-0.00527886,-0.0172577,1.70084,-0.242917,-0.0661342,-0.000742775,-0.0326052,-0.0618669,0.2,0.2,0,1.28,0,0,0,0.2,-0.2,0,1.28,0,0,0
gen_000002_tz+0.03_tx-0.03_ty-0.02_p-0.05_fx-0.01_fy+0.00,-0.277449,1.4714583,0.486409,0.999634,0.0242289,0.0118246,0.00244745,-1.45379,-0.00486658,-0.0162761,1.63985,-0.209714,-0.0649241,-1.48679,-0.00547685,-0.0172988,1.68096,-0.217806,-0.0661182,-0.000308342,-0.0325184,-0.0454551,0.2,0.2,0,1.28,0,0,0,0.2,-0.2,0,1.28,0,0,0,-1.45379,-0.00486658,-0.0162761,1.63985,-0.209714,-0.0649241,-1.48679,-0.00547685,-0.0172988,1.68096,-0.217806,-0.0661182,-0.000308342,-0.0325184,-0.0454551,0.2,0.2,0,1.28,0,0,0,0.2,-0.2,0,1.28,0,0,0
gen_000003_tz+0.03_tx-0.03_ty-0.02_p-0.05_fx+0.00_fy+0.00,-0.2767,1.4714582,0.486441,0.999698,0.0242002,0.0036976,0.00229647,-1.442,-0.00503438,-0.0163316,1.61927,-0.184675,-0.0649099,-1.47511,-0.00565341,-0.0173458,1.66037,-0.192644,-0.0661021,0.000128485,-0.0324228,-0.02921,0.2,0.2,0,1.28,0,0,0,0.2,-0.2,0,1.28,0,0,0,-1.442,-0.00503438,-0.0163316,1.61927,-0.184675,-0.0649099,-1.47511,-0.00565341,-0.0173458,1.66037,-0.192644,-0.0661021,0.000128485,-0.0324228,-0.02921,0.2,0.2,0,1.28,0,0,0,0.2,-0.2,0,1.28,0,0,0
gen_000004_tz+0.03_tx-0.03_ty-0.02_p-0.05_fx+0.01_fy+0.00,-0.275957,1.4714573,0.486483,0.999696,0.0241653,-0.00435451,0.00214383,-1.42971,-0.00518435,-0.0164025,1.59797,-0.159567,-0.064898,-1.46292,-0.00581167,-0.0174087,1.63907,-0.167434,-0.0660881,0.000565436,-0.0323112,-0.0131157,0.2,0.2,0,1.28,0,0,0,0.2,-0.2,0,1.28,0,0,0,-1.42971,-0.00518435,-0.0164025,1.59797,-0.159567,-0.064898,-1.46292,-0.00581167,-0.0174087,1.63907,-0.167434,-0.0660881,0.000565436,-0.0323112,-0.0131157,0.2,0.2,0,1.28,0,0,0,0.2,-0.2,0,1.28,0,0,0
gen_000005_tz+0.03_tx-0.03_ty-0.02_p-0.05_fx+0.02_fy+0.00,-0.275219,1.4714555,0.486535,0.999631,0.0241241,-0.0123389,0.00198905,-1.41689,-0.00531563,-0.016489,1.57593,-0.134388,-0.0648886,-1.4502,-0.0059508,-0.0174878,1.61705,-0.142174,-0.0660764,0.00100331,-0.0321836,0.00284299,0.2,0.2,0,1.28,0,0,0,0.2,-0.2,0,1.28,0,0,0,-1.41689,-0.00531563,-0.016489,1.57593,-0.134388,-0.0648886,-1.4502,-0.0059508,-0.0174878,1.61705,-0.142174,-0.0660764,0.00100331,-0.0321836,0.00284299,0.2,0.2,0,1.28,0,0,0,0.2,-0.2,0,1.28,0,0,0
gen_000006_tz+0.03_tx-0.03_ty-0.02_p-0.05_fx+0.03_fy+0.00,-0.274486,1.4714528,0.486596,0.999503,0.0240763,-0.0202622,0.00183198,-1.40354,-0.00542794,-0.016593,1.55317,-0.109136,-0.0648821,-1.43693,-0.00607058,-0.0175849,1.5943,-0.116862,-0.0660675,0.00144224,-0.0320389,0.0186802,0.2,0.2,0,1.28,0,0,0,0.2,-0.2,0,1.28,0,0,0,-1.40354,-0.00542794,-0.016593,1.55317,-0.109136,-0.0648821,-1.43693,-0.00607058,-0.0175849,1.5943,-0.116862,-0.0660675,0.00144224,-0.0320389,0.0186802,0.2,0.2,0,1.28,0,0,0,0.2,-0.2,0,1.28,0,0,0
gen_000007_tz+0.03_tx-0.02_ty-0.02_p-0.05_fx-0.03_fy+0.00,-0.26974,1.4714548,0.48638,0.999025,0.024294,0.0367414,0.00288798,-1.48633,-0.00424687,-0.016153,1.69723,-0.284379,-0.0649686,-1.51893,-0.0048266,-0.0172044,1.73844,-0.292965,-0.0661678,-0.00161309,-0.0327425,-0.0952803,0.2,0.2,0,1.28,0,0,0,0.2,-0.2,0,1.28,0,0,0,-1.48633,-0.00424687,-0.016153,1.69723,-0.284379,-0.0649686,-1.51893,-0.0048266,-0.0172044,1.73844,-0.292965,-0.0661678,-0.00161309,-0.0327425,-0.0952803,0.2,0.2,0,1.28,0,0,0,0.2,-0.2,0,1.28,0,0,0
gen_000008_tz+0.03_tx-0.02_ty-0.02_p-0.05_fx-0.02_fy+0.00,-0.268968,1.4714568,0.486378,0.9993,0.0242776,0.0283377,0.002742,-1.47593,-0.00447046,-0.0161827,1.67883,-0.259571,-0.0649525,-1.50868,-0.00506101,-0.0172241,1.72,-0.267971,-0.0661502,-0.00117681,-0.0326819,-0.0784716,0.2,0.2,0,1.28,0,0,0,0.2,-0.2,0,1.28,0,0,0,-1.47593,-0.00447046,-0.0161827,1.67883,-0.259571,-0.0649525,-1.50868,-0.00506101,-0.0172241,1.72,-0.267971,-0.0661502,-0.00117681,-0.0326819,-0.0784716,0.2,0.2,0,1.28,0,0,0,0.2,-0.2,0,1.28,0,0,0
gen_000009_tz+0.03_tx-0.02_ty-0.02_p-0.05_fx-0.01_fy+0.00,-0.268205,1.4714578,0.486388,0.999502,0.0242543,0.0200337,0.00259599,-1.46509,-0.0046789,-0.0162278,1.6597,-0.234682,-0.0649386,-1.49797,-0.00527971,-0.0172596,1.70084,-0.242918,-0.0661346,-0.000743458,-0.0326037,-0.0618667,0.2,0.2,0,1.28,0,0,0,0.2,-0.2,0,1.28,0,0,0,-1.46509,-0.0046789,-0.0162278,1.6597,-0.234682,-0.0649386,-1.49797,-0.00527971,-0.0172596,1.70084,-0.242918,-0.0661346,-0.000743458,-0.0326037,-0.0618667,0.2,0.2,0,1.28,0,0,0,0.2,-0.2,0,1.28,0,0,0
gen_000010_tz+0.03_tx-0.02_ty-0.02_p-0.05_fx+0.00_fy+0.00,-0.267449,1.4714583,0.486409,0.999634,0.024229,0.0118248,0.00244745,-1.45379,-0.00486657,-0.0162759,1.63985,-0.209714,-0.0649241,-1.48679,-0.00547684,-0.0172986,1.68096,-0.217806,-0.0661182,-0.000308351,-0.0325185,-0.0454555,0.2,0.2,0,1.28,0,0,0,0.2,-0.2,0,1.28,0,0,0,-1.45379,-0.00486657,-0.0162759,1.63985,-0.209714,-0.0649241,-1.48679,-0.00547684,-0.0172986,1.68096,-0.217806,-0.0661182,-0.000308351,-0.0325185,-0.0454555,0.2,0.2,0,1.28,0,0,0,0.2,-0.2,0,1.28,0,0,0
gen_000011_tz+0.03_tx-0.02_ty-0.02_p-0.05_fx+0.01_fy+0.00,-0.2667,1.4714582,0.486441,0.999698,0.0242003,0.00369773,0.00229647,-1.442,-0.00503437,-0.0163315,1.61927,-0.184675,-0.0649099,-1.47511,-0.00565341,-0.0173458,1.66037,-0.192644,-0.0661021,0.000128482,-0.0324228,-0.0292102,0.2,0.2,0,1.28,0,0,0,0.2,-0.2,0,1.28,0,0,0,-1.442,-0.00503437,-0.0163315,1.61927,-0.184675,-0.0649099,-1.47511,-0.00565341,-0.0173458,1.66037,-0.192644,-0.0661021,0.000128482,-0.0324228,-0.0292102,0.2,0.2,0,1.28,0,0,0,0.2,-0.2,0,1.28,0,0,0
gen_000012_tz+0.03_tx-0.02_ty-0.02_p-0.05_fx+0.02_fy+0.00,-0.265957,1.4714573,0.486483,0.999696,0.0241653,-0.00435441,0.00214383,-1.42971,-0.00518434,-0.0164025,1.59797,-0.159567,-0.064898,-1.46292,-0.00581167,-0.0174087,1.63907,-0.167434,-0.0660881,0.000565435,-0.0323112,-0.0131159,0.2,0.2,0,1.28,0,0,0,0.2,-0.2,0,1.28,0,0,0,-1.42971,-0.00518434,-0.0164025,1.59797,-0.159567,-0.064898,-1.46292,-0.00581167,-0.0174087,1.63907,-0.167434,-0.0660881,0.000565435,-0.0323112,-0.0131159,0.2,0.2,0,1.28,0,0,0,0.2,-0.2,0,1.28,0,0,0
gen_000013_tz+0.03_tx-0.02_ty-0.02_p-0.05_fx+0.03_fy+0.00,-0.265219,1.4714555,0.486535,0.999631,0.0241241,-0.0123388,0.00198905,-1.41689,-0.00531562,-0.0164891,1.57593,-0.134388,-0.0648886,-1.4502,-0.00595079,-0.0174878,1.61705,-0.142174,-0.0660764,0.00100331,-0.0321836,0.00284281,0.2,0.2,0,1.28,0,0,0,0.2,-0.2,0,1.28,0,0,0,-1.41689,-0.00531562,-0.0164891,1.57593,-0.134388,-0.0648886,-1.4502,-0.00595079,-0.0174878,1.61705,-0.142174,-0.0660764,0.00100331,-0.0321836,0.00284281,0.2,0.2,0,1.28,0,0,0,0.2,-0.2,0,1.28,0,0,0
gen_000014_tz+0.03_tx-0.01_ty-0.02_p-0.05_fx-0.03_fy+0.00,-0.26052,1.4714519,0.486393,0.998675,0.0243042,0.0452488,0.00303382,-1.4963,-0.00400766,-0.0161356,1.7149,-0.309102,-0.0649862,-1.52874,-0.00457591,-0.0171973,1.75616,-0.317897,-0.0661868,-0.00205192,-0.0327874,-0.112303,0.2,0.2,0,1.28,0,0,0,0.2,-0.2,0,1.28,0,0,0,-1.4963,-0.00400766,-0.0161356,1.7149,-0.309102,-0.0649862,-1.52874,-0.00457591,-0.0171973,1.75616,-0.317897,-0.0661868,-0.00205192,-0.0327874,-0.112303,0.2,0.2,0,1.28,0,0,0,0.2,-0.2,0,1.28,0,0,0
gen_000015_tz+0.03_tx-0.01_ty-0.02_p-0.05_fx-0.02_fy+0.00,-0.25974,1.4714548,0.48638,0.999025,0.024294,0.0367415,0.00288798,-1.48633,-0.00424686,-0.0161529,1.69723,-0.284379,-0.0649686,-1.51893,-0.00482658,-0.0172042,1.73844,-0.292965,-0.0661678,-0.00161311,-0.0327426,-0.0952806,0.2,0.2,0,1.28,0,0,0,0.2,-0.2,0,1.28,0,0,0,-1.48633,-0.00424686,-0.0161529,1.69723,-0.284379,-0.0649686,-1.51893,-0.00482658,-0.0172042,1.73844,-0.292965,-0.0661678,-0.00161311,-0.0327426,-0.0952806,0.2,0.2,0,1.28,0,0,0,0.2,-0.2,0,1.28,0,0,0
gen_000016_tz+0.03_tx-0.01_ty-0.02_p-0.05_fx-0.01_fy+0.00,-0.258968,1.4714567,0.486378,0.9993,0.0242771,0.0283372,0.00274226,-1.47593,-0.00447108,-0.0161841,1.67883,-0.259571,-0.0649528,-1.50868,-0.00506166,-0.0172255,1.72,-0.267971,-0.0661505,-0.00117729,-0.0326807,-0.0784705,0.2,0.2,0,1.28,0,0,0,0.2,-0.2,0,1.28,0,0,0,-1.47593,-0.00447108,-0.0161841,1.67883,-0.259571,-0.0649528,-1.50868,-0.00506166,-0.0172255,1.72,-0.267971,-0.0661505,-0.00117729,-0.0326807,-0.0784705,0.2,0.2,0,1.28,0,0,0,0.2,-0.2,0,1.28,0,0,0
gen_000017_tz+0.03_tx-0.01_ty-0.02_p-0.05_fx+0.00_fy+0.00,-0.258205,1.4714578,0.486388,0.999502,0.0242543,0.0200339,0.00259599,-1.46509,-0.00467888,-0.0162277,1.6597,-0.234682,-0.0649386,-1.49797,-0.00527969,-0.0172595,1.70084,-0.242918,-0.0661346,-0.000743464,-0.0326039,-0.0618671,0.2,0.2,0,1.28,0,0,0,0.2,-0.2,0,1.28,0,0,0,-1.46509,-0.00467888,-0.0162277,1.6597,-0.234682,-0.0649386,-1.49797,-0.00527969,-0.0172595,1.70084,-0.242918,-0.0661346,-0.000743464,-0.0326039,-0.0618671,0.2,0.2,0,1.28,0,0,0,0.2,-0.2,0,1.28,0,0,0
gen_000018_tz+0.03_tx-0.01_ty-0.02_p-0.05_fx+0.01_fy+0.00,-0.257449,1.4714583,0.486409,0.999634,0.024229,0.0118249,0.00244745,-1.45379,-0.00486656,-0.0162759,1.63985,-0.209713,-0.064924,-1.48679,-0.00547683,-0.0172986,1.68096,-0.217806,-0.0661182,-0.000308356,-0.0325185,-0.0454559,0.2,0.2,0,1.28,0,0,0,0.2,-0.2,0,1.28,0,0,0,-1.45379,-0.00486656,-0.0162759,1.63985,-0.209713,-0.064924,-1.48679,-0.00547683,-0.0172986,1.68096,-0.217806,-0.0661182,-0.000308356,-0.0325185,-0.0454559,0.2,0.2,0,1.28,0,0,0,0.2,-0.2,0,1.28,0,0,0
gen_000019_tz+0.03_tx-0.01_ty-0.02_p-0.05_fx+0.02_fy+0.00,-0.2567,1.4714582,0.486441,0.999698,0.0242002,0.00369788,0.00229647,-1.442,-0.00503437,-0.0163316,1.61927,-0.184675,-0.0649099,-1.47511,-0.0056534,-0.0173458,1.66037,-0.192644,-0.0661021,0.00012848,-0.0324228,-0.0292105,0.2,0.2,0,1.28,0,0,0,0.2,-0.2,0,1.28,0,0,0,-1.442,-0.00503437,-0.0163316,1.61927,-0.184675,-0.0649099,-1.47511,-0.0056534,-0.0173458,1.66037,-0.192644,-0.0661021,0.00012848,-0.0324228,-0.0292105,0.2,0.2,0,1.28,0,0,0,0.2,-0.2,0,1.28,0,0,0
gen_000020_tz+0.03_tx-0.01_ty-0.02_p-0.05_fx+0.03_fy+0.00,-0.255957,1.4714573,0.486483,0.999696,0.0241652,-0.00435428,0.00214383,-1.42971,-0.00518434,-0.0164026,1.59797,-0.159567,-0.0648981,-1.46292,-0.00581167,-0.0174088,1.63907,-0.167434,-0.0660881,0.000565435,-0.0323111,-0.0131162,0.2,0.2,0,1.28,0,0,0,0.2,-0.2,0,1.28,0,0,0,-1.42971,-0.00518434,-0.0164026,1.59797,-0.159567,-0.0648981,-1.46292,-0.00581167,-0.0174088,1.63907,-0.167434,-0.0660881,0.000565435,-0.0323111,-0.0131162,0.2,0.2,0,1.28,0,0,0,0.2,-0.2,0,1.28,0,0,0
gen_000021_tz+0.03_tx+0.00_ty-0.02_p-0.05_fx-0.03_fy+0.00,-0.251309,1.4714481,0.486419,0.998247,0.0243079,0.0538623,0.00317986,-1.50585,-0.00375352,-0.0161306,1.73185,-0.333738,-0.0650053,-1.53812,-0.00430962,-0.0172027,1.77316,-0.342764,-0.0662071,-0.0024937,-0.0328158,-0.129544,0.2,0.2,0,1.28,0,0,0,0.2,-0.2,0,1.28,0,0,0,-1.50585,-0.00375352,-0.0161306,1.73185,-0.333738,-0.0650053,-1.53812,-0.00430962,-0.0172027,1.77316,-0.342764,-0.0662071,-0.0024937,-0.0328158,-0.129544,0.2,0.2,0,1.28,0,0,0,0.2,-0.2,0,1.28,0,0,0
gen_000022_tz+0.03_tx+0.00_ty-0.02_p-0.05_fx-0.02_fy+0.00,-0.25052,1.4714519,0.486393,0.998675,0.0243042,0.045249,0.00303382,-1.4963,-0.00400765,-0.0161355,1.7149,-0.309102,-0.0649862,-1.52874,-0.0045759,-0.0171972,1.75616,-0.317897,-0.0661868,-0.00205193,-0.0327874,-0.112303,0.2,0.2,0,1.28,0,0,0,0.2,-0.2,0,1.28,0,0,0,-1.4963,-0.00400765,-0.0161355,1.7149,-0.309102,-0.0649862,-1.52874,-0.0045759,-0.0171972,1.75616,-0.317897,-0.0661868,-0.00205193,-0.0327874,-0.112303,0.2,0.2,0,1.28,0,0,0,0.2,-0.2,0,1.28,0,0,0
gen_000023_tz+0.03_tx+0.00_ty-0.02_p-0.05_fx-0.01_fy+0.00,-0.24974,1.4714548,0.48638,0.999025,0.024294,0.0367417,0.00288798,-1.48633,-0.00424685,-0.0161528,1.69723,-0.284378,-0.0649685,-1.51893,-0.00482657,-0.0172041,1.73844,-0.292965,-0.0661678,-0.00161311,-0.0327426,-0.0952809,0.2,0.2,0,1.28,0,0,0,0.2,-0.2,0,1.28,0,0,0,-1.48633,-0.00424685,-0.0161528,1.69723,-0.284378,-0.0649685,-1.51893,-0.00482657,-0.0172041,1.73844,-0.292965,-0.0661678,-0.00161311,-0.0327426,-0.0952809,0.2,0.2,0,1.28,0,0,0,0.2,-0.2,0,1.28,0,0,0
gen_000024_tz+0.03_tx+0.00_ty-0.02_p-0.05_fx+0.00_fy+0.00,-0.248968,1.4714567,0.486378,0.9993,0.0242771,0.0283374,0.00274226,-1.47593,-0.00447107,-0.016184,1.67883,-0.259571,-0.0649528,-1.50868,-0.00506164,-0.0172254,1.72,-0.267971,-0.0661505,-0.0011773,-0.0326808,-0.0784709,0.2,0.2,0,1.28,0,0,0,0.2,-0.2,0,1.28,0,0,0,-1.47593,-0.00447107,-0.016184,1.67883,-0.259571,-0.0649528,-1.50868,-0.00506164,-0.0172254,1.72,-0.267971,-0.0661505,-0.0011773,-0.0326808,-0.0784709,0.2,0.2,0,1.28,0,0,0,0.2,-0.2,0,1.28,0,0,0
gen_000025_tz+0.03_tx+0.00_ty-0.02_p-0.05_fx+0.01_fy+0.00,-0.248205,1.4714578,0.486388,0.999502,0.0242543,0.0200341,0.00259599,-1.46509,-0.00467888,-0.0162277,1.6597,-0.234681,-0.0649386,-1.49797,-0.00527969,-0.0172595,1.70084,-0.242917,-0.0661346,-0.00074347,-0.0326038,-0.0618675,0.2,0.2,0,1.28,0,0,0,0.2,-0.2,0,1.28,0,0,0,-1.46509,-0.00467888,-0.0162277,1.6597,-0.234681,-0.0649386,-1.49797,-0.00527969,-0.0172595,1.70084,-0.242917,-0.0661346,-0.00074347,-0.0326038,-0.0618675,0.2,0.2,0,1.28,0,0,0,0.2,-0.2,0,1.28,0,0,0
gen_000026_tz+0.03_tx+0.00_ty-0.02_p-0.05_fx+0.02_fy+0.00,-0.247449,1.4714583,0.486409,0.999633,0.024229,0.0118251,0.00244745,-1.45379,-0.00486656,-0.016276,1.63985,-0.209713,-0.0649241,-1.48679,-0.00547683,-0.0172987,1.68096,-0.217806,-0.0661182,-0.000308359,-0.0325184,-0.0454562,0.2,0.2,0,1.28,0,0,0,0.2,-0.2,0,1.28,0,0,0,-1.45379,-0.00486656,-0.016276,1.63985,-0.209713,-0.0649241,-1.48679,-0.00547683,-0.0172987,1.68096,-0.217806,-0.0661182,-0.000308359,-0.0325184,-0.0454562,0.2,0.2,0,1.28,0,0,0,0.2,-0.2,0,1.28,0,0,0
gen_000027_tz+0.03_tx+0.00_ty-0.02_p-0.05_fx+0.03_fy+0.00,-0.2467,1.4714582,0.486441,0.999698,0.0242002,0.00369805,0.00229646,-1.442,-0.00503436,-0.0163317,1.61927,-0.184675,-0.0649099,-1.47511,-0.0056534,-0.0173459,1.66037,-0.192644,-0.0661021,0.000128481,-0.0324227,-0.0292108,0.2,0.2,0,1.28,0,0,0,0.2,-0.2,0,1.28,0,0,0,-1.442,-0.00503436,-0.0163317,1.61927,-0.184675,-0.0649099,-1.47511,-0.0056534,-0.0173459,1.66037,-0.192644,-0.0661021,0.000128481,-0.0324227,-0.0292108,0.2,0.2,0,1.28,0,0,0,0.2,-0.2,0,1.28,0,0,0
gen_000028_tz+0.03_tx+0.01_ty-0.02_p-0.05_fx-0.03_fy+0.00,-0.242107,1.4714433,0.486458,0.997738,0.0243056,0.0625852,0.00332617,-1.51499,-0.00348443,-0.0161363,1.74806,-0.358281,-0.0650255,-1.54706,-0.00402765,-0.0172192,1.78943,-0.367562,-0.0662283,-0.0029384,-0.0328284,-0.147014,0.2,0.2,0,1.28,0,0,0,0.2,-0.2,0,1.28,0,0,0,-1.51499,-0.00348443,-0.0161363,1.74806,-0.358281,-0.0650255,-1.54706,-0.00402765,-0.0172192,1.78943,-0.367562,-0.0662283,-0.0029384,-0.0328284,-0.147014,0.2,0.2,0,1.28,0,0,0,0.2,-0.2,0,1.28,0,0,0
gen_000029_tz+0.03_tx+0.01_ty-0.02_p-0.05_fx-0.02_fy+0.00,-0.241309,1.4714481,0.486419,0.998247,0.024308,0.0538624,0.00317986,-1.50585,-0.00375351,-0.0161305,1.73185,-0.333738,-0.0650053,-1.53812,-0.00430961,-0.0172027,1.77316,-0.342764,-0.066207,-0.00249371,-0.0328159,-0.129545,0.2,0.2,0,1.28,0,0,0,0.2,-0.2,0,1.28,0,0,0,-1.50585,-0.00375351,-0.0161305,1.73185,-0.333738,-0.0650053,-1.53812,-0.00430961,-0.0172027,1.77316,-0.342764,-0.066207,-0.00249371,-0.0328159,-0.129545,0.2,0.2,0,1.28,0,0,0,0.2,-0.2,0,1.28,0,0,0
gen_000030_tz+0.03_tx+0.01_ty-0.02_p-0.05_fx-0.01_fy+0.00,-0.24052,1.4714519,0.486393,0.998675,0.0243042,0.0452491,0.00303381,-1.4963,-0.00400764,-0.0161355,1.7149,-0.309102,-0.0649862,-1.52874,-0.00457589,-0.0171971,1.75616,-0.317897,-0.0661868,-0.00205193,-0.0327875,-0.112303,0.2,0.2,0,1.28,0,0,0,0.2,-0.2,0,1.28,0,0,0,-1.4963,-0.00400764,-0.0161355,1.7149,-0.309102,-0.0649862,-1.52874,-0.00457589,-0.0171971,1.75616,-0.317897,-0.0661868,-0.00205193,-0.0327875,-0.112303,0.2,0.2,0,1.28,0,0,0,0.2,-0.2,0,1.28,0,0,0
gen_000031_tz+0.03_tx+0.01_ty-0.02_p-0.05_fx+0.00_fy+0.00,-0.23974,1.4714548,0.48638,0.999025,0.0242941,0.0367418,0.00288798,-1.48633,-0.00424684,-0.0161528,1.69723,-0.284378,-0.0649685,-1.51893,-0.00482656,-0.0172041,1.73844,-0.292964,-0.0661678,-0.00161311,-0.0327427,-0.0952811,0.2,0.2,0,1.28,0,0,0,0.2,-0.2,0,1.28,0,0,0,-1.48633,-0.00424684,-0.0161528,1.69723,-0.284378,-0.0649685,-1.51893,-0.00482656,-0.0172041,1.73844,-0.292964,-0.0661678,-0.00161311,-0.0327427,-0.0952811,0.2,0.2,0,1.28,0,0,0,0.2,-0.2,0,1.28,0,0,0
gen_000032_tz+0.03_tx+0.01_ty-0.02_p-0.05_fx+0.01_fy+0.00,-0.238968,1.4714567,0.486378,0.9993,0.0242771,0.0283375,0.00274226,-1.47593,-0.00447107,-0.0161841,1.67883,-0.259571,-0.0649528,-1.50868,-0.00506165,-0.0172255,1.72,-0.267971,-0.0661505,-0.0011773,-0.0326808,-0.0784712,0.2,0.2,0,1.28,0,0,0,0.2,-0.2,0,1.28,0,0,0,-1.47593,-0.00447107,-0.0161841,1.67883,-0.259571,-0.0649528,-1.50868,-0.00506165,-0.0172255,1.72,-0.267971,-0.0661505,-0.0011773,-0.0326808,-0.0784712,0.2,0.2,0,1.28,0,0,0,0.2,-0.2,0,1.28,0,0,0
gen_000033_tz+0.03_tx+0.01_ty-0.02_p-0.05_fx+0.02_fy+0.00,-0.238205,1.4714578,0.486388,0.999502,0.0242542,0.0200343,0.002596,-1.46509,-0.00467888,-0.0162279,1.6597,-0.234681,-0.0649387,-1.49797,-0.00527969,-0.0172597,1.70084,-0.242917,-0.0661346,-0.000743471,-0.0326037,-0.0618679,0.2,0.2,0,1.28,0,0,0,0.2,-0.2,0,1.28,0,0,0,-1.46509,-0.00467888,-0.0162279,1.6597,-0.234681,-0.0649387,-1.49797,-0.00527969,-0.0172597,1.70084,-0.242917,-0.0661346,-0.000743471,-0.0326037,-0.0618679,0.2,0.2,0,1.28,0,0,0,0.2,-0.2,0,1.28,0,0,0
gen_000034_tz+0.03_tx+0.01_ty-0.02_p-0.05_fx+0.03_fy+0.00,-0.237449,1.4714583,0.486409,0.999633,0.0242289,0.0118253,0.00244745,-1.45379,-0.00486655,-0.0162762,1.63985,-0.209713,-0.0649241,-1.48679,-0.00547683,-0.0172989,1.68096,-0.217805,-0.0661183,-0.000308353,-0.0325183,-0.0454567,0.2,0.2,0,1.28,0,0,0,0.2,-0.2,0,1.28,0,0,0,-1.45379,-0.00486655,-0.0162762,1.63985,-0.209713,-0.0649241,-1.48679,-0.00547683,-0.0172989,1.68096,-0.217805,-0.0661183,-0.000308353,-0.0325183,-0.0454567,0.2,0.2,0,1.28,0,0,0,0.2,-0.2,0,1.28,0,0,0
gen_000035_tz+0.03_tx+0.02_ty-0.02_p-0.05_fx-0.03_fy+0.00,-0.232913,1.4714376,0.486511,0.997144,0.024297,0.0714195,0.00347301,-1.52373,-0.00320084,-0.0161523,1.76355,-0.382726,-0.0650467,-1.55559,-0.0037304,-0.017246,1.80498,-0.392284,-0.0662503,-0.00338623,-0.0328247,-0.164717,0.2,0.2,0,1.28,0,0,0,0.2,-0.2,0,1.28,0,0,0,-1.52373,-0.00320084,-0.0161523,1.76355,-0.382726,-0.0650467,-1.55559,-0.0037304,-0.017246,1.80498,-0.392284,-0.0662503,-0.00338623,-0.0328247,-0.164717,0.2,0.2,0,1.28,0,0,0,0.2,-0.2,0,1.28,0,0,0
gen_000036_tz+0.03_tx+0.02_ty-0.02_p-0.05_fx-0.02_fy+0.00,-0.232107,1.4714433,0.486458,0.997738,0.0243056,0.0625853,0.00332617,-1.51499,-0.00348442,-0.0161363,1.74806,-0.358281,-0.0650255,-1.54706,-0.00402764,-0.0172191,1.78943,-0.367562,-0.0662282,-0.0029384,-0.0328284,-0.147014,0.2,0.2,0,1.28,0,0,0,0.2,-0.2,0,1.28,0,0,0,-1.51499,-0.00348442,-0.0161363,1.74806,-0.358281,-0.0650255,-1.54706,-0.00402764,-0.0172191,1.78943,-0.367562,-0.0662282,-0.0029384,-0.0328284,-0.147014,0.2,0.2,0,1.28,0,0,0,0.2,-0.2,0,1.28,0,0,0
gen_000037_tz+0.03_tx+0.02_ty-0.02_p-0.05_fx-0.01_fy+0.00,-0.231309,1.4714481,0.486419,0.998247,0.024308,0.0538625,0.00317986,-1.50585,-0.0037535,-0.0161305,1.73185,-0.333738,-0.0650053,-1.53812,-0.00430961,-0.0172026,1.77316,-0.342764,-0.066207,-0.00249371,-0.0328159,-0.129545,0.2,0.2,0,1.28,0,0,0,0.2,-0.2,0,1.28,0,0,0,-1.50585,-0.0037535,-0.0161305,1.73185,-0.333738,-0.0650053,-1.53812,-0.00430961,-0.0172026,1.77316,-0.342764,-0.066207,-0.00249371,-0.0328159,-0.129545,0.2,0.2,0,1.28,0,0,0,0.2,-0.2,0,1.28,0,0,0
gen_000038_tz+0.03_tx+0.02_ty-0.02_p-0.05_fx+0.00_fy+0.00,-0.23052,1.4714519,0.486393,0.998675,0.0243042,0.0452492,0.00303382,-1.4963,-0.00400764,-0.0161355,1.7149,-0.309102,-0.0649862,-1.52875,-0.00457589,-0.0171971,1.75616,-0.317896,-0.0661868,-0.00205193,-0.0327875,-0.112303,0.2,0.2,0,1.28,0,0,0,0.2,-0.2,0,1.28,0,0,0,-1.4963,-0.00400764,-0.0161355,1.7149,-0.309102,-0.0649862,-1.52875,-0.00457589,-0.0171971,1.75616,-0.317896,-0.0661868,-0.00205193,-0.0327875,-0.112303,0.2,0.2,0,1.28,0,0,0,0.2,-0.2,0,1.28,0,0,0
gen_000039_tz+0.03_tx+0.02_ty-0.02_p-0.05_fx+0.01_fy+0.00,-0.22974,1.4714548,0.48638,0.999025,0.024294,0.0367419,0.00288798,-1.48633,-0.00424684,-0.0161529,1.69723,-0.284378,-0.0649686,-1.51894,-0.00482656,-0.0172042,1.73844,-0.292964,-0.0661678,-0.00161311,-0.0327426,-0.0952813,0.2,0.2,0,1.28,0,0,0,0.2,-0.2,0,1.28,0,0,0,-1.48633,-0.00424684,-0.0161529,1.69723,-0.284378,-0.0649686,-1.51894,-0.00482656,-0.0172042,1.73844,-0.292964,-0.0661678,-0.00161311,-0.0327426,-0.0952813,0.2,0.2,0,1.28,0,0,0,0.2,-0.2,0,1.28,0,0,0
gen_000040_tz+0.03_tx+0.02_ty-0.02_p-0.05_fx+0.02_fy+0.00,-0.228968,1.4714567,0.486378,0.9993,0.024277,0.0283376,0.00274226,-1.47593,-0.00447107,-0.0161843,1.67883,-0.259571,-0.0649529,-1.50868,-0.00506165,-0.0172257,1.72,-0.267971,-0.0661506,-0.0011773,-0.0326806,-0.0784714,0.2,0.2,0,1.28,0,0,0,0.2,-0.2,0,1.28,0,0,0,-1.47593,-0.00447107,-0.0161843,1.67883,-0.259571,-0.0649529,-1.50868,-0.00506165,-0.0172257,1.72,-0.267971,-0.0661506,-0.0011773,-0.0326806,-0.0784714,0.2,0.2,0,1.28,0,0,0,0.2,-0.2,0,1.28,0,0,0
gen_000041_tz+0.03_tx+0.02_ty-0.02_p-0.05_fx+0.03_fy+0.00,-0.228205,1.4714578,0.486388,0.999502,0.0242542,0.0200344,0.00259599,-1.46509,-0.00467887,-0.0162282,1.6597,-0.234681,-0.0649387,-1.49797,-0.00527969,-0.0172599,1.70084,-0.242917,-0.0661347,-0.00074346,-0.0326035,-0.0618683,0.2,0.2,0,1.28,0,0,0,0.2,-0.2,0,1.28,0,0,0,-1.46509,-0.00467887,-0.0162282,1.6597,-0.234681,-0.0649387,-1.49797,-0.00527969,-0.0172599,1.70084,-0.242917,-0.0661347,-0.00074346,-0.0326035,-0.0618683,0.2,0.2,0,1.28,0,0,0,0.2,-0.2,0,1.28,0,0,0
gen_000042_tz+0.03_tx+0.03_ty-0.02_p-0.05_fx-0.03_fy+0.00,-0.223728,1.4714309,0.486578,0.996463,0.0242818,0.0803651,0.00362066,-1.53207,-0.00290337,-0.0161785,1.7783,-0.407067,-0.0650689,-1.5637,-0.00341849,-0.0172832,1.8198,-0.416925,-0.0662731,-0.00383745,-0.032804,-0.182655,0.2,0.2,0,1.28,0,0,0,0.2,-0.2,0,1.28,0,0,0,-1.53207,-0.00290337,-0.0161785,1.7783,-0.407067,-0.0650689,-1.5637,-0.00341849,-0.0172832,1.8198,-0.416925,-0.0662731,-0.00383745,-0.032804,-0.182655,0.2,0.2,0,1.28,0,0,0,0.2,-0.2,0,1.28,0,0,0
gen_000043_tz+0.03_tx+0.03_ty-0.02_p-0.05_fx-0.02_fy+0.00,-0.222913,1.4714376,0.486511,0.997144,0.0242968,0.0714186,0.00347309,-1.52373,-0.00320106,-0.0161527,1.76355,-0.382727,-0.0650468,-1.55559,-0.00373063,-0.0172465,1.80498,-0.392285,-0.0662504,-0.00338635,-0.0328244,-0.164715,0.2,0.2,0,1.28,0,0,0,0.2,-0.2,0,1.28,0,0,0,-1.52373,-0.00320106,-0.0161527,1.76355,-0.382727,-0.0650468,-1.55559,-0.00373063,-0.0172465,1.80498,-0.392285,-0.0662504,-0.00338635,-0.0328244,-0.164715,0.2,0.2,0,1.28,0,0,0,0.2,-0.2,0,1.28,0,0,0
gen_000044_tz+0.03_tx+0.03_ty-0.02_p-0.05_fx-0.01_fy+0.00,-0.222107,1.4714433,0.486458,0.997738,0.0243056,0.0625854,0.00332617,-1.51499,-0.00348442,-0.0161363,1.74806,-0.358281,-0.0650255,-1.54706,-0.00402764,-0.0172191,1.78943,-0.367561,-0.0662282,-0.0029384,-0.0328284,-0.147014,0.2,0.2,0,1.28,0,0,0,0.2,-0.2,0,1.28,0,0,0,-1.51499,-0.00348442,-0.0161363,1.74806,-0.358281,-0.0650255,-1.54706,-0.00402764,-0.0172191,1.78943,-0.367561,-0.0662282,-0.0029384,-0.0328284,-0.147014,0.2,0.2,0,1.28,0,0,0,0.2,-0.2,0,1.28,0,0,0
gen_000045_tz+0.03_tx+0.03_ty-0.02_p-0.05_fx+0.00_fy+0.00,-0.221309,1.4714481,0.486419,0.998247,0.024308,0.0538626,0.00317986,-1.50585,-0.0037535,-0.0161305,1.73185,-0.333738,-0.0650053,-1.53812,-0.00430961,-0.0172027,1.77316,-0.342764,-0.066207,-0.00249371,-0.0328159,-0.129545,0.2,0.2,0,1.28,0,0,0,0.2,-0.2,0,1.28,0,0,0,-1.50585,-0.0037535,-0.0161305,1.73185,-0.333738,-0.0650053,-1.53812,-0.00430961,-0.0172027,1.77316,-0.342764,-0.066207,-0.00249371,-0.0328159,-0.129545,0.2,0.2,0,1.28,0,0,0,0.2,-0.2,0,1.28,0,0,0
gen_000046_tz+0.03_tx+0.03_ty-0.02_p-0.05_fx+0.01_fy+0.00,-0.22052,1.4714519,0.486393,0.998675,0.0243042,0.0452492,0.00303382,-1.4963,-0.00400764,-0.0161356,1.7149,-0.309102,-0.0649862,-1.52875,-0.00457589,-0.0171972,1.75616,-0.317896,-0.0661868,-0.00205193,-0.0327874,-0.112303,0.2,0.2,0,1.28,0,0,0,0.2,-0.2,0,1.28,0,0,0,-1.4963,-0.00400764,-0.0161356,1.7149,-0.309102,-0.0649862,-1.52875,-0.00457589,-0.0171972,1.75616,-0.317896,-0.0661868,-0.00205193,-0.0327874,-0.112303,0.2,0.2,0,1.28,0,0,0,0.2,-0.2,0,1.28,0,0,0
gen_000047_tz+0.03_tx+0.03_ty-0.02_p-0.05_fx+0.02_fy+0.00,-0.21974,1.4714548,0.48638,0.999025,0.024294,0.0367419,0.00288798,-1.48633,-0.00424684,-0.016153,1.69723,-0.284378,-0.0649686,-1.51894,-0.00482657,-0.0172043,1.73844,-0.292964,-0.0661678,-0.00161311,-0.0327425,-0.0952814,0.2,0.2,0,1.28,0,0,0,0.2,-0.2,0,1.28,0,0,0,-1.48633,-0.00424684,-0.016153,1.69723,-0.284378,-0.0649686,-1.51894,-0.00482657,-0.0172043,1.73844,-0.292964,-0.0661678,-0.00161311,-0.0327425,-0.0952814,0.2,0.2,0,1.28,0,0,0,0.2,-0.2,0,1.28,0,0,0
gen_000048_tz+0.03_tx+0.03_ty-0.02_p-0.05_fx+0.03_fy+0.00,-0.218968,1.4714567,0.486378,0.9993,0.0242769,0.0283377,0.00274225,-1.47593,-0.00447106,-0.0161845,1.67883,-0.259571,-0.0649529,-1.50868,-0.00506165,-0.0172259,1.72,-0.267971,-0.0661506,-0.00117729,-0.0326805,-0.0784716,0.2,0.2,0,1.28,0,0,0,0.2,-0.2,0,1.28,0,0,0,-1.47593,-0.00447106,-0.0161845,1.67883,-0.259571,-0.0649529,-1.50868,-0.00506165,-0.0172259,1.72,-0.267971,-0.0661506,-0.00117729,-0.0326805,-0.0784716,0.2,0.2,0,1.28,0,0,0,0.2,-0.2,0,1.28,0,0,0
gen_000049_tz+0.03_tx-0.03_ty-0.01_p-0.05_fx-0.03_fy+0.00,-0.278954,1.4807025,0.48635,0.999473,0.0159028,0.0281878,0.0025922,-1.48281,-0.00465033,-0.0121753,1.68738,-0.260896,-0.0442343,-1.50403,-0.00493095,-0.0125976,1.71533,-0.26761,-0.0447584,-0.000406457,-0.0159591,-0.078187,0.2,0.2,0,1.28,0,0,0,0.2,-0.2,0,1.28,0,0,0,-1.48281,-0.00465033,-0.0121753,1.68738,-0.260896,-0.0442343,-1.50403,-0.00493095,-0.0125976,1.71533,-0.26761,-0.0447584,-0.000406457,-0.0159591,-0.078187,0.2,0.2,0,1.28,0,0,0,0.2,-0.2,0,1.28,0,0,0
gen_000050_tz+0.03_tx-0.03_ty-0.01_p-0.05_fx-0.02_fy+0.00,-0.278191,1.4807034,0.48636,0.999673,0.0158866,0.0198816,0.00248481,-1.47198,-0.00477397,-0.0122078,1.66824,-0.235979,-0.0442224,-1.49331,-0.00505945,-0.0126259,1.69617,-0.242565,-0.0447456,-0.000189625,-0.0158882,-0.0615856,0.2,0.2,0,1.28,0,0,0,0.2,-0.2,0,1.28,0,0,0,-1.47198,-0.00477397,-0.0122078,1.66824,-0.235979,-0.0442224,-1.49331,-0.00505945,-0.0126259,1.69617,-0.242565,-0.0447456,-0.000189625,-0.0158882,-0.0615856,0.2,0.2,0,1.28,0,0,0,0.2,-0.2,0,1.28,0,0,0
gen_000051_tz+0.03_tx-0.03_ty-0.01_p-0.05_fx-0.01_fy+0.00,-0.277435,1.480704,0.486381,0.999803,0.0158707,0.0116773,0.00237601,-1.46072,-0.00488296,-0.0122389,1.64838,-0.210982,-0.044209,-1.48215,-0.00517288,-0.012653,1.6763,-0.217453,-0.0447313,2.84541e-05,-0.0158171,-0.0451914,0.2,0.2,0,1.28,0,0,0,0.2,-0.2,0,1.28,0,0,0,-1.46072,-0.00488296,-0.0122389,1.64838,-0.210982,-0.044209,-1.48215,-0.00517288,-0.012653,1.6763,-0.217453,-0.0447313,2.84541e-05,-0.0158171,-0.0451914,0.2,0.2,0,1.28,0,0,0,0.2,-0.2,0,1.28,0,0,0
gen_000052_tz+0.03_tx-0.03_ty-0.01_p-0.05_fx+0.00_fy+0.00,-0.276686,1.4807045,0.486413,0.999865,0.015856,0.00354938,0.00226481,-1.44894,-0.00497593,-0.0122667,1.62779,-0.185925,-0.0441938,-1.47047,-0.00526987,-0.0126772,1.65571,-0.192294,-0.044715,0.000249798,-0.0157474,-0.0289518,0.2,0.2,0,1.28,0,0,0,0.2,-0.2,0,1.28,0,0,0,-1.44894,-0.00497593,-0.0122667,1.62779,-0.185925,-0.0441938,-1.47047,-0.00526987,-0.0126772,1.65571,-0.192294,-0.044715,0.000249798,-0.0157474,-0.0289518,0.2,0.2,0,1.28,0,0,0,0.2,-0.2,0,1.28,0,0,0
gen_000053_tz+0.03_tx-0.03_ty-0.01_p-0.05_fx+0.01_fy+0.00,-0.275943,1.4807043,0.486456,0.999862,0.0158358,-0.00450406,0.00215356,-1.43666,-0.00505847,-0.012309,1.60649,-0.160802,-0.0441809,-1.45828,-0.00535627,-0.012716,1.63441,-0.167085,-0.044701,0.000469759,-0.0156656,-0.0128624,0.2,0.2,0,1.28,0,0,0,0.2,-0.2,0,1.28,0,0,0,-1.43666,-0.00505847,-0.012309,1.60649,-0.160802,-0.0441809,-1.45828,-0.00535627,-0.012716,1.63441,-0.167085,-0.044701,0.000469759,-0.0156656,-0.0128624,0.2,0.2,0,1.28,0,0,0,0.2,-0.2,0,1.28,0,0,0
gen_000054_tz+0.03_tx-0.03_ty-0.01_p-0.05_fx+0.02_fy+0.00,-0.275206,1.4807035,0.486508,0.999795,0.0158114,-0.0124876,0.00204156,-1.42386,-0.005129,-0.0123627,1.58446,-0.13561,-0.0441696,-1.44557,-0.00543045,-0.0127666,1.61239,-0.141822,-0.0446887,0.000689538,-0.0155741,0.00308706,0.2,0.2,0,1.28,0,0,0,0.2,-0.2,0,1.28,0,0,0,-1.42386,-0.005129,-0.0123627,1.58446,-0.13561,-0.0441696,-1.44557,-0.00543045,-0.0127666,1.61239,-0.141822,-0.0446887,0.000689538,-0.0155741,0.00308706,0.2,0.2,0,1.28,0,0,0,0.2,-0.2,0,1.28,0,0,0
gen_000055_tz+0.03_tx-0.03_ty-0.01_p-0.05_fx+0.03_fy+0.00,-0.274473,1.4807022,0.48657,0.999665,0.0157833,-0.0204103,0.00192822,-1.41052,-0.00518633,-0.0124267,1.56169,-0.11035,-0.0441599,-1.4323,-0.00549125,-0.0128277,1.58965,-0.116506,-0.0446778,0.000910179,-0.0154741,0.0189157,0.2,0.2,0,1.28,0,0,0,0.2,-0.2,0,1.28,0,0,0,-1.41052,-0.00518633,-0.0124267,1.56169,-0.11035,-0.0441599,-1.4323,-0.00549125,-0.0128277,1.58965,-0.116506,-0.0446778,0.000910179,-0.0154741,0.0189157,0.2,0.2,0,1.28,0,0,0,0.2,-0.2,0,1.28,0,0,0
gen_000056_tz+0.03_tx-0.02_ty-0.01_p-0.05_fx-0.03_fy+0.00,-0.269726,1.480701,0.486351,0.9992,0.0159137,0.0365955,0.00270043,-1.49319,-0.00451749,-0.0121556,1.70578,-0.285732,-0.0442481,-1.5143,-0.00479302,-0.0125823,1.73376,-0.292593,-0.0447731,-0.000626233,-0.0160184,-0.0949961,0.2,0.2,0,1.28,0,0,0,0.2,-0.2,0,1.28,0,0,0,-1.49319,-0.00451749,-0.0121556,1.70578,-0.285732,-0.0442481,-1.5143,-0.00479302,-0.0125823,1.73376,-0.292593,-0.0447731,-0.000626233,-0.0160184,-0.0949961,0.2,0.2,0,1.28,0,0,0,0.2,-0.2,0,1.28,0,0,0
gen_000057_tz+0.03_tx-0.02_ty-0.01_p-0.05_fx-0.02_fy+0.00,-0.268954,1.4807026,0.48635,0.999473,0.0159029,0.028188,0.00259221,-1.48281,-0.00465033,-0.0121752,1.68738,-0.260895,-0.0442343,-1.50403,-0.00493095,-0.0125975,1.71533,-0.26761,-0.0447584,-0.000406472,-0.0159592,-0.0781875,0.2,0.2,0,1.28,0,0,0,0.2,-0.2,0,1.28,0,0,0,-1.48281,-0.00465033,-0.0121752,1.68738,-0.260895,-0.0442343,-1.50403,-0.00493095,-0.0125975,1.71533,-0.26761,-0.0447584,-0.000406472,-0.0159592,-0.0781875,0.2,0.2,0,1.28,0,0,0,0.2,-0.2,0,1.28,0,0,0
gen_000058_tz+0.03_tx-0.02_ty-0.01_p-0.05_fx-0.01_fy+0.00,-0.268191,1.4807033,0.48636,0.999673,0.015886,0.0198814,0.00248508,-1.47198,-0.00477459,-0.0122095,1.66824,-0.23598,-0.0442228,-1.49331,-0.00506009,-0.0126275,1.69617,-0.242566,-0.044746,-0.000190127,-0.0158869,-0.0615853,0.2,0.2,0,1.28,0,0,0,0.2,-0.2,0,1.28,0,0,0,-1.47198,-0.00477459,-0.0122095,1.66824,-0.23598,-0.0442228,-1.49331,-0.00506009,-0.0126275,1.69617,-0.242566,-0.044746,-0.000190127,-0.0158869,-0.0615853,0.2,0.2,0,1.28,0,0,0,0.2,-0.2,0,1.28,0,0,0
gen_000059_tz+0.03_tx-0.02_ty-0.01_p-0.05_fx+0.00_fy+0.00,-0.267435,1.480704,0.486381,0.999803,0.0158708,0.0116777,0.00237602,-1.46072,-0.00488295,-0.0122387,1.64838,-0.210982,-0.044209,-1.48215,-0.00517287,-0.0126529,1.67629,-0.217453,-0.0447312,2.84396e-05,-0.0158172,-0.0451921,0.2,0.2,0,1.28,0,0,0,0.2,-0.2,0,1.28,0,0,0,-1.46072,-0.00488295,-0.0122387,1.64838,-0.210982,-0.044209,-1.48215,-0.00517287,-0.0126529,1.67629,-0.217453,-0.0447312,2.84396e-05,-0.0158172,-0.0451921,0.2,0.2,0,1.28,0,0,0,0.2,-0.2,0,1.28,0,0,0
gen_000060_tz+0.03_tx-0.02_ty-0.01_p-0.05_fx+0.01_fy+0.00,-0.266686,1.4807045,0.486413,0.999865,0.0158561,0.00354954,0.00226482,-1.44894,-0.00497593,-0.0122666,1.62779,-0.185925,-0.0441937,-1.47047,-0.00526987,-0.0126771,1.65571,-0.192293,-0.044715,0.000249795,-0.0157474,-0.0289522,0.2,0.2,0,1.28,0,0,0,0.2,-0.2,0,1.28,0,0,0,-1.44894,-0.00497593,-0.0122666,1.62779,-0.185925,-0.0441937,-1.47047,-0.00526987,-0.0126771,1.65571,-0.192293,-0.044715,0.000249795,-0.0157474,-0.0289522,0.2,0.2,0,1.28,0,0,0,0.2,-0.2,0,1.28,0,0,0
gen_000061_tz+0.03_tx-0.02_ty-0.01_p-0.05_fx+0.02_fy+0.00,-0.265943,1.4807043,0.486456,0.999862,0.0158358,-0.00450395,0.00215356,-1.43666,-0.00505847,-0.012309,1.60649,-0.160802,-0.0441809,-1.45828,-0.00535626,-0.012716,1.63441,-0.167084,-0.0447011,0.000469759,-0.0156656,-0.0128627,0.2,0.2,0,1.28,0,0,0,0.2,-0.2,0,1.28,0,0,0,-1.43666,-0.00505847,-0.012309,1.60649,-0.160802,-0.0441809,-1.45828,-0.00535626,-0.012716,1.63441,-0.167084,-0.0447011,0.000469759,-0.0156656,-0.0128627,0.2,0.2,0,1.28,0,0,0,0.2,-0.2,0,1.28,0,0,0
gen_000062_tz+0.03_tx-0.02_ty-0.01_p-0.05_fx+0.03_fy+0.00,-0.265206,1.4807035,0.486508,0.999795,0.0158114,-0.0124875,0.00204156,-1.42386,-0.00512899,-0.0123627,1.58445,-0.13561,-0.0441696,-1.44557,-0.00543045,-0.0127666,1.61239,-0.141822,-0.0446887,0.000689539,-0.0155741,0.00308686,0.2,0.2,0,1.28,0,0,0,0.2,-0.2,0,1.28,0,0,0,-1.42386,-0.00512899,-0.0123627,1.58445,-0.13561,-0.0441696,-1.44557,-0.00543045,-0.0127666,1.61239,-0.141822,-0.0446887,0.000689539,-0.0155741,0.00308686,0.2,0.2,0,1.28,0,0,0,0.2,-0.2,0,1.28,0,0,0
gen_000063_tz+0.03_tx-0.01_ty-0.01_p-0.05_fx-0.03_fy+0.00,-0.260507,1.4806988,0.486364,0.998851,0.0159204,0.0451059,0.00280922,-1.50314,-0.0043747,-0.012145,1.72346,-0.31049,-0.044263,-1.52412,-0.00464484,-0.0125762,1.75148,-0.317512,-0.0447888,-0.000848268,-0.0160684,-0.112017,0.2,0.2,0,1.28,0,0,0,0.2,-0.2,0,1.28,0,0,0,-1.50314,-0.0043747,-0.012145,1.72346,-0.31049,-0.044263,-1.52412,-0.00464484,-0.0125762,1.75148,-0.317512,-0.0447888,-0.000848268,-0.0160684,-0.112017,0.2,0.2,0,1.28,0,0,0,0.2,-0.2,0,1.28,0,0,0
gen_000064_tz+0.03_tx-0.01_ty-0.01_p-0.05_fx-0.02_fy+0.00,-0.259726,1.480701,0.486351,0.9992,0.0159137,0.0365957,0.00270044,-1.49319,-0.00451748,-0.0121555,1.70578,-0.285732,-0.0442481,-1.5143,-0.00479301,-0.0125822,1.73376,-0.292592,-0.0447731,-0.000626241,-0.0160184,-0.0949965,0.2,0.2,0,1.28,0,0,0,0.2,-0.2,0,1.28,0,0,0,-1.49319,-0.00451748,-0.0121555,1.70578,-0.285732,-0.0442481,-1.5143,-0.00479301,-0.0125822,1.73376,-0.292592,-0.0447731,-0.000626241,-0.0160184,-0.0949965,0.2,0.2,0,1.28,0,0,0,0.2,-0.2,0,1.28,0,0,0
gen_000065_tz+0.03_tx-0.01_ty-0.01_p-0.05_fx-0.01_fy+0.00,-0.258954,1.4807025,0.48635,0.999473,0.0159026,0.0281873,0.00259235,-1.48281,-0.00465068,-0.012176,1.68738,-0.260896,-0.0442345,-1.50403,-0.00493131,-0.0125984,1.71533,-0.267611,-0.0447586,-0.000406735,-0.0159585,-0.0781862,0.2,0.2,0,1.28,0,0,0,0.2,-0.2,0,1.28,0,0,0,-1.48281,-0.00465068,-0.012176,1.68738,-0.260896,-0.0442345,-1.50403,-0.00493131,-0.0125984,1.71533,-0.267611,-0.0447586,-0.000406735,-0.0159585,-0.0781862,0.2,0.2,0,1.28,0,0,0,0.2,-0.2,0,1.28,0,0,0
gen_000066_tz+0.03_tx-0.01_ty-0.01_p-0.05_fx+0.00_fy+0.00,-0.258191,1.4807033,0.48636,0.999673,0.015886,0.0198818,0.00248508,-1.47199,-0.00477458,-0.0122093,1.66824,-0.235979,-0.0442228,-1.49332,-0.00506008,-0.0126274,1.69617,-0.242565,-0.0447459,-0.000190137,-0.015887,-0.0615861,0.2,0.2,0,1.28,0,0,0,0.2,-0.2,0,1.28,0,0,0,-1.47199,-0.00477458,-0.0122093,1.66824,-0.235979,-0.0442228,-1.49332,-0.00506008,-0.0126274,1.69617,-0.242565,-0.0447459,-0.000190137,-0.015887,-0.0615861,0.2,0.2,0,1.28,0,0,0,0.2,-0.2,0,1.28,0,0,0
gen_000067_tz+0.03_tx-0.01_ty-0.01_p-0.05_fx+0.01_fy+0.00,-0.257435,1.480704,0.486381,0.999803,0.0158708,0.011678,0.00237602,-1.46072,-0.00488294,-0.0122387,1.64838,-0.210982,-0.044209,-1.48215,-0.00517287,-0.0126528,1.67629,-0.217452,-0.0447312,2.84339e-05,-0.0158172,-0.0451928,0.2,0.2,0,1.28,0,0,0,0.2,-0.2,0,1.28,0,0,0,-1.46072,-0.00488294,-0.0122387,1.64838,-0.210982,-0.044209,-1.48215,-0.00517287,-0.0126528,1.67629,-0.217452,-0.0447312,2.84339e-05,-0.0158172,-0.0451928,0.2,0.2,0,1.28,0,0,0,0.2,-0.2,0,1.28,0,0,0
gen_000068_tz+0.03_tx-0.01_ty-0.01_p-0.05_fx+0.02_fy+0.00,-0.256686,1.4807045,0.486413,0.999865,0.015856,0.00354973,0.00226482,-1.44894,-0.00497592,-0.0122667,1.62779,-0.185925,-0.0441938,-1.47047,-0.00526987,-0.0126772,1.65571,-0.192293,-0.044715,0.000249794,-0.0157474,-0.0289525,0.2,0.2,0,1.28,0,0,0,0.2,-0.2,0,1.28,0,0,0,-1.44894,-0.00497592,-0.0122667,1.62779,-0.185925,-0.0441938,-1.47047,-0.00526987,-0.0126772,1.65571,-0.192293,-0.044715,0.000249794,-0.0157474,-0.0289525,0.2,0.2,0,1.28,0,0,0,0.2,-0.2,0,1.28,0,0,0
gen_000069_tz+0.03_tx-0.01_ty-0.01_p-0.05_fx+0.03_fy+0.00,-0.255943,1.4807043,0.486456,0.999862,0.0158358,-0.00450381,0.00215356,-1.43666,-0.00505847,-0.012309,1.60649,-0.160802,-0.0441809,-1.45828,-0.00535626,-0.0127161,1.63441,-0.167084,-0.0447011,0.000469761,-0.0156655,-0.0128629,0.2,0.2,0,1.28,0,0,0,0.2,-0.2,0,1.28,0,0,0,-1.43666,-0.00505847,-0.012309,1.60649,-0.160802,-0.0441809,-1.45828,-0.00535626,-0.0127161,1.63441,-0.167084,-0.0447011,0.000469761,-0.0156655,-0.0128629,0.2,0.2,0,1.28,0,0,0,0.2,-0.2,0,1.28,0,0,0
gen_000070_tz+0.03_tx+0.00_ty-0.01_p-0.05_fx-0.03_fy+0.00,-0.251296,1.480696,0.48639,0.998425,0.0159236,0.053724,0.00291849,-1.51267,-0.00422159,-0.0121414,1.74042,-0.335163,-0.0442785,-1.53352,-0.00448601,-0.0125773,1.76847,-0.342363,-0.0448049,-0.00107231,-0.0161104,-0.12926,0.2,0.2,0,1.28,0,0,0,0.2,-0.2,0,1.28,0,0,0,-1.51267,-0.00422159,-0.0121414,1.74042,-0.335163,-0.0442785,-1.53352,-0.00448601,-0.0125773,1.76847,-0.342363,-0.0448049,-0.00107231,-0.0161104,-0.12926,0.2,0.2,0,1.28,0,0,0,0.2,-0.2,0,1.28,0,0,0
gen_000071_tz+0.03_tx+0.00_ty-0.01_p-0.05_fx-0.02_fy+0.00,-0.250507,1.4806988,0.486364,0.998851,0.0159204,0.0451061,0.00280922,-1.50315,-0.00437469,-0.012145,1.72346,-0.31049,-0.044263,-1.52412,-0.00464484,-0.0125762,1.75148,-0.317512,-0.0447887,-0.000848272,-0.0160684,-0.112017,0.2,0.2,0,1.28,0,0,0,0.2,-0.2,0,1.28,0,0,0,-1.50315,-0.00437469,-0.012145,1.72346,-0.31049,-0.044263,-1.52412,-0.00464484,-0.0125762,1.75148,-0.317512,-0.0447887,-0.000848272,-0.0160684,-0.112017,0.2,0.2,0,1.28,0,0,0,0.2,-0.2,0,1.28,0,0,0
gen_000072_tz+0.03_tx+0.00_ty-0.01_p-0.05_fx-0.01_fy+0.00,-0.249726,1.480701,0.486351,0.9992,0.0159135,0.0365949,0.00270052,-1.49319,-0.00451771,-0.0121561,1.70578,-0.285733,-0.0442482,-1.5143,-0.00479325,-0.0125827,1.73377,-0.292593,-0.0447732,-0.000626402,-0.016018,-0.0949949,0.2,0.2,0,1.28,0,0,0,0.2,-0.2,0,1.28,0,0,0,-1.49319,-0.00451771,-0.0121561,1.70578,-0.285733,-0.0442482,-1.5143,-0.00479325,-0.0125827,1.73377,-0.292593,-0.0447732,-0.000626402,-0.016018,-0.0949949,0.2,0.2,0,1.28,0,0,0,0.2,-0.2,0,1.28,0,0,0
gen_000073_tz+0.03_tx+0.00_ty-0.01_p-0.05_fx+0.00_fy+0.00,-0.248954,1.4807025,0.48635,0.999473,0.0159026,0.0281876,0.00259235,-1.48281,-0.00465067,-0.012176,1.68738,-0.260896,-0.0442345,-1.50403,-0.0049313,-0.0125983,1.71533,-0.267611,-0.0447586,-0.000406737,-0.0159586,-0.0781867,0.2,0.2,0,1.28,0,0,0,0.2,-0.2,0,1.28,0,0,0,-1.48281,-0.00465067,-0.012176,1.68738,-0.260896,-0.0442345,-1.50403,-0.0049313,-0.0125983,1.71533,-0.267611,-0.0447586,-0.000406737,-0.0159586,-0.0781867,0.2,0.2,0,1.28,0,0,0,0.2,-0.2,0,1.28,0,0,0
gen_000074_tz+0.03_tx+0.00_ty-0.01_p-0.05_fx+0.01_fy+0.00,-0.248191,1.4807033,0.48636,0.999673,0.015886,0.0198821,0.00248508,-1.47199,-0.00477457,-0.0122093,1.66824,-0.235979,-0.0442228,-1.49332,-0.00506007,-0.0126274,1.69617,-0.242565,-0.0447459,-0.000190142,-0.015887,-0.0615868,0.2,0.2,0,1.28,0,0,0,0.2,-0.2,0,1.28,0,0,0,-1.47199,-0.00477457,-0.0122093,1.66824,-0.235979,-0.0442228,-1.49332,-0.00506007,-0.0126274,1.69617,-0.242565,-0.0447459,-0.000190142,-0.015887,-0.0615868,0.2,0.2,0,1.28,0,0,0,0.2,-0.2,0,1.28,0,0,0
gen_000075_tz+0.03_tx+0.00_ty-0.01_p-0.05_fx+0.02_fy+0.00,-0.247435,1.480704,0.486381,0.999803,0.0158707,0.0116783,0.00237602,-1.46072,-0.00488294,-0.0122388,1.64838,-0.210981,-0.044209,-1.48215,-0.00517287,-0.012653,1.67629,-0.217452,-0.0447312,2.84342e-05,-0.0158171,-0.0451934,0.2,0.2,0,1.28,0,0,0,0.2,-0.2,0,1.28,0,0,0,-1.46072,-0.00488294,-0.0122388,1.64838,-0.210981,-0.044209,-1.48215,-0.00517287,-0.012653,1.67629,-0.217452,-0.0447312,2.84342e-05,-0.0158171,-0.0451934,0.2,0.2,0,1.28,0,0,0,0.2,-0.2,0,1.28,0,0,0
gen_000076_tz+0.03_tx+0.00_ty-0.01_p-0.05_fx+0.03_fy+0.00,-0.246686,1.4807046,0.486413,0.999865,0.0158564,0.00354903,0.00226464,-1.44894,-0.00497556,-0.0122658,1.62779,-0.185925,-0.0441935,-1.47047,-0.00526949,-0.0126763,1.65571,-0.192294,-0.0447148,0.000250135,-0.0157481,-0.0289511,0.2,0.2,0,1.28,0,0,0,0.2,-0.2,0,1.28,0,0,0,-1.44894,-0.00497556,-0.0122658,1.62779,-0.185925,-0.0441935,-1.47047,-0.00526949,-0.0126763,1.65571,-0.192294,-0.0447148,0.000250135,-0.0157481,-0.0289511,0.2,0.2,0,1.28,0,0,0,0.2,-0.2,0,1.28,0,0,0
gen_000077_tz+0.03_tx+0.01_ty-0.01_p-0.05_fx-0.03_fy+0.00,-0.242094,1.4806926,0.486429,0.997916,0.0159232,0.0624512,0.00302842,-1.52179,-0.00405855,-0.0121446,1.75664,-0.359748,-0.0442944,-1.54248,-0.0043169,-0.0125852,1.78474,-0.367141,-0.0448214,-0.00129862,-0.0161443,-0.14673,0.2,0.2,0,1.28,0,0,0,0.2,-0.2,0,1.28,0,0,0,-1.52179,-0.00405855,-0.0121446,1.75664,-0.359748,-0.0442944,-1.54248,-0.0043169,-0.0125852,1.78474,-0.367141,-0.0448214,-0.00129862,-0.0161443,-0.14673,0.2,0.2,0,1.28,0,0,0,0.2,-0.2,0,1.28,0,0,0
gen_000078_tz+0.03_tx+0.01_ty-0.01_p-0.05_fx-0.02_fy+0.00,-0.241296,1.480696,0.48639,0.998425,0.0159236,0.0537241,0.00291849,-1.51267,-0.00422159,-0.0121414,1.74042,-0.335163,-0.0442784,-1.53352,-0.00448601,-0.0125773,1.76847,-0.342362,-0.0448049,-0.00107232,-0.0161105,-0.12926,0.2,0.2,0,1.28,0,0,0,0.2,-0.2,0,1.28,0,0,0,-1.51267,-0.00422159,-0.0121414,1.74042,-0.335163,-0.0442784,-1.53352,-0.00448601,-0.0125773,1.76847,-0.342362,-0.0448049,-0.00107232,-0.0161105,-0.12926,0.2,0.2,0,1.28,0,0,0,0.2,-0.2,0,1.28,0,0,0
gen_000079_tz+0.03_tx+0.01_ty-0.01_p-0.05_fx-0.01_fy+0.00,-0.240507,1.4806988,0.486364,0.998851,0.0159204,0.0451062,0.00280922,-1.50315,-0.00437469,-0.012145,1.72346,-0.310489,-0.044263,-1.52413,-0.00464483,-0.0125762,1.75148,-0.317512,-0.0447887,-0.000848272,-0.0160684,-0.112017,0.2,0.2,0,1.28,0,0,0,0.2,-0.2,0,1.28,0,0,0,-1.50315,-0.00437469,-0.012145,1.72346,-0.310489,-0.044263,-1.52413,-0.00464483,-0.0125762,1.75148,-0.317512,-0.0447887,-0.000848272,-0.0160684,-0.112017,0.2,0.2,0,1.28,0,0,0,0.2,-0.2,0,1.28,0,0,0
gen_000080_tz+0.03_tx+0.01_ty-0.01_p-0.05_fx+0.00_fy+0.00,-0.239726,1.480701,0.486351,0.9992,0.0159135,0.036595,0.00270052,-1.49319,-0.00451771,-0.012156,1.70578,-0.285733,-0.0442482,-1.5143,-0.00479324,-0.0125827,1.73377,-0.292593,-0.0447732,-0.000626403,-0.016018,-0.0949952,0.2,0.2,0,1.28,0,0,0,0.2,-0.2,0,1.28,0,0,0,-1.49319,-0.00451771,-0.012156,1.70578,-0.285733,-0.0442482,-1.5143,-0.00479324,-0.0125827,1.73377,-0.292593,-0.0447732,-0.000626403,-0.016018,-0.0949952,0.2,0.2,0,1.28,0,0,0,0.2,-0.2,0,1.28,0,0,0
gen_000081_tz+0.03_tx+0.01_ty-0.01_p-0.05_fx+0.01_fy+0.00,-0.238954,1.4807025,0.48635,0.999473,0.0159026,0.0281877,0.00259235,-1.48281,-0.00465067,-0.012176,1.68738,-0.260895,-0.0442345,-1.50403,-0.0049313,-0.0125984,1.71533,-0.26761,-0.0447586,-0.000406739,-0.0159585,-0.078187,0.2,0.2,0,1.28,0,0,0,0.2,-0.2,0,1.28,0,0,0,-1.48281,-0.00465067,-0.012176,1.68738,-0.260895,-0.0442345,-1.50403,-0.0049313,-0.0125984,1.71533,-0.26761,-0.0447586,-0.000406739,-0.0159585,-0.078187,0.2,0.2,0,1.28,0,0,0,0.2,-0.2,0,1.28,0,0,0
gen_000082_tz+0.03_tx+0.01_ty-0.01_p-0.05_fx+0.02_fy+0.00,-0.238191,1.4807033,0.48636,0.999673,0.0158859,0.0198824,0.00248508,-1.47199,-0.00477458,-0.0122095,1.66824,-0.235979,-0.0442228,-1.49332,-0.00506008,-0.0126276,1.69617,-0.242565,-0.044746,-0.000190139,-0.0158869,-0.0615874,0.2,0.2,0,1.28,0,0,0,0.2,-0.2,0,1.28,0,0,0,-1.47199,-0.00477458,-0.0122095,1.66824,-0.235979,-0.0442228,-1.49332,-0.00506008,-0.0126276,1.69617,-0.242565,-0.044746,-0.000190139,-0.0158869,-0.0615874,0.2,0.2,0,1.28,0,0,0,0.2,-0.2,0,1.28,0,0,0
gen_000083_tz+0.03_tx+0.01_ty-0.01_p-0.05_fx+0.03_fy+0.00,-0.237435,1.4807041,0.486381,0.999803,0.0158714,0.0116781,0.00237575,-1.46072,-0.00488232,-0.0122372,1.64838,-0.210982,-0.0442086,-1.48215,-0.00517222,-0.0126514,1.67629,-0.217452,-0.0447309,2.89679e-05,-0.0158184,-0.0451929,0.2,0.2,0,1.28,0,0,0,0.2,-0.2,0,1.28,0,0,0,-1.46072,-0.00488232,-0.0122372,1.64838,-0.210982,-0.0442086,-1.48215,-0.00517222,-0.0126514,1.67629,-0.217452,-0.0447309,2.89679e-05,-0.0158184,-0.0451929,0.2,0.2,0,1.28,0,0,0,0.2,-0.2,0,1.28,0,0,0
gen_000084_tz+0.03_tx+0.02_ty-0.01_p-0.05_fx-0.03_fy+0.00,-0.232901,1.4806887,0.486482,0.997324,0.0159192,0.0712893,0.00313914,-1.5305,-0.00388581,-0.012154,1.77214,-0.38424,-0.0443107,-1.55103,-0.00413771,-0.0125995,1.80029,-0.391843,-0.0448383,-0.00152732,-0.0161698,-0.164432,0.2,0.2,0,1.28,0,0,0,0.2,-0.2,0,1.28,0,0,0,-1.5305,-0.00388581,-0.012154,1.77214,-0.38424,-0.0443107,-1.55103,-0.00413771,-0.0125995,1.80029,-0.391843,-0.0448383,-0.00152732,-0.0161698,-0.164432,0.2,0.2,0,1.28,0,0,0,0.2,-0.2,0,1.28,0,0,0
gen_000085_tz+0.03_tx+0.02_ty-0.01_p-0.05_fx-0.02_fy+0.00,-0.232094,1.4806926,0.486429,0.997916,0.0159232,0.0624513,0.00302842,-1.52179,-0.00405855,-0.0121446,1.75664,-0.359748,-0.0442944,-1.54248,-0.0043169,-0.0125852,1.78474,-0.367141,-0.0448214,-0.00129862,-0.0161443,-0.14673,0.2,0.2,0,1.28,0,0,0,0.2,-0.2,0,1.28,0,0,0,-1.52179,-0.00405855,-0.0121446,1.75664,-0.359748,-0.0442944,-1.54248,-0.0043169,-0.0125852,1.78474,-0.367141,-0.0448214,-0.00129862,-0.0161443,-0.14673,0.2,0.2,0,1.28,0,0,0,0.2,-0.2,0,1.28,0,0,0
gen_000086_tz+0.03_tx+0.02_ty-0.01_p-0.05_fx-0.01_fy+0.00,-0.231296,1.480696,0.48639,0.998425,0.0159236,0.0537242,0.00291849,-1.51268,-0.00422158,-0.0121414,1.74042,-0.335163,-0.0442784,-1.53352,-0.004486,-0.0125772,1.76847,-0.342362,-0.0448049,-0.00107232,-0.0161105,-0.12926,0.2,0.2,0,1.28,0,0,0,0.2,-0.2,0,1.28,0,0,0,-1.51268,-0.00422158,-0.0121414,1.74042,-0.335163,-0.0442784,-1.53352,-0.004486,-0.0125772,1.76847,-0.342362,-0.0448049,-0.00107232,-0.0161105,-0.12926,0.2,0.2,0,1.28,0,0,0,0.2,-0.2,0,1.28,0,0,0
gen_000087_tz+0.03_tx+0.02_ty-0.01_p-0.05_fx+0.00_fy+0.00,-0.230507,1.4806988,0.486364,0.998851,0.0159204,0.0451063,0.00280922,-1.50315,-0.00437469,-0.012145,1.72346,-0.310489,-0.044263,-1.52413,-0.00464483,-0.0125762,1.75148,-0.317511,-0.0447887,-0.000848273,-0.0160684,-0.112017,0.2,0.2,0,1.28,0,0,0,0.2,-0.2,0,1.28,0,0,0,-1.50315,-0.00437469,-0.012145,1.72346,-0.310489,-0.044263,-1.52413,-0.00464483,-0.0125762,1.75148,-0.317511,-0.0447887,-0.000848273,-0.0160684,-0.112017,0.2,0.2,0,1.28,0,0,0,0.2,-0.2,0,1.28,0,0,0
gen_000088_tz+0.03_tx+0.02_ty-0.01_p-0.05_fx+0.01_fy+0.00,-0.229726,1.480701,0.486351,0.9992,0.0159135,0.0365951,0.00270053,-1.49319,-0.00451771,-0.0121561,1.70578,-0.285733,-0.0442483,-1.5143,-0.00479325,-0.0125828,1.73377,-0.292593,-0.0447732,-0.000626404,-0.016018,-0.0949953,0.2,0.2,0,1.28,0,0,0,0.2,-0.2,0,1.28,0,0,0,-1.49319,-0.00451771,-0.0121561,1.70578,-0.285733,-0.0442483,-1.5143,-0.00479325,-0.0125828,1.73377,-0.292593,-0.0447732,-0.000626404,-0.016018,-0.0949953,0.2,0.2,0,1.28,0,0,0,0.2,-0.2,0,1.28,0,0,0
gen_000089_tz+0.03_tx+0.02_ty-0.01_p-0.05_fx+0.02_fy+0.00,-0.228954,1.4807025,0.48635,0.999473,0.0159025,0.0281879,0.00259235,-1.48281,-0.00465068,-0.0121762,1.68738,-0.260895,-0.0442345,-1.50403,-0.00493131,-0.0125985,1.71533,-0.26761,-0.0447586,-0.000406737,-0.0159585,-0.0781872,0.2,0.2,0,1.28,0,0,0,0.2,-0.2,0,1.28,0,0,0,-1.48281,-0.00465068,-0.0121762,1.68738,-0.260895,-0.0442345,-1.50403,-0.00493131,-0.0125985,1.71533,-0.26761,-0.0447586,-0.000406737,-0.0159585,-0.0781872,0.2,0.2,0,1.28,0,0,0,0.2,-0.2,0,1.28,0,0,0
gen_000090_tz+0.03_tx+0.02_ty-0.01_p-0.05_fx+0.03_fy+0.00,-0.228191,1.4807033,0.48636,0.999673,0.0158859,0.0198828,0.00248508,-1.47199,-0.00477457,-0.0122098,1.66824,-0.235978,-0.0442229,-1.49332,-0.00506007,-0.0126278,1.69617,-0.242564,-0.044746,-0.000190123,-0.0158867,-0.061588,0.2,0.2,0,1.28,0,0,0,0.2,-0.2,0,1.28,0,0,0,-1.47199,-0.00477457,-0.0122098,1.66824,-0.235978,-0.0442229,-1.49332,-0.00506007,-0.0126278,1.69617,-0.242564,-0.044746,-0.000190123,-0.0158867,-0.061588,0.2,0.2,0,1.28,0,0,0,0.2,-0.2,0,1.28,0,0,0
gen_000091_tz+0.03_tx+0.03_ty-0.01_p-0.05_fx-0.03_fy+0.00,-0.223717,1.4806840000000001,0.486549,0.996643,0.0159116,0.0802413,0.00325075,-1.53882,-0.00370344,-0.0121689,1.7869,-0.40863,-0.0443272,-1.55917,-0.0039485,-0.0126193,1.8151,-0.416459,-0.0448553,-0.00175846,-0.0161872,-0.182375,0.2,0.2,0,1.28,0,0,0,0.2,-0.2,0,1.28,0,0,0,-1.53882,-0.00370344,-0.0121689,1.7869,-0.40863,-0.0443272,-1.55917,-0.0039485,-0.0126193,1.8151,-0.416459,-0.0448553,-0.00175846,-0.0161872,-0.182375,0.2,0.2,0,1.28,0,0,0,0.2,-0.2,0,1.28,0,0,0
gen_000092_tz+0.03_tx+0.03_ty-0.01_p-0.05_fx-0.02_fy+0.00,-0.222901,1.4806887,0.486482,0.997324,0.0159192,0.0712894,0.00313914,-1.5305,-0.00388581,-0.012154,1.77214,-0.38424,-0.0443107,-1.55103,-0.00413771,-0.0125995,1.80028,-0.391843,-0.0448383,-0.00152732,-0.0161699,-0.164433,0.2,0.2,0,1.28,0,0,0,0.2,-0.2,0,1.28,0,0,0,-1.5305,-0.00388581,-0.012154,1.77214,-0.38424,-0.0443107,-1.55103,-0.00413771,-0.0125995,1.80028,-0.391843,-0.0448383,-0.00152732,-0.0161699,-0.164433,0.2,0.2,0,1.28,0,0,0,0.2,-0.2,0,1.28,0,0,0
gen_000093_tz+0.03_tx+0.03_ty-0.01_p-0.05_fx-0.01_fy+0.00,-0.222094,1.4806926,0.486429,0.997916,0.0159232,0.0624514,0.00302842,-1.52179,-0.00405855,-0.0121446,1.75664,-0.359748,-0.0442944,-1.54248,-0.00431689,-0.0125852,1.78474,-0.367141,-0.0448214,-0.00129862,-0.0161443,-0.14673,0.2,0.2,0,1.28,0,0,0,0.2,-0.2,0,1.28,0,0,0,-1.52179,-0.00405855,-0.0121446,1.75664,-0.359748,-0.0442944,-1.54248,-0.00431689,-0.0125852,1.78474,-0.367141,-0.0448214,-0.00129862,-0.0161443,-0.14673,0.2,0.2,0,1.28,0,0,0,0.2,-0.2,0,1.28,0,0,0
gen_000094_tz+0.03_tx+0.03_ty-0.01_p-0.05_fx+0.00_fy+0.00,-0.221296,1.480696,0.48639,0.998425,0.0159235,0.0537233,0.00291854,-1.51267,-0.00422173,-0.0121417,1.74042,-0.335164,-0.0442785,-1.53351,-0.00448615,-0.0125776,1.76847,-0.342363,-0.044805,-0.0010724,-0.0161102,-0.129258,0.2,0.2,0,1.28,0,0,0,0.2,-0.2,0,1.28,0,0,0,-1.51267,-0.00422173,-0.0121417,1.74042,-0.335164,-0.0442785,-1.53351,-0.00448615,-0.0125776,1.76847,-0.342363,-0.044805,-0.0010724,-0.0161102,-0.129258,0.2,0.2,0,1.28,0,0,0,0.2,-0.2,0,1.28,0,0,0
gen_000095_tz+0.03_tx+0.03_ty-0.01_p-0.05_fx+0.01_fy+0.00,-0.220507,1.4806988,0.486364,0.998851,0.0159204,0.0451063,0.00280922,-1.50315,-0.00437469,-0.012145,1.72346,-0.310489,-0.044263,-1.52413,-0.00464483,-0.0125762,1.75148,-0.317511,-0.0447887,-0.000848273,-0.0160684,-0.112017,0.2,0.2,0,1.28,0,0,0,0.2,-0.2,0,1.28,0,0,0,-1.50315,-0.00437469,-0.012145,1.72346,-0.310489,-0.044263,-1.52413,-0.00464483,-0.0125762,1.75148,-0.317511,-0.0447887,-0.000848273,-0.0160684,-0.112017,0.2,0.2,0,1.28,0,0,0,0.2,-0.2,0,1.28,0,0,0
gen_000096_tz+0.03_tx+0.03_ty-0.01_p-0.05_fx+0.02_fy+0.00,-0.219726,1.480701,0.486351,0.9992,0.0159135,0.0365951,0.00270052,-1.49319,-0.00451772,-0.0121562,1.70578,-0.285732,-0.0442483,-1.5143,-0.00479325,-0.0125829,1.73376,-0.292593,-0.0447732,-0.000626401,-0.0160179,-0.0949954,0.2,0.2,0,1.28,0,0,0,0.2,-0.2,0,1.28,0,0,0,-1.49319,-0.00451772,-0.0121562,1.70578,-0.285732,-0.0442483,-1.5143,-0.00479325,-0.0125829,1.73376,-0.292593,-0.0447732,-0.000626401,-0.0160179,-0.0949954,0.2,0.2,0,1.28,0,0,0,0.2,-0.2,0,1.28,0,0,0
gen_000097_tz+0.03_tx+0.03_ty-0.01_p-0.05_fx+0.03_fy+0.00,-0.218954,1.4807025,0.48635,0.999473,0.0159025,0.028188,0.00259234,-1.48281,-0.00465067,-0.0121763,1.68738,-0.260895,-0.0442345,-1.50403,-0.0049313,-0.0125986,1.71533,-0.26761,-0.0447586,-0.000406726,-0.0159584,-0.0781875,0.2,0.2,0,1.28,0,0,0,0.2,-0.2,0,1.28,0,0,0,-1.48281,-0.00465067,-0.0121763,1.68738,-0.260895,-0.0442345,-1.50403,-0.0049313,-0.0125986,1.71533,-0.26761,-0.0447586,-0.000406726,-0.0159584,-0.0781875,0.2,0.2,0,1.28,0,0,0,0.2,-0.2,0,1.28,0,0,0
gen_000098_tz+0.03_tx-0.03_ty+0.00_p-0.05_fx-0.03_fy+0.00,-0.278946,1.4899465,0.486333,0.999574,0.00751013,0.0281014,0.00244071,-1.48927,-0.0047547,-0.00804194,1.69517,-0.262015,-0.0233553,-1.49893,-0.00483348,-0.00810532,1.70991,-0.267076,-0.0234649,0.000364088,0.000796918,-0.0780468,0.2,0.2,0,1.28,0,0,0,0.2,-0.2,0,1.28,0,0,0,-1.48927,-0.0047547,-0.00804194,1.69517,-0.262015,-0.0233553,-1.49893,-0.00483348,-0.00810532,1.70991,-0.267076,-0.0234649,0.000364088,0.000796918,-0.0780468,0.2,0.2,0,1.28,0,0,0,0.2,-0.2,0,1.28,0,0,0
gen_000099_tz+0.03_tx-0.03_ty+0.00_p-0.05_fx-0.02_fy+0.00,-0.278181,1.4899476,0.486344,0.999773,0.00750642,0.0197899,0.00236951,-1.47845,-0.00478644,-0.00804963,1.67603,-0.237081,-0.0233422,-1.4882,-0.00486654,-0.00811206,1.69076,-0.242046,-0.0234517,0.000368838,0.000849816,-0.0614375,0.2,0.2,0,1.28,0,0,0,0.2,-0.2,0,1.28,0,0,0,-1.47845,-0.00478644,-0.00804963,1.67603,-0.237081,-0.0233422,-1.4882,-0.00486654,-0.00811206,1.69076,-0.242046,-0.0234517,0.000368838,0.000849816,-0.0614375,0.2,0.2,0,1.28,0,0,0,0.2,-0.2,0,1.28,0,0,0
gen_000100_tz+0.03_tx-0.03_ty+0.00_p-0.05_fx-0.01_fy+0.00,-0.277427,1.4899484,0.486365,0.999902,0.00750105,0.0115961,0.00229979,-1.46722,-0.00481405,-0.00806216,1.65615,-0.212053,-0.0233296,-1.47705,-0.00489541,-0.00812368,1.67088,-0.216931,-0.0234388,0.00037141,0.000904435,-0.045067,0.2,0.2,0,1.28,0,0,0,0.2,-0.2,0,1.28,0,0,0,-1.46722,-0.00481405,-0.00806216,1.65615,-0.212053,-0.0233296,-1.47705,-0.00489541,-0.00812368,1.67088,-0.216931,-0.0234388,0.00037141,0.000904435,-0.045067,0.2,0.2,0,1.28,0,0,0,0.2,-0.2,0,1.28,0,0,0
gen_000101_tz+0.03_tx-0.03_ty+0.00_p-0.05_fx+0.00_fy+0.00,-0.276678,1.489949,0.486397,0.999963,0.00749398,0.00346372,0.00223113,-1.45545,-0.00483737,-0.00807999,1.63557,-0.186982,-0.0233173,-1.46537,-0.00491992,-0.00814065,1.6503,-0.191783,-0.0234263,0.000371737,0.00096115,-0.0288216,0.2,0.2,0,1.28,0,0,0,0.2,-0.2,0,1.28,0,0,0,-1.45545,-0.00483737,-0.00807999,1.63557,-0.186982,-0.0233173,-1.46537,-0.00491992,-0.00814065,1.6503,-0.191783,-0.0234263,0.000371737,0.00096115,-0.0288216,0.2,0.2,0,1.28,0,0,0,0.2,-0.2,0,1.28,0,0,0
gen_000102_tz+0.03_tx-0.03_ty+0.00_p-0.05_fx+0.01_fy+0.00,-0.275935,1.4899494,0.48644,0.999959,0.00748688,-0.00458931,0.00216195,-1.44318,-0.00485277,-0.00809919,1.61426,-0.161845,-0.0233046,-1.45318,-0.00493645,-0.00815907,1.629,-0.166577,-0.0234134,0.000373212,0.00101654,-0.0127358,0.2,0.2,0,1.28,0,0,0,0.2,-0.2,0,1.28,0,0,0,-1.44318,-0.00485277,-0.00809919,1.61426,-0.161845,-0.0233046,-1.45318,-0.00493645,-0.00815907,1.629,-0.166577,-0.0234134,0.000373212,0.00101654,-0.0127358,0.2,0.2,0,1.28,0,0,0,0.2,-0.2,0,1.28,0,0,0
gen_000103_tz+0.03_tx-0.03_ty+0.00_p-0.05_fx+0.02_fy+0.00,-0.275198,1.4899496,0.486492,0.999891,0.007479,-0.0125731,0.00209269,-1.43039,-0.0048613,-0.00812172,1.59223,-0.136645,-0.023292,-1.44046,-0.00494605,-0.00818092,1.60698,-0.141316,-0.0234005,0.000374859,0.00107219,0.00321134,0.2,0.2,0,1.28,0,0,0,0.2,-0.2,0,1.28,0,0,0,-1.43039,-0.0048613,-0.00812172,1.59223,-0.136645,-0.023292,-1.44046,-0.00494605,-0.00818092,1.60698,-0.141316,-0.0234005,0.000374859,0.00107219,0.00321134,0.2,0.2,0,1.28,0,0,0,0.2,-0.2,0,1.28,0,0,0
gen_000104_tz+0.03_tx-0.03_ty+0.00_p-0.05_fx+0.03_fy+0.00,-0.274465,1.4899496,0.486554,0.99976,0.00747025,-0.0204946,0.00202316,-1.41706,-0.00486266,-0.00814795,1.56946,-0.111378,-0.0232795,-1.4272,-0.00494843,-0.00820655,1.58424,-0.115997,-0.0233877,0.00037691,0.00112835,0.0190349,0.2,0.2,0,1.28,0,0,0,0.2,-0.2,0,1.28,0,0,0,-1.41706,-0.00486266,-0.00814795,1.56946,-0.111378,-0.0232795,-1.4272,-0.00494843,-0.00820655,1.58424,-0.115997,-0.0233877,0.00037691,0.00112835,0.0190349,0.2,0.2,0,1.28,0,0,0,0.2,-0.2,0,1.28,0,0,0
gen_000105_tz+0.03_tx-0.02_ty+0.00_p-0.05_fx-0.03_fy+0.00,-0.269718,1.4899452,0.486334,0.999302,0.00751382,0.0365103,0.00251188,-1.49964,-0.00471581,-0.00803499,1.71359,-0.286878,-0.0233677,-1.50921,-0.00479317,-0.00809942,1.72834,-0.292045,-0.0234776,0.000359789,0.00074249,-0.0948553,0.2,0.2,0,1.28,0,0,0,0.2,-0.2,0,1.28,0,0,0,-1.49964,-0.00471581,-0.00803499,1.71359,-0.286878,-0.0233677,-1.50921,-0.00479317,-0.00809942,1.72834,-0.292045,-0.0234776,0.000359789,0.00074249,-0.0948553,0.2,0.2,0,1.28,0,0,0,0.2,-0.2,0,1.28,0,0,0
gen_000106_tz+0.03_tx-0.02_ty+0.00_p-0.05_fx-0.02_fy+0.00,-0.268946,1.4899465,0.486333,0.999574,0.00751013,0.0281017,0.00244072,-1.48927,-0.00475471,-0.00804195,1.69517,-0.262015,-0.0233553,-1.49894,-0.00483348,-0.00810534,1.70991,-0.267076,-0.0234649,0.000364082,0.000796927,-0.0780473,0.2,0.2,0,1.28,0,0,0,0.2,-0.2,0,1.28,0,0,0,-1.48927,-0.00475471,-0.00804195,1.69517,-0.262015,-0.0233553,-1.49894,-0.00483348,-0.00810534,1.70991,-0.267076,-0.0234649,0.000364082,0.000796927,-0.0780473,0.2,0.2,0,1.28,0,0,0,0.2,-0.2,0,1.28,0,0,0
gen_000107_tz+0.03_tx-0.02_ty+0.00_p-0.05_fx-0.01_fy+0.00,-0.268182,1.4899476,0.486344,0.999773,0.00750641,0.0197906,0.00236952,-1.47845,-0.00478647,-0.00804966,1.67603,-0.23708,-0.0233422,-1.4882,-0.00486657,-0.00811209,1.69076,-0.242045,-0.0234517,0.000368816,0.000849839,-0.0614389,0.2,0.2,0,1.28,0,0,0,0.2,-0.2,0,1.28,0,0,0,-1.47845,-0.00478647,-0.00804966,1.67603,-0.23708,-0.0233422,-1.4882,-0.00486657,-0.00811209,1.69076,-0.242045,-0.0234517,0.000368816,0.000849839,-0.0614389,0.2,0.2,0,1.28,0,0,0,0.2,-0.2,0,1.28,0,0,0
gen_000108_tz+0.03_tx-0.02_ty+0.00_p-0.05_fx+0.00_fy+0.00,-0.267427,1.4899484,0.486365,0.999902,0.00750094,0.0115956,0.0022999,-1.46722,-0.00481428,-0.00806245,1.65615,-0.212054,-0.0233296,-1.47705,-0.00489564,-0.00812396,1.67088,-0.216931,-0.0234389,0.000371199,0.000904675,-0.0450662,0.2,0.2,0,1.28,0,0,0,0.2,-0.2,0,1.28,0,0,0,-1.46722,-0.00481428,-0.00806245,1.65615,-0.212054,-0.0233296,-1.47705,-0.00489564,-0.00812396,1.67088,-0.216931,-0.0234389,0.000371199,0.000904675,-0.0450662,0.2,0.2,0,1.28,0,0,0,0.2,-0.2,0,1.28,0,0,0
gen_000109_tz+0.03_tx-0.02_ty+0.00_p-0.05_fx+0.01_fy+0.00,-0.266678,1.489949,0.486397,0.999963,0.00749398,0.00346389,0.00223113,-1.45545,-0.00483737,-0.00808,1.63557,-0.186982,-0.0233173,-1.46537,-0.00491993,-0.00814065,1.6503,-0.191782,-0.0234263,0.000371734,0.000961153,-0.0288219,0.2,0.2,0,1.28,0,0,0,0.2,-0.2,0,1.28,0,0,0,-1.45545,-0.00483737,-0.00808,1.63557,-0.186982,-0.0233173,-1.46537,-0.00491993,-0.00814065,1.6503,-0.191782,-0.0234263,0.000371734,0.000961153,-0.0288219,0.2,0.2,0,1.28,0,0,0,0.2,-0.2,0,1.28,0,0,0
gen_000110_tz+0.03_tx-0.02_ty+0.00_p-0.05_fx+0.02_fy+0.00,-0.265935,1.4899494,0.48644,0.999959,0.00748688,-0.00458919,0.00216195,-1.44318,-0.00485277,-0.00809919,1.61426,-0.161845,-0.0233046,-1.45318,-0.00493645,-0.00815907,1.629,-0.166577,-0.0234134,0.000373214,0.00101654,-0.0127361,0.2,0.2,0,1.28,0,0,0,0.2,-0.2,0,1.28,0,0,0,-1.44318,-0.00485277,-0.00809919,1.61426,-0.161845,-0.0233046,-1.45318,-0.00493645,-0.00815907,1.629,-0.166577,-0.0234134,0.000373214,0.00101654,-0.0127361,0.2,0.2,0,1.28,0,0,0,0.2,-0.2,0,1.28,0,0,0
gen_000111_tz+0.03_tx-0.02_ty+0.00_p-0.05_fx+0.03_fy+0.00,-0.265198,1.4899496,0.486492,0.999891,0.007479,-0.012573,0.00209268,-1.43039,-0.0048613,-0.00812172,1.59223,-0.136645,-0.023292,-1.44046,-0.00494605,-0.00818092,1.60698,-0.141316,-0.0234005,0.000374862,0.00107219,0.00321114,0.2,0.2,0,1.28,0,0,0,0.2,-0.2,0,1.28,0,0,0,-1.43039,-0.0048613,-0.00812172,1.59223,-0.136645,-0.023292,-1.44046,-0.00494605,-0.00818092,1.60698,-0.141316,-0.0234005,0.000374862,0.00107219,0.00321114,0.2,0.2,0,1.28,0,0,0,0.2,-0.2,0,1.28,0,0,0
gen_000112_tz+0.03_tx-0.01_ty+0.00_p-0.05_fx-0.03_fy+0.00,-0.260499,1.4899437,0.486347,0.998954,0.00751682,0.0450233,0.00258372,-1.50957,-0.00467126,-0.00803019,1.73128,-0.311665,-0.0233799,-1.51905,-0.00474711,-0.00809571,1.74604,-0.316947,-0.02349,0.000354586,0.000687827,-0.111878,0.2,0.2,0,1.28,0,0,0,0.2,-0.2,0,1.28,0,0,0,-1.50957,-0.00467126,-0.00803019,1.73128,-0.311665,-0.0233799,-1.51905,-0.00474711,-0.00809571,1.74604,-0.316947,-0.02349,0.000354586,0.000687827,-0.111878,0.2,0.2,0,1.28,0,0,0,0.2,-0.2,0,1.28,0,0,0
gen_000113_tz+0.03_tx-0.01_ty+0.00_p-0.05_fx-0.02_fy+0.00,-0.259718,1.4899452,0.486334,0.999302,0.00751382,0.0365105,0.00251188,-1.49964,-0.00471582,-0.008035,1.71359,-0.286878,-0.0233677,-1.50921,-0.00479318,-0.00809942,1.72834,-0.292045,-0.0234776,0.000359785,0.000742496,-0.0948557,0.2,0.2,0,1.28,0,0,0,0.2,-0.2,0,1.28,0,0,0,-1.49964,-0.00471582,-0.008035,1.71359,-0.286878,-0.0233677,-1.50921,-0.00479318,-0.00809942,1.72834,-0.292045,-0.0234776,0.000359785,0.000742496,-0.0948557,0.2,0.2,0,1.28,0,0,0,0.2,-0.2,0,1.28,0,0,0
gen_000114_tz+0.03_tx-0.01_ty+0.00_p-0.05_fx-0.01_fy+0.00,-0.258946,1.4899465,0.486333,0.999574,0.00751016,0.028101,0.00244068,-1.48927,-0.00475464,-0.00804187,1.69517,-0.262015,-0.0233553,-1.49893,-0.00483341,-0.00810525,1.70991,-0.267077,-0.0234649,0.000364147,0.000796857,-0.0780459,0.2,0.2,0,1.28,0,0,0,0.2,-0.2,0,1.28,0,0,0,-1.48927,-0.00475464,-0.00804187,1.69517,-0.262015,-0.0233553,-1.49893,-0.00483341,-0.00810525,1.70991,-0.267077,-0.0234649,0.000364147,0.000796857,-0.0780459,0.2,0.2,0,1.28,0,0,0,0.2,-0.2,0,1.28,0,0,0
gen_000115_tz+0.03_tx-0.01_ty+0.00_p-0.05_fx+0.00_fy+0.00,-0.258182,1.4899476,0.486344,0.999773,0.00750651,0.0197903,0.00236943,-1.47845,-0.00478627,-0.00804941,1.67603,-0.237081,-0.0233422,-1.4882,-0.00486637,-0.00811184,1.69076,-0.242045,-0.0234516,0.000368996,0.000849626,-0.0614384,0.2,0.2,0,1.28,0,0,0,0.2,-0.2,0,1.28,0,0,0,-1.47845,-0.00478627,-0.00804941,1.67603,-0.237081,-0.0233422,-1.4882,-0.00486637,-0.00811184,1.69076,-0.242045,-0.0234516,0.000368996,0.000849626,-0.0614384,0.2,0.2,0,1.28,0,0,0,0.2,-0.2,0,1.28,0,0,0
gen_000116_tz+0.03_tx-0.01_ty+0.00_p-0.05_fx+0.01_fy+0.00,-0.257427,1.4899484,0.486365,0.999902,0.00750093,0.0115962,0.0022999,-1.46722,-0.00481428,-0.00806245,1.65615,-0.212053,-0.0233296,-1.47706,-0.00489564,-0.00812397,1.67088,-0.216931,-0.0234389,0.000371197,0.000904678,-0.0450673,0.2,0.2,0,1.28,0,0,0,0.2,-0.2,0,1.28,0,0,0,-1.46722,-0.00481428,-0.00806245,1.65615,-0.212053,-0.0233296,-1.47706,-0.00489564,-0.00812397,1.67088,-0.216931,-0.0234389,0.000371197,0.000904678,-0.0450673,0.2,0.2,0,1.28,0,0,0,0.2,-0.2,0,1.28,0,0,0
gen_000117_tz+0.03_tx-0.01_ty+0.00_p-0.05_fx+0.02_fy+0.00,-0.256678,1.489949,0.486397,0.999963,0.00749398,0.0034641,0.00223113,-1.45545,-0.00483737,-0.00807999,1.63557,-0.186982,-0.0233173,-1.46537,-0.00491992,-0.00814065,1.6503,-0.191782,-0.0234263,0.000371739,0.000961151,-0.0288224,0.2,0.2,0,1.28,0,0,0,0.2,-0.2,0,1.28,0,0,0,-1.45545,-0.00483737,-0.00807999,1.63557,-0.186982,-0.0233173,-1.46537,-0.00491992,-0.00814065,1.6503,-0.191782,-0.0234263,0.000371739,0.000961151,-0.0288224,0.2,0.2,0,1.28,0,0,0,0.2,-0.2,0,1.28,0,0,0
gen_000118_tz+0.03_tx-0.01_ty+0.00_p-0.05_fx+0.03_fy+0.00,-0.255935,1.4899494,0.48644,0.999959,0.00748686,-0.00459005,0.00216196,-1.44318,-0.00485281,-0.00809924,1.61426,-0.161846,-0.0233046,-1.45318,-0.0049365,-0.00815912,1.629,-0.166578,-0.0234134,0.00037317,0.00101659,-0.0127343,0.2,0.2,0,1.28,0,0,0,0.2,-0.2,0,1.28,0,0,0,-1.44318,-0.00485281,-0.00809924,1.61426,-0.161846,-0.0233046,-1.45318,-0.0049365,-0.00815912,1.629,-0.166578,-0.0234134,0.00037317,0.00101659,-0.0127343,0.2,0.2,0,1.28,0,0,0,0.2,-0.2,0,1.28,0,0,0
gen_000119_tz+0.03_tx+0.00_ty+0.00_p-0.05_fx-0.03_fy+0.00,-0.251288,1.4899419,0.486373,0.998528,0.00751909,0.0536434,0.00265638,-1.51908,-0.00462128,-0.00802743,1.74824,-0.336373,-0.0233919,-1.52845,-0.00469553,-0.00809409,1.76303,-0.341777,-0.0235022,0.000348244,0.000632986,-0.129122,0.2,0.2,0,1.28,0,0,0,0.2,-0.2,0,1.28,0,0,0,-1.51908,-0.00462128,-0.00802743,1.74824,-0.336373,-0.0233919,-1.52845,-0.00469553,-0.00809409,1.76303,-0.341777,-0.0235022,0.000348244,0.000632986,-0.129122,0.2,0.2,0,1.28,0,0,0,0.2,-0.2,0,1.28,0,0,0
gen_000120_tz+0.03_tx+0.00_ty+0.00_p-0.05_fx-0.02_fy+0.00,-0.250499,1.4899437,0.486347,0.998954,0.00751682,0.0450235,0.00258372,-1.50958,-0.00467126,-0.0080302,1.73128,-0.311665,-0.02338,-1.51905,-0.00474711,-0.00809572,1.74604,-0.316946,-0.02349,0.000354584,0.000687831,-0.111878,0.2,0.2,0,1.28,0,0,0,0.2,-0.2,0,1.28,0,0,0,-1.50958,-0.00467126,-0.0080302,1.73128,-0.311665,-0.02338,-1.51905,-0.00474711,-0.00809572,1.74604,-0.316946,-0.02349,0.000354584,0.000687831,-0.111878,0.2,0.2,0,1.28,0,0,0,0.2,-0.2,0,1.28,0,0,0
gen_000121_tz+0.03_tx+0.00_ty+0.00_p-0.05_fx-0.01_fy+0.00,-0.249718,1.4899452,0.486334,0.999302,0.00751382,0.0365107,0.00251188,-1.49964,-0.00471582,-0.00803501,1.71359,-0.286878,-0.0233677,-1.50921,-0.00479318,-0.00809943,1.72834,-0.292045,-0.0234776,0.000359781,0.000742501,-0.0948561,0.2,0.2,0,1.28,0,0,0,0.2,-0.2,0,1.28,0,0,0,-1.49964,-0.00471582,-0.00803501,1.71359,-0.286878,-0.0233677,-1.50921,-0.00479318,-0.00809943,1.72834,-0.292045,-0.0234776,0.000359781,0.000742501,-0.0948561,0.2,0.2,0,1.28,0,0,0,0.2,-0.2,0,1.28,0,0,0
gen_000122_tz+0.03_tx+0.00_ty+0.00_p-0.05_fx+0.00_fy+0.00,-0.248946,1.4899465,0.486333,0.999574,0.00751016,0.0281012,0.00244068,-1.48927,-0.00475464,-0.00804187,1.69517,-0.262015,-0.0233553,-1.49893,-0.00483341,-0.00810526,1.70991,-0.267077,-0.0234649,0.000364144,0.000796862,-0.0780465,0.2,0.2,0,1.28,0,0,0,0.2,-0.2,0,1.28,0,0,0,-1.48927,-0.00475464,-0.00804187,1.69517,-0.262015,-0.0233553,-1.49893,-0.00483341,-0.00810526,1.70991,-0.267077,-0.0234649,0.000364144,0.000796862,-0.0780465,0.2,0.2,0,1.28,0,0,0,0.2,-0.2,0,1.28,0,0,0
gen_000123_tz+0.03_tx+0.00_ty+0.00_p-0.05_fx+0.01_fy+0.00,-0.248182,1.4899476,0.486344,0.999773,0.00750664,0.0197899,0.00236932,-1.47845,-0.00478603,-0.0080491,1.67603,-0.237081,-0.0233421,-1.4882,-0.00486612,-0.00811153,1.69076,-0.242045,-0.0234515,0.000369212,0.000849372,-0.0614376,0.2,0.2,0,1.28,0,0,0,0.2,-0.2,0,1.28,0,0,0,-1.47845,-0.00478603,-0.0080491,1.67603,-0.237081,-0.0233421,-1.4882,-0.00486612,-0.00811153,1.69076,-0.242045,-0.0234515,0.000369212,0.000849372,-0.0614376,0.2,0.2,0,1.28,0,0,0,0.2,-0.2,0,1.28,0,0,0
gen_000124_tz+0.03_tx+0.00_ty+0.00_p-0.05_fx+0.02_fy+0.00,-0.247427,1.4899484,0.486365,0.999902,0.00750084,0.0115957,0.00229998,-1.46722,-0.00481446,-0.00806269,1.65615,-0.212054,-0.0233297,-1.47705,-0.00489582,-0.0081242,1.67088,-0.216931,-0.0234389,0.000371037,0.000904871,-0.0450664,0.2,0.2,0,1.28,0,0,0,0.2,-0.2,0,1.28,0,0,0,-1.46722,-0.00481446,-0.00806269,1.65615,-0.212054,-0.0233297,-1.47705,-0.00489582,-0.0081242,1.67088,-0.216931,-0.0234389,0.000371037,0.000904871,-0.0450664,0.2,0.2,0,1.28,0,0,0,0.2,-0.2,0,1.28,0,0,0
gen_000125_tz+0.03_tx+0.00_ty+0.00_p-0.05_fx+0.03_fy+0.00,-0.246678,1.489949,0.486397,0.999963,0.00749399,0.00346434,0.00223112,-1.45545,-0.00483736,-0.00807999,1.63557,-0.186982,-0.0233173,-1.46537,-0.00491991,-0.00814064,1.6503,-0.191782,-0.0234263,0.000371749,0.000961146,-0.0288228,0.2,0.2,0,1.28,0,0,0,0.2,-0.2,0,1.28,0,0,0,-1.45545,-0.00483736,-0.00807999,1.63557,-0.186982,-0.0233173,-1.46537,-0.00491991,-0.00814064,1.6503,-0.191782,-0.0234263,0.000371749,0.000961146,-0.0288228,0.2,0.2,0,1.28,0,0,0,0.2,-0.2,0,1.28,0,0,0
gen_000126_tz+0.03_tx+0.01_ty+0.00_p-0.05_fx-0.03_fy+0.00,-0.242086,1.4899399,0.486412,0.998021,0.00752058,0.0623729,0.00272994,-1.52818,-0.00456606,-0.00802655,1.76448,-0.360996,-0.0234035,-1.53744,-0.00463861,-0.00809441,1.77929,-0.366533,-0.0235139,0.000340573,0.000578013,-0.146594,0.2,0.2,0,1.28,0,0,0,0.2,-0.2,0,1.28,0,0,0,-1.52818,-0.00456606,-0.00802655,1.76448,-0.360996,-0.0234035,-1.53744,-0.00463861,-0.00809441,1.77929,-0.366533,-0.0235139,0.000340573,0.000578013,-0.146594,0.2,0.2,0,1.28,0,0,0,0.2,-0.2,0,1.28,0,0,0
gen_000127_tz+0.03_tx+0.01_ty+0.00_p-0.05_fx-0.02_fy+0.00,-0.241288,1.4899419,0.486373,0.998528,0.00751909,0.0536435,0.00265638,-1.51908,-0.00462128,-0.00802743,1.74824,-0.336373,-0.0233919,-1.52845,-0.00469553,-0.0080941,1.76303,-0.341777,-0.0235022,0.000348243,0.000632989,-0.129122,0.2,0.2,0,1.28,0,0,0,0.2,-0.2,0,1.28,0,0,0,-1.51908,-0.00462128,-0.00802743,1.74824,-0.336373,-0.0233919,-1.52845,-0.00469553,-0.0080941,1.76303,-0.341777,-0.0235022,0.000348243,0.000632989,-0.129122,0.2,0.2,0,1.28,0,0,0,0.2,-0.2,0,1.28,0,0,0
gen_000128_tz+0.03_tx+0.01_ty+0.00_p-0.05_fx-0.01_fy+0.00,-0.240499,1.4899437,0.486347,0.998954,0.00751682,0.0450236,0.00258373,-1.50958,-0.00467126,-0.0080302,1.73128,-0.311665,-0.02338,-1.51905,-0.00474712,-0.00809572,1.74604,-0.316946,-0.02349,0.000354582,0.000687834,-0.111879,0.2,0.2,0,1.28,0,0,0,0.2,-0.2,0,1.28,0,0,0,-1.50958,-0.00467126,-0.0080302,1.73128,-0.311665,-0.02338,-1.51905,-0.00474712,-0.00809572,1.74604,-0.316946,-0.02349,0.000354582,0.000687834,-0.111879,0.2,0.2,0,1.28,0,0,0,0.2,-0.2,0,1.28,0,0,0
gen_000129_tz+0.03_tx+0.01_ty+0.00_p-0.05_fx+0.00_fy+0.00,-0.239718,1.4899452,0.486334,0.999302,0.00751382,0.0365108,0.00251188,-1.49964,-0.00471583,-0.00803501,1.71359,-0.286878,-0.0233677,-1.50921,-0.00479318,-0.00809943,1.72833,-0.292045,-0.0234776,0.000359781,0.000742502,-0.0948564,0.2,0.2,0,1.28,0,0,0,0.2,-0.2,0,1.28,0,0,0,-1.49964,-0.00471583,-0.00803501,1.71359,-0.286878,-0.0233677,-1.50921,-0.00479318,-0.00809943,1.72833,-0.292045,-0.0234776,0.000359781,0.000742502,-0.0948564,0.2,0.2,0,1.28,0,0,0,0.2,-0.2,0,1.28,0,0,0
gen_000130_tz+0.03_tx+0.01_ty+0.00_p-0.05_fx+0.01_fy+0.00,-0.238946,1.4899465,0.486333,0.999574,0.00751016,0.0281014,0.00244068,-1.48927,-0.00475464,-0.00804187,1.69517,-0.262015,-0.0233553,-1.49893,-0.00483341,-0.00810525,1.70991,-0.267076,-0.0234649,0.000364148,0.000796858,-0.0780468,0.2,0.2,0,1.28,0,0,0,0.2,-0.2,0,1.28,0,0,0,-1.48927,-0.00475464,-0.00804187,1.69517,-0.262015,-0.0233553,-1.49893,-0.00483341,-0.00810525,1.70991,-0.267076,-0.0234649,0.000364148,0.000796858,-0.0780468,0.2,0.2,0,1.28,0,0,0,0.2,-0.2,0,1.28,0,0,0
gen_000131_tz+0.03_tx+0.01_ty+0.00_p-0.05_fx+0.02_fy+0.00,-0.238182,1.4899476,0.486344,0.999773,0.00750665,0.0197905,0.00236931,-1.47845,-0.004786,-0.00804908,1.67603,-0.237081,-0.0233421,-1.4882,-0.0048661,-0.00811151,1.69076,-0.242045,-0.0234515,0.000369237,0.000849349,-0.0614388,0.2,0.2,0,1.28,0,0,0,0.2,-0.2,0,1.28,0,0,0,-1.47845,-0.004786,-0.00804908,1.67603,-0.237081,-0.0233421,-1.4882,-0.0048661,-0.00811151,1.69076,-0.242045,-0.0234515,0.000369237,0.000849349,-0.0614388,0.2,0.2,0,1.28,0,0,0,0.2,-0.2,0,1.28,0,0,0
gen_000132_tz+0.03_tx+0.01_ty+0.00_p-0.05_fx+0.03_fy+0.00,-0.237427,1.4899484,0.486365,0.999902,0.00750084,0.0115963,0.00229997,-1.46722,-0.00481443,-0.00806267,1.65615,-0.212053,-0.0233297,-1.47706,-0.00489579,-0.00812418,1.67088,-0.216931,-0.0234389,0.000371061,0.000904854,-0.0450675,0.2,0.2,0,1.28,0,0,0,0.2,-0.2,0,1.28,0,0,0,-1.46722,-0.00481443,-0.00806267,1.65615,-0.212053,-0.0233297,-1.47706,-0.00489579,-0.00812418,1.67088,-0.216931,-0.0234389,0.000371061,0.000904854,-0.0450675,0.2,0.2,0,1.28,0,0,0,0.2,-0.2,0,1.28,0,0,0
gen_000133_tz+0.03_tx+0.02_ty+0.00_p-0.05_fx-0.03_fy+0.00,-0.232893,1.4899377,0.486464,0.997429,0.00752126,0.0712138,0.00280449,-1.53686,-0.00450577,-0.00802742,1.77998,-0.38553,-0.0234147,-1.54601,-0.00457653,-0.00809652,1.79483,-0.391209,-0.0235254,0.000331406,0.000522962,-0.164299,0.2,0.2,0,1.28,0,0,0,0.2,-0.2,0,1.28,0,0,0,-1.53686,-0.00450577,-0.00802742,1.77998,-0.38553,-0.0234147,-1.54601,-0.00457653,-0.00809652,1.79483,-0.391209,-0.0235254,0.000331406,0.000522962,-0.164299,0.2,0.2,0,1.28,0,0,0,0.2,-0.2,0,1.28,0,0,0
gen_000134_tz+0.03_tx+0.02_ty+0.00_p-0.05_fx-0.02_fy+0.00,-0.232086,1.4899399,0.486412,0.998021,0.00752058,0.0623731,0.00272994,-1.52818,-0.00456606,-0.00802655,1.76448,-0.360996,-0.0234035,-1.53744,-0.00463862,-0.00809442,1.77929,-0.366533,-0.0235139,0.000340572,0.000578014,-0.146594,0.2,0.2,0,1.28,0,0,0,0.2,-0.2,0,1.28,0,0,0,-1.52818,-0.00456606,-0.00802655,1.76448,-0.360996,-0.0234035,-1.53744,-0.00463862,-0.00809442,1.77929,-0.366533,-0.0235139,0.000340572,0.000578014,-0.146594,0.2,0.2,0,1.28,0,0,0,0.2,-0.2,0,1.28,0,0,0
gen_000135_tz+0.03_tx+0.02_ty+0.00_p-0.05_fx-0.01_fy+0.00,-0.231288,1.4899419,0.486373,0.998528,0.0075191,0.0536426,0.00265636,-1.51908,-0.00462124,-0.00802739,1.74824,-0.336374,-0.0233919,-1.52845,-0.0046955,-0.00809406,1.76303,-0.341778,-0.0235021,0.000348271,0.000632959,-0.12912,0.2,0.2,0,1.28,0,0,0,0.2,-0.2,0,1.28,0,0,0,-1.51908,-0.00462124,-0.00802739,1.74824,-0.336374,-0.0233919,-1.52845,-0.0046955,-0.00809406,1.76303,-0.341778,-0.0235021,0.000348271,0.000632959,-0.12912,0.2,0.2,0,1.28,0,0,0,0.2,-0.2,0,1.28,0,0,0
gen_000136_tz+0.03_tx+0.02_ty+0.00_p-0.05_fx+0.00_fy+0.00,-0.230499,1.4899437,0.486347,0.998954,0.00751682,0.0450237,0.00258373,-1.50958,-0.00467126,-0.0080302,1.73128,-0.311665,-0.02338,-1.51905,-0.00474711,-0.00809572,1.74604,-0.316946,-0.02349,0.000354582,0.000687834,-0.111879,0.2,0.2,0,1.28,0,0,0,0.2,-0.2,0,1.28,0,0,0,-1.50958,-0.00467126,-0.0080302,1.73128,-0.311665,-0.02338,-1.51905,-0.00474711,-0.00809572,1.74604,-0.316946,-0.02349,0.000354582,0.000687834,-0.111879,0.2,0.2,0,1.28,0,0,0,0.2,-0.2,0,1.28,0,0,0
gen_000137_tz+0.03_tx+0.02_ty+0.00_p-0.05_fx+0.01_fy+0.00,-0.229718,1.4899452,0.486334,0.999302,0.00751382,0.0365109,0.00251188,-1.49964,-0.00471582,-0.00803501,1.71359,-0.286878,-0.0233677,-1.50921,-0.00479318,-0.00809943,1.72833,-0.292045,-0.0234776,0.000359784,0.000742499,-0.0948565,0.2,0.2,0,1.28,0,0,0,0.2,-0.2,0,1.28,0,0,0,-1.49964,-0.00471582,-0.00803501,1.71359,-0.286878,-0.0233677,-1.50921,-0.00479318,-0.00809943,1.72833,-0.292045,-0.0234776,0.000359784,0.000742499,-0.0948565,0.2,0.2,0,1.28,0,0,0,0.2,-0.2,0,1.28,0,0,0
gen_000138_tz+0.03_tx+0.02_ty+0.00_p-0.05_fx+0.02_fy+0.00,-0.228946,1.4899465,0.486333,0.999574,0.00751017,0.0281015,0.00244068,-1.48927,-0.00475463,-0.00804186,1.69517,-0.262015,-0.0233553,-1.49894,-0.0048334,-0.00810525,1.70991,-0.267076,-0.0234649,0.000364156,0.000796849,-0.078047,0.2,0.2,0,1.28,0,0,0,0.2,-0.2,0,1.28,0,0,0,-1.48927,-0.00475463,-0.00804186,1.69517,-0.262015,-0.0233553,-1.49894,-0.0048334,-0.00810525,1.70991,-0.267076,-0.0234649,0.000364156,0.000796849,-0.078047,0.2,0.2,0,1.28,0,0,0,0.2,-0.2,0,1.28,0,0,0
gen_000139_tz+0.03_tx+0.02_ty+0.00_p-0.05_fx+0.03_fy+0.00,-0.228182,1.4899476,0.486344,0.999773,0.0075068,0.0197901,0.00236917,-1.47845,-0.00478571,-0.00804871,1.67603,-0.237081,-0.023342,-1.4882,-0.00486581,-0.00811115,1.69076,-0.242045,-0.0234515,0.000369495,0.000849047,-0.061438,0.2,0.2,0,1.28,0,0,0,0.2,-0.2,0,1.28,0,0,0,-1.47845,-0.00478571,-0.00804871,1.67603,-0.237081,-0.023342,-1.4882,-0.00486581,-0.00811115,1.69076,-0.242045,-0.0234515,0.000369495,0.000849047,-0.061438,0.2,0.2,0,1.28,0,0,0,0.2,-0.2,0,1.28,0,0,0
gen_000140_tz+0.03_tx+0.03_ty+0.00_p-0.05_fx-0.03_fy+0.00,-0.223709,1.4899351,0.486531,0.996749,0.00752107,0.080169,0.00288013,-1.54515,-0.00444063,-0.00802994,1.79476,-0.409966,-0.0234256,-1.55418,-0.00450948,-0.00810032,1.80963,-0.415795,-0.0235365,0.000320551,0.000467952,-0.182245,0.2,0.2,0,1.28,0,0,0,0.2,-0.2,0,1.28,0,0,0,-1.54515,-0.00444063,-0.00802994,1.79476,-0.409966,-0.0234256,-1.55418,-0.00450948,-0.00810032,1.80963,-0.415795,-0.0235365,0.000320551,0.000467952,-0.182245,0.2,0.2,0,1.28,0,0,0,0.2,-0.2,0,1.28,0,0,0
gen_000141_tz+0.03_tx+0.03_ty+0.00_p-0.05_fx-0.02_fy+0.00,-0.222893,1.4899377,0.486464,0.997429,0.00752126,0.0712139,0.00280449,-1.53686,-0.00450577,-0.00802742,1.77998,-0.38553,-0.0234147,-1.54601,-0.00457653,-0.00809652,1.79483,-0.391208,-0.0235254,0.000331405,0.000522963,-0.164299,0.2,0.2,0,1.28,0,0,0,0.2,-0.2,0,1.28,0,0,0,-1.53686,-0.00450577,-0.00802742,1.77998,-0.38553,-0.0234147,-1.54601,-0.00457653,-0.00809652,1.79483,-0.391208,-0.0235254,0.000331405,0.000522963,-0.164299,0.2,0.2,0,1.28,0,0,0,0.2,-0.2,0,1.28,0,0,0
gen_000142_tz+0.03_tx+0.03_ty+0.00_p-0.05_fx-0.01_fy+0.00,-0.222086,1.4899399,0.486412,0.998021,0.0075206,0.0623721,0.00272992,-1.52817,-0.00456603,-0.00802652,1.76448,-0.360997,-0.0234035,-1.53744,-0.00463858,-0.00809438,1.77929,-0.366534,-0.0235139,0.000340597,0.000577987,-0.146592,0.2,0.2,0,1.28,0,0,0,0.2,-0.2,0,1.28,0,0,0,-1.52817,-0.00456603,-0.00802652,1.76448,-0.360997,-0.0234035,-1.53744,-0.00463858,-0.00809438,1.77929,-0.366534,-0.0235139,0.000340597,0.000577987,-0.146592,0.2,0.2,0,1.28,0,0,0,0.2,-0.2,0,1.28,0,0,0
gen_000143_tz+0.03_tx+0.03_ty+0.00_p-0.05_fx+0.00_fy+0.00,-0.221288,1.4899419,0.486373,0.998528,0.0075191,0.0536426,0.00265636,-1.51908,-0.00462124,-0.00802739,1.74824,-0.336374,-0.0233919,-1.52845,-0.00469549,-0.00809406,1.76303,-0.341778,-0.0235021,0.000348272,0.000632958,-0.12912,0.2,0.2,0,1.28,0,0,0,0.2,-0.2,0,1.28,0,0,0,-1.51908,-0.00462124,-0.00802739,1.74824,-0.336374,-0.0233919,-1.52845,-0.00469549,-0.00809406,1.76303,-0.341778,-0.0235021,0.000348272,0.000632958,-0.12912,0.2,0.2,0,1.28,0,0,0,0.2,-0.2,0,1.28,0,0,0
gen_000144_tz+0.03_tx+0.03_ty+0.00_p-0.05_fx+0.01_fy+0.00,-0.220499,1.4899437,0.486347,0.998954,0.00751682,0.0450237,0.00258373,-1.50958,-0.00467126,-0.0080302,1.73128,-0.311665,-0.02338,-1.51905,-0.00474711,-0.00809572,1.74604,-0.316946,-0.02349,0.000354585,0.000687831,-0.111879,0.2,0.2,0,1.28,0,0,0,0.2,-0.2,0,1.28,0,0,0,-1.50958,-0.00467126,-0.0080302,1.73128,-0.311665,-0.02338,-1.51905,-0.00474711,-0.00809572,1.74604,-0.316946,-0.02349,0.000354585,0.000687831,-0.111879,0.2,0.2,0,1.28,0,0,0,0.2,-0.2,0,1.28,0,0,0
gen_000145_tz+0.03_tx+0.03_ty+0.00_p-0.05_fx+0.02_fy+0.00,-0.219718,1.4899452,0.486334,0.999302,0.00751382,0.0365109,0.00251188,-1.49964,-0.00471582,-0.008035,1.71359,-0.286878,-0.0233677,-1.50921,-0.00479317,-0.00809942,1.72833,-0.292045,-0.0234776,0.000359788,0.000742493,-0.0948566,0.2,0.2,0,1.28,0,0,0,0.2,-0.2,0,1.28,0,0,0,-1.49964,-0.00471582,-0.008035,1.71359,-0.286878,-0.0233677,-1.50921,-0.00479317,-0.00809942,1.72833,-0.292045,-0.0234776,0.000359788,0.000742493,-0.0948566,0.2,0.2,0,1.28,0,0,0,0.2,-0.2,0,1.28,0,0,0
gen_000146_tz+0.03_tx+0.03_ty+0.00_p-0.05_fx+0.03_fy+0.00,-0.218946,1.4899465,0.486333,0.999574,0.00751017,0.0281017,0.00244068,-1.48927,-0.00475462,-0.00804185,1.69517,-0.262015,-0.0233553,-1.49894,-0.00483339,-0.00810524,1.70991,-0.267076,-0.0234649,0.000364164,0.000796841,-0.0780473,0.2,0.2,0,1.28,0,0,0,0.2,-0.2,0,1.28,0,0,0,-1.48927,-0.00475462,-0.00804185,1.69517,-0.262015,-0.0233553,-1.49894,-0.00483339,-0.00810524,1.70991,-0.267076,-0.0234649,0.000364164,0.000796841,-0.0780473,0.2,0.2,0,1.28,0,0,0,0.2,-0.2,0,1.28,0,0,0
gen_000147_tz+0.03_tx-0.03_ty+0.01_p-0.05_fx-0.03_fy+0.00,-0.278942,1.499189387,0.486328,0.999603,-0.000892505,0.0280803,0.00228998,-1.49531,-0.00479536,-0.00378203,1.70221,-0.262935,-0.00232914,-1.49339,-0.00478226,-0.00374842,1.70373,-0.266362,-0.0022862,0.00113333,0.0175715,-0.0780542,0.2,0.2,0,1.28,0,0,0,0.2,-0.2,0,1.28,0,0,0,-1.49531,-0.00479536,-0.00378203,1.70221,-0.262935,-0.00232914,-1.49339,-0.00478226,-0.00374842,1.70373,-0.266362,-0.0022862,0.00113333,0.0175715,-0.0780542,0.2,0.2,0,1.28,0,0,0,0.2,-0.2,0,1.28,0,0,0
gen_000148_tz+0.03_tx-0.03_ty+0.01_p-0.05_fx-0.02_fy+0.00,-0.278179,1.499190685,0.486339,0.999802,-0.000885156,0.0197731,0.00225614,-1.48451,-0.00473637,-0.00376983,1.68306,-0.237978,-0.00231588,-1.48266,-0.00472322,-0.00373618,1.68459,-0.241341,-0.00227331,0.00092368,0.0176092,-0.0614518,0.2,0.2,0,1.28,0,0,0,0.2,-0.2,0,1.28,0,0,0,-1.48451,-0.00473637,-0.00376983,1.68306,-0.237978,-0.00231588,-1.48266,-0.00472322,-0.00373618,1.68459,-0.241341,-0.00227331,0.00092368,0.0176092,-0.0614518,0.2,0.2,0,1.28,0,0,0,0.2,-0.2,0,1.28,0,0,0
gen_000149_tz+0.03_tx-0.03_ty+0.01_p-0.05_fx-0.01_fy+0.00,-0.277423,1.499191725,0.48636,0.99993,-0.000880022,0.0115677,0.00222534,-1.47327,-0.00468138,-0.00376527,1.66318,-0.212945,-0.00230408,-1.47148,-0.0046682,-0.00373158,1.66472,-0.216249,-0.00226185,0.000710537,0.0176475,-0.0450561,0.2,0.2,0,1.28,0,0,0,0.2,-0.2,0,1.28,0,0,0,-1.47327,-0.00468138,-0.00376527,1.66318,-0.212945,-0.00230408,-1.47148,-0.0046682,-0.00373158,1.66472,-0.216249,-0.00226185,0.000710537,0.0176475,-0.0450561,0.2,0.2,0,1.28,0,0,0,0.2,-0.2,0,1.28,0,0,0
gen_000150_tz+0.03_tx-0.03_ty+0.01_p-0.05_fx+0.00_fy+0.00,-0.276674,1.49919244,0.486393,0.999991,-0.000878001,0.00343985,0.00219804,-1.46152,-0.00463138,-0.00377062,1.64259,-0.187856,-0.00229418,-1.4598,-0.00461815,-0.00373691,1.64414,-0.191106,-0.00225227,0.000492161,0.0176882,-0.0288176,0.2,0.2,0,1.28,0,0,0,0.2,-0.2,0,1.28,0,0,0,-1.46152,-0.00463138,-0.00377062,1.64259,-0.187856,-0.00229418,-1.4598,-0.00461815,-0.00373691,1.64414,-0.191106,-0.00225227,0.000492161,0.0176882,-0.0288176,0.2,0.2,0,1.28,0,0,0,0.2,-0.2,0,1.28,0,0,0
gen_000151_tz+0.03_tx-0.03_ty+0.01_p-0.05_fx+0.01_fy+0.00,-0.275932,1.499193493,0.486435,0.999987,-0.000871572,-0.00461173,0.00217063,-1.44926,-0.00457796,-0.00376676,1.62128,-0.162707,-0.00228163,-1.44761,-0.00456474,-0.00373304,1.62284,-0.165906,-0.00224006,0.00027568,0.0177163,-0.0127328,0.2,0.2,0,1.28,0,0,0,0.2,-0.2,0,1.28,0,0,0,-1.44926,-0.00457796,-0.00376676,1.62128,-0.162707,-0.00228163,-1.44761,-0.00456474,-0.00373304,1.62284,-0.165906,-0.00224006,0.00027568,0.0177163,-0.0127328,0.2,0.2,0,1.28,0,0,0,0.2,-0.2,0,1.28,0,0,0
gen_000152_tz+0.03_tx-0.03_ty+0.01_p-0.05_fx+0.02_fy+0.00,-0.275194,1.4991947,0.486488,0.999918,-0.000862884,-0.0125938,0.002144,-1.43648,-0.00452328,-0.00375914,1.59925,-0.137498,-0.00226773,-1.43489,-0.00451012,-0.00372542,1.60082,-0.140647,-0.00222652,5.93269e-05,0.0177361,0.00321283,0.2,0.2,0,1.28,0,0,0,0.2,-0.2,0,1.28,0,0,0,-1.43648,-0.00452328,-0.00375914,1.59925,-0.137498,-0.00226773,-1.43489,-0.00451012,-0.00372542,1.60082,-0.140647,-0.00222652,5.93269e-05,0.0177361,0.00321283,0.2,0.2,0,1.28,0,0,0,0.2,-0.2,0,1.28,0,0,0
gen_000153_tz+0.03_tx-0.03_ty+0.01_p-0.05_fx+0.03_fy+0.00,-0.274462,1.499196031,0.48655,0.999787,-0.000852286,-0.0205144,0.00211822,-1.42316,-0.00446757,-0.00374861,1.57648,-0.112228,-0.00225267,-1.42164,-0.00445451,-0.0037149,1.57807,-0.115328,-0.00221184,-0.000157156,0.0177484,0.0190366,0.2,0.2,0,1.28,0,0,0,0.2,-0.2,0,1.28,0,0,0,-1.42316,-0.00446757,-0.00374861,1.57648,-0.112228,-0.00225267,-1.42164,-0.00445451,-0.0037149,1.57807,-0.115328,-0.00221184,-0.000157156,0.0177484,0.0190366,0.2,0.2,0,1.28,0,0,0,0.2,-0.2,0,1.28,0,0,0
gen_000154_tz+0.03_tx-0.02_ty+0.01_p-0.05_fx-0.03_fy+0.00,-0.269714,1.499188407,0.486329,0.999331,-0.000895551,0.0364884,0.00232387,-1.50566,-0.00485127,-0.00378538,1.72064,-0.287823,-0.00233989,-1.50368,-0.00483826,-0.00375184,1.72215,-0.291314,-0.00229662,0.00134499,0.017521,-0.094863,0.2,0.2,0,1.28,0,0,0,0.2,-0.2,0,1.28,0,0,0,-1.50566,-0.00485127,-0.00378538,1.72064,-0.287823,-0.00233989,-1.50368,-0.00483826,-0.00375184,1.72215,-0.291314,-0.00229662,0.00134499,0.017521,-0.094863,0.2,0.2,0,1.28,0,0,0,0.2,-0.2,0,1.28,0,0,0
gen_000155_tz+0.03_tx-0.02_ty+0.01_p-0.05_fx-0.02_fy+0.00,-0.268942,1.499189421,0.486328,0.999603,-0.000892134,0.0280797,0.00228977,-1.49531,-0.00479489,-0.0037811,1.70221,-0.262936,-0.00232891,-1.49339,-0.00478179,-0.00374749,1.70373,-0.266362,-0.00228598,0.00113369,0.0175707,-0.078053,0.2,0.2,0,1.28,0,0,0,0.2,-0.2,0,1.28,0,0,0,-1.49531,-0.00479489,-0.0037811,1.70221,-0.262936,-0.00232891,-1.49339,-0.00478179,-0.00374749,1.70373,-0.266362,-0.00228598,0.00113369,0.0175707,-0.078053,0.2,0.2,0,1.28,0,0,0,0.2,-0.2,0,1.28,0,0,0
gen_000156_tz+0.03_tx-0.02_ty+0.01_p-0.05_fx-0.01_fy+0.00,-0.268179,1.499190677,0.486339,0.999802,-0.000885244,0.0197735,0.00225615,-1.48451,-0.0047364,-0.00377006,1.68306,-0.237978,-0.00231594,-1.48266,-0.00472326,-0.00373641,1.68459,-0.24134,-0.00227337,0.000923677,0.0176094,-0.0614525,0.2,0.2,0,1.28,0,0,0,0.2,-0.2,0,1.28,0,0,0,-1.48451,-0.0047364,-0.00377006,1.68306,-0.237978,-0.00231594,-1.48266,-0.00472326,-0.00373641,1.68459,-0.24134,-0.00227337,0.000923677,0.0176094,-0.0614525,0.2,0.2,0,1.28,0,0,0,0.2,-0.2,0,1.28,0,0,0
gen_000157_tz+0.03_tx-0.02_ty+0.01_p-0.05_fx+0.00_fy+0.00,-0.267423,1.499191719,0.48636,0.99993,-0.000880092,0.011568,0.00222535,-1.47327,-0.00468141,-0.00376545,1.66318,-0.212945,-0.00230412,-1.47148,-0.00466823,-0.00373176,1.66472,-0.216249,-0.00226189,0.000710528,0.0176477,-0.0450567,0.2,0.2,0,1.28,0,0,0,0.2,-0.2,0,1.28,0,0,0,-1.47327,-0.00468141,-0.00376545,1.66318,-0.212945,-0.00230412,-1.47148,-0.00466823,-0.00373176,1.66472,-0.216249,-0.00226189,0.000710528,0.0176477,-0.0450567,0.2,0.2,0,1.28,0,0,0,0.2,-0.2,0,1.28,0,0,0
gen_000158_tz+0.03_tx-0.02_ty+0.01_p-0.05_fx+0.01_fy+0.00,-0.266674,1.499192438,0.486393,0.999991,-0.000878017,0.00344,0.00219804,-1.46152,-0.00463139,-0.00377066,1.64259,-0.187856,-0.00229419,-1.4598,-0.00461816,-0.00373695,1.64414,-0.191106,-0.00225228,0.000492158,0.0176883,-0.0288179,0.2,0.2,0,1.28,0,0,0,0.2,-0.2,0,1.28,0,0,0,-1.46152,-0.00463139,-0.00377066,1.64259,-0.187856,-0.00229419,-1.4598,-0.00461816,-0.00373695,1.64414,-0.191106,-0.00225228,0.000492158,0.0176883,-0.0288179,0.2,0.2,0,1.28,0,0,0,0.2,-0.2,0,1.28,0,0,0
gen_000159_tz+0.03_tx-0.02_ty+0.01_p-0.05_fx+0.02_fy+0.00,-0.265932,1.499193493,0.486435,0.999987,-0.00087157,-0.00461162,0.00217063,-1.44926,-0.00457796,-0.00376676,1.62128,-0.162707,-0.00228163,-1.44761,-0.00456474,-0.00373304,1.62284,-0.165906,-0.00224006,0.000275683,0.0177163,-0.012733,0.2,0.2,0,1.28,0,0,0,0.2,-0.2,0,1.28,0,0,0,-1.44926,-0.00457796,-0.00376676,1.62128,-0.162707,-0.00228163,-1.44761,-0.00456474,-0.00373304,1.62284,-0.165906,-0.00224006,0.000275683,0.0177163,-0.012733,0.2,0.2,0,1.28,0,0,0,0.2,-0.2,0,1.28,0,0,0
gen_000160_tz+0.03_tx-0.02_ty+0.01_p-0.05_fx+0.03_fy+0.00,-0.265195,1.4991947,0.486488,0.999918,-0.000862877,-0.0125937,0.002144,-1.43648,-0.00452328,-0.00375912,1.59925,-0.137498,-0.00226772,-1.4349,-0.00451012,-0.0037254,1.60082,-0.140647,-0.00222651,5.93317e-05,0.0177361,0.00321263,0.2,0.2,0,1.28,0,0,0,0.2,-0.2,0,1.28,0,0,0,-1.43648,-0.00452328,-0.00375912,1.59925,-0.137498,-0.00226772,-1.4349,-0.00451012,-0.0037254,1.60082,-0.140647,-0.00222651,5.93317e-05,0.0177361,0.00321263,0.2,0.2,0,1.28,0,0,0,0.2,-0.2,0,1.28,0,0,0
gen_000161_tz+0.03_tx-0.01_ty+0.01_p-0.05_fx-0.03_fy+0.00,-0.260495,1.49918757,0.486343,0.998984,-0.000896213,0.0450006,0.00235873,-1.51558,-0.00490624,-0.00378483,1.73834,-0.312638,-0.00234931,-1.51352,-0.00489339,-0.00375136,1.73985,-0.316195,-0.00230571,0.0015568,0.0174616,-0.111886,0.2,0.2,0,1.28,0,0,0,0.2,-0.2,0,1.28,0,0,0,-1.51558,-0.00490624,-0.00378483,1.73834,-0.312638,-0.00234931,-1.51352,-0.00489339,-0.00375136,1.73985,-0.316195,-0.00230571,0.0015568,0.0174616,-0.111886,0.2,0.2,0,1.28,0,0,0,0.2,-0.2,0,1.28,0,0,0
gen_000162_tz+0.03_tx-0.01_ty+0.01_p-0.05_fx-0.02_fy+0.00,-0.259714,1.499188404,0.486329,0.999331,-0.000895586,0.0364885,0.00232387,-1.50567,-0.00485128,-0.00378547,1.72064,-0.287823,-0.00233991,-1.50368,-0.00483828,-0.00375193,1.72215,-0.291314,-0.00229664,0.00134499,0.017521,-0.0948634,0.2,0.2,0,1.28,0,0,0,0.2,-0.2,0,1.28,0,0,0,-1.50567,-0.00485128,-0.00378547,1.72064,-0.287823,-0.00233991,-1.50368,-0.00483828,-0.00375193,1.72215,-0.291314,-0.00229664,0.00134499,0.017521,-0.0948634,0.2,0.2,0,1.28,0,0,0,0.2,-0.2,0,1.28,0,0,0
gen_000163_tz+0.03_tx-0.01_ty+0.01_p-0.05_fx-0.01_fy+0.00,-0.258942,1.499189416,0.486328,0.999603,-0.000892184,0.0280799,0.00228978,-1.49531,-0.00479492,-0.00378123,1.70221,-0.262936,-0.00232895,-1.49339,-0.00478181,-0.00374763,1.70373,-0.266362,-0.00228601,0.00113369,0.0175708,-0.0780535,0.2,0.2,0,1.28,0,0,0,0.2,-0.2,0,1.28,0,0,0,-1.49531,-0.00479492,-0.00378123,1.70221,-0.262936,-0.00232895,-1.49339,-0.00478181,-0.00374763,1.70373,-0.266362,-0.00228601,0.00113369,0.0175708,-0.0780535,0.2,0.2,0,1.28,0,0,0,0.2,-0.2,0,1.28,0,0,0
gen_000164_tz+0.03_tx-0.01_ty+0.01_p-0.05_fx+0.00_fy+0.00,-0.258179,1.499190672,0.486339,0.999802,-0.000885304,0.0197738,0.00225616,-1.48451,-0.00473643,-0.00377022,1.68306,-0.237977,-0.00231598,-1.48266,-0.00472329,-0.00373657,1.68459,-0.24134,-0.00227341,0.000923669,0.0176095,-0.0614532,0.2,0.2,0,1.28,0,0,0,0.2,-0.2,0,1.28,0,0,0,-1.48451,-0.00473643,-0.00377022,1.68306,-0.237977,-0.00231598,-1.48266,-0.00472329,-0.00373657,1.68459,-0.24134,-0.00227341,0.000923669,0.0176095,-0.0614532,0.2,0.2,0,1.28,0,0,0,0.2,-0.2,0,1.28,0,0,0
gen_000165_tz+0.03_tx-0.01_ty+0.01_p-0.05_fx+0.01_fy+0.00,-0.257423,1.499191652,0.48636,0.99993,-0.000880851,0.0115678,0.0022257,-1.47327,-0.00468224,-0.00376738,1.66318,-0.212945,-0.00230458,-1.47148,-0.00466905,-0.00373369,1.66472,-0.216249,-0.00226235,0.000709836,0.0176492,-0.0450562,0.2,0.2,0,1.28,0,0,0,0.2,-0.2,0,1.28,0,0,0,-1.47327,-0.00468224,-0.00376738,1.66318,-0.212945,-0.00230458,-1.47148,-0.00466905,-0.00373369,1.66472,-0.216249,-0.00226235,0.000709836,0.0176492,-0.0450562,0.2,0.2,0,1.28,0,0,0,0.2,-0.2,0,1.28,0,0,0
gen_000166_tz+0.03_tx-0.01_ty+0.01_p-0.05_fx+0.02_fy+0.00,-0.256674,1.499192439,0.486393,0.999991,-0.000878004,0.00344018,0.00219804,-1.46152,-0.00463138,-0.00377062,1.64259,-0.187855,-0.00229418,-1.4598,-0.00461815,-0.00373691,1.64414,-0.191106,-0.00225227,0.000492166,0.0176882,-0.0288183,0.2,0.2,0,1.28,0,0,0,0.2,-0.2,0,1.28,0,0,0,-1.46152,-0.00463138,-0.00377062,1.64259,-0.187855,-0.00229418,-1.4598,-0.00461815,-0.00373691,1.64414,-0.191106,-0.00225227,0.000492166,0.0176882,-0.0288183,0.2,0.2,0,1.28,0,0,0,0.2,-0.2,0,1.28,0,0,0
gen_000167_tz+0.03_tx-0.01_ty+0.01_p-0.05_fx+0.03_fy+0.00,-0.255932,1.499193495,0.486435,0.999987,-0.000871554,-0.00461147,0.00217063,-1.44926,-0.00457796,-0.00376672,1.62128,-0.162707,-0.00228162,-1.44761,-0.00456474,-0.003733,1.62284,-0.165906,-0.00224005,0.000275691,0.0177162,-0.0127333,0.2,0.2,0,1.28,0,0,0,0.2,-0.2,0,1.28,0,0,0,-1.44926,-0.00457796,-0.00376672,1.62128,-0.162707,-0.00228162,-1.44761,-0.00456474,-0.003733,1.62284,-0.165906,-0.00224005,0.000275691,0.0177162,-0.0127333,0.2,0.2,0,1.28,0,0,0,0.2,-0.2,0,1.28,0,0,0
gen_000168_tz+0.03_tx+0.00_ty+0.01_p-0.05_fx-0.03_fy+0.00,-0.251284,1.499186836,0.486368,0.998558,-0.000894913,0.0536209,0.00239479,-1.52507,-0.00496085,-0.00378149,1.75531,-0.337376,-0.00235768,-1.52295,-0.00494818,-0.00374809,1.75683,-0.341002,-0.00231377,0.00176828,0.017394,-0.129132,0.2,0.2,0,1.28,0,0,0,0.2,-0.2,0,1.28,0,0,0,-1.52507,-0.00496085,-0.00378149,1.75531,-0.337376,-0.00235768,-1.52295,-0.00494818,-0.00374809,1.75683,-0.341002,-0.00231377,0.00176828,0.017394,-0.129132,0.2,0.2,0,1.28,0,0,0,0.2,-0.2,0,1.28,0,0,0
gen_000169_tz+0.03_tx+0.00_ty+0.01_p-0.05_fx-0.02_fy+0.00,-0.250495,1.499187568,0.486343,0.998984,-0.000896237,0.0450007,0.00235873,-1.51558,-0.00490626,-0.00378489,1.73834,-0.312638,-0.00234932,-1.51352,-0.0048934,-0.00375142,1.73985,-0.316195,-0.00230573,0.0015568,0.0174616,-0.111886,0.2,0.2,0,1.28,0,0,0,0.2,-0.2,0,1.28,0,0,0,-1.51558,-0.00490626,-0.00378489,1.73834,-0.312638,-0.00234932,-1.51352,-0.0048934,-0.00375142,1.73985,-0.316195,-0.00230573,0.0015568,0.0174616,-0.111886,0.2,0.2,0,1.28,0,0,0,0.2,-0.2,0,1.28,0,0,0
gen_000170_tz+0.03_tx+0.00_ty+0.01_p-0.05_fx-0.01_fy+0.00,-0.249714,1.499188402,0.486329,0.999331,-0.000895614,0.0364887,0.00232388,-1.50567,-0.0048513,-0.00378555,1.72064,-0.287823,-0.00233993,-1.50368,-0.00483829,-0.003752,1.72215,-0.291314,-0.00229666,0.00134499,0.0175211,-0.0948637,0.2,0.2,0,1.28,0,0,0,0.2,-0.2,0,1.28,0,0,0,-1.50567,-0.0048513,-0.00378555,1.72064,-0.287823,-0.00233993,-1.50368,-0.00483829,-0.003752,1.72215,-0.291314,-0.00229666,0.00134499,0.0175211,-0.0948637,0.2,0.2,0,1.28,0,0,0,0.2,-0.2,0,1.28,0,0,0
gen_000171_tz+0.03_tx+0.00_ty+0.01_p-0.05_fx+0.00_fy+0.00,-0.248942,1.499189414,0.486328,0.999603,-0.000892208,0.0280801,0.00228979,-1.49531,-0.00479494,-0.00378129,1.70221,-0.262936,-0.00232896,-1.49339,-0.00478183,-0.00374769,1.70373,-0.266362,-0.00228603,0.00113368,0.0175709,-0.0780539,0.2,0.2,0,1.28,0,0,0,0.2,-0.2,0,1.28,0,0,0,-1.49531,-0.00479494,-0.00378129,1.70221,-0.262936,-0.00232896,-1.49339,-0.00478183,-0.00374769,1.70373,-0.266362,-0.00228603,0.00113368,0.0175709,-0.0780539,0.2,0.2,0,1.28,0,0,0,0.2,-0.2,0,1.28,0,0,0
gen_000172_tz+0.03_tx+0.00_ty+0.01_p-0.05_fx+0.01_fy+0.00,-0.248179,1.499190741,0.486339,0.999802,-0.000884518,0.0197737,0.0022558,-1.48451,-0.00473559,-0.00376822,1.68306,-0.237978,-0.0023155,-1.48266,-0.00472246,-0.00373457,1.68459,-0.24134,-0.00227293,0.000924342,0.0176079,-0.0614528,0.2,0.2,0,1.28,0,0,0,0.2,-0.2,0,1.28,0,0,0,-1.48451,-0.00473559,-0.00376822,1.68306,-0.237978,-0.0023155,-1.48266,-0.00472246,-0.00373457,1.68459,-0.24134,-0.00227293,0.000924342,0.0176079,-0.0614528,0.2,0.2,0,1.28,0,0,0,0.2,-0.2,0,1.28,0,0,0
gen_000173_tz+0.03_tx+0.00_ty+0.01_p-0.05_fx+0.02_fy+0.00,-0.247423,1.499191656,0.48636,0.99993,-0.000880805,0.0115681,0.0022257,-1.47327,-0.00468222,-0.00376725,1.66318,-0.212944,-0.00230455,-1.47148,-0.00466903,-0.00373357,1.66472,-0.216249,-0.00226232,0.000709854,0.0176491,-0.0450568,0.2,0.2,0,1.28,0,0,0,0.2,-0.2,0,1.28,0,0,0,-1.47327,-0.00468222,-0.00376725,1.66318,-0.212944,-0.00230455,-1.47148,-0.00466903,-0.00373357,1.66472,-0.216249,-0.00226232,0.000709854,0.0176491,-0.0450568,0.2,0.2,0,1.28,0,0,0,0.2,-0.2,0,1.28,0,0,0
gen_000174_tz+0.03_tx+0.00_ty+0.01_p-0.05_fx+0.03_fy+0.00,-0.246674,1.499192442,0.486393,0.999991,-0.00087797,0.00344038,0.00219804,-1.46152,-0.00463137,-0.00377053,1.64259,-0.187855,-0.00229416,-1.4598,-0.00461814,-0.00373683,1.64414,-0.191106,-0.00225225,0.000492179,0.0176882,-0.0288187,0.2,0.2,0,1.28,0,0,0,0.2,-0.2,0,1.28,0,0,0,-1.46152,-0.00463137,-0.00377053,1.64259,-0.187855,-0.00229416,-1.4598,-0.00461814,-0.00373683,1.64414,-0.191106,-0.00225225,0.000492179,0.0176882,-0.0288187,0.2,0.2,0,1.28,0,0,0,0.2,-0.2,0,1.28,0,0,0
gen_000175_tz+0.03_tx+0.01_ty+0.01_p-0.05_fx-0.03_fy+0.00,-0.242083,1.499186208,0.486407,0.998051,-0.000891539,0.062351,0.002432,-1.53414,-0.00501496,-0.00377514,1.77156,-0.362033,-0.00236495,-1.53195,-0.00500254,-0.00374184,1.77309,-0.36573,-0.00232074,0.00197937,0.0173179,-0.146607,0.2,0.2,0,1.28,0,0,0,0.2,-0.2,0,1.28,0,0,0,-1.53414,-0.00501496,-0.00377514,1.77156,-0.362033,-0.00236495,-1.53195,-0.00500254,-0.00374184,1.77309,-0.36573,-0.00232074,0.00197937,0.0173179,-0.146607,0.2,0.2,0,1.28,0,0,0,0.2,-0.2,0,1.28,0,0,0
gen_000176_tz+0.03_tx+0.01_ty+0.01_p-0.05_fx-0.02_fy+0.00,-0.241284,1.499186834,0.486368,0.998558,-0.000894928,0.0536211,0.0023948,-1.52507,-0.00496085,-0.00378153,1.75531,-0.337376,-0.00235769,-1.52295,-0.00494819,-0.00374813,1.75683,-0.341002,-0.00231378,0.00176828,0.017394,-0.129133,0.2,0.2,0,1.28,0,0,0,0.2,-0.2,0,1.28,0,0,0,-1.52507,-0.00496085,-0.00378153,1.75531,-0.337376,-0.00235769,-1.52295,-0.00494819,-0.00374813,1.75683,-0.341002,-0.00231378,0.00176828,0.017394,-0.129133,0.2,0.2,0,1.28,0,0,0,0.2,-0.2,0,1.28,0,0,0
gen_000177_tz+0.03_tx+0.01_ty+0.01_p-0.05_fx-0.01_fy+0.00,-0.240495,1.499187567,0.486343,0.998984,-0.000896253,0.0450009,0.00235874,-1.51558,-0.00490627,-0.00378493,1.73834,-0.312638,-0.00234933,-1.51352,-0.00489341,-0.00375146,1.73985,-0.316195,-0.00230574,0.0015568,0.0174617,-0.111886,0.2,0.2,0,1.28,0,0,0,0.2,-0.2,0,1.28,0,0,0,-1.51558,-0.00490627,-0.00378493,1.73834,-0.312638,-0.00234933,-1.51352,-0.00489341,-0.00375146,1.73985,-0.316195,-0.00230574,0.0015568,0.0174617,-0.111886,0.2,0.2,0,1.28,0,0,0,0.2,-0.2,0,1.28,0,0,0
gen_000178_tz+0.03_tx+0.01_ty+0.01_p-0.05_fx+0.00_fy+0.00,-0.239714,1.499188401,0.486329,0.999331,-0.000895619,0.0364889,0.00232388,-1.50567,-0.00485131,-0.00378556,1.72064,-0.287822,-0.00233993,-1.50368,-0.0048383,-0.00375202,1.72215,-0.291313,-0.00229666,0.00134499,0.0175211,-0.094864,0.2,0.2,0,1.28,0,0,0,0.2,-0.2,0,1.28,0,0,0,-1.50567,-0.00485131,-0.00378556,1.72064,-0.287822,-0.00233993,-1.50368,-0.0048383,-0.00375202,1.72215,-0.291313,-0.00229666,0.00134499,0.0175211,-0.094864,0.2,0.2,0,1.28,0,0,0,0.2,-0.2,0,1.28,0,0,0
gen_000179_tz+0.03_tx+0.01_ty+0.01_p-0.05_fx+0.01_fy+0.00,-0.238942,1.499189416,0.486328,0.999603,-0.000892187,0.0280803,0.00228978,-1.49531,-0.00479493,-0.00378123,1.70221,-0.262936,-0.00232895,-1.49339,-0.00478182,-0.00374763,1.70373,-0.266362,-0.00228602,0.00113369,0.0175708,-0.0780542,0.2,0.2,0,1.28,0,0,0,0.2,-0.2,0,1.28,0,0,0,-1.49531,-0.00479493,-0.00378123,1.70221,-0.262936,-0.00232895,-1.49339,-0.00478182,-0.00374763,1.70373,-0.266362,-0.00228602,0.00113369,0.0175708,-0.0780542,0.2,0.2,0,1.28,0,0,0,0.2,-0.2,0,1.28,0,0,0
gen_000180_tz+0.03_tx+0.01_ty+0.01_p-0.05_fx+0.02_fy+0.00,-0.238179,1.499190748,0.486339,0.999802,-0.000884442,0.0197739,0.00225579,-1.48451,-0.00473556,-0.00376802,1.68306,-0.237977,-0.00231545,-1.48267,-0.00472243,-0.00373437,1.68459,-0.24134,-0.00227288,0.000924365,0.0176078,-0.0614534,0.2,0.2,0,1.28,0,0,0,0.2,-0.2,0,1.28,0,0,0,-1.48451,-0.00473556,-0.00376802,1.68306,-0.237977,-0.00231545,-1.48267,-0.00472243,-0.00373437,1.68459,-0.24134,-0.00227288,0.000924365,0.0176078,-0.0614534,0.2,0.2,0,1.28,0,0,0,0.2,-0.2,0,1.28,0,0,0
gen_000181_tz+0.03_tx+0.01_ty+0.01_p-0.05_fx+0.03_fy+0.00,-0.237423,1.499191663,0.48636,0.99993,-0.000880732,0.0115684,0.00222569,-1.47327,-0.0046822,-0.00376706,1.66318,-0.212944,-0.00230451,-1.47148,-0.00466901,-0.00373337,1.66472,-0.216249,-0.00226227,0.000709872,0.0176489,-0.0450574,0.2,0.2,0,1.28,0,0,0,0.2,-0.2,0,1.28,0,0,0,-1.47327,-0.0046822,-0.00376706,1.66318,-0.212944,-0.00230451,-1.47148,-0.00466901,-0.00373337,1.66472,-0.216249,-0.00226227,0.000709872,0.0176489,-0.0450574,0.2,0.2,0,1.28,0,0,0,0.2,-0.2,0,1.28,0,0,0
gen_000182_tz+0.03_tx+0.02_ty+0.01_p-0.05_fx-0.03_fy+0.00,-0.232889,1.499185678,0.48646,0.997459,-0.00088616,0.0711925,0.00247038,-1.54279,-0.00506872,-0.00376604,1.78708,-0.386604,-0.00237119,-1.54055,-0.00505658,-0.00373284,1.78861,-0.390375,-0.00232668,0.00218988,0.0172334,-0.164315,0.2,0.2,0,1.28,0,0,0,0.2,-0.2,0,1.28,0,0,0,-1.54279,-0.00506872,-0.00376604,1.78708,-0.386604,-0.00237119,-1.54055,-0.00505658,-0.00373284,1.78861,-0.390375,-0.00232668,0.00218988,0.0172334,-0.164315,0.2,0.2,0,1.28,0,0,0,0.2,-0.2,0,1.28,0,0,0
gen_000183_tz+0.03_tx+0.02_ty+0.01_p-0.05_fx-0.02_fy+0.00,-0.232083,1.499186207,0.486407,0.998051,-0.000891548,0.0623511,0.002432,-1.53414,-0.00501497,-0.00377517,1.77156,-0.362033,-0.00236496,-1.53195,-0.00500255,-0.00374186,1.77309,-0.36573,-0.00232074,0.00197937,0.0173179,-0.146607,0.2,0.2,0,1.28,0,0,0,0.2,-0.2,0,1.28,0,0,0,-1.53414,-0.00501497,-0.00377517,1.77156,-0.362033,-0.00236496,-1.53195,-0.00500255,-0.00374186,1.77309,-0.36573,-0.00232074,0.00197937,0.0173179,-0.146607,0.2,0.2,0,1.28,0,0,0,0.2,-0.2,0,1.28,0,0,0
gen_000184_tz+0.03_tx+0.02_ty+0.01_p-0.05_fx-0.01_fy+0.00,-0.231284,1.499186834,0.486368,0.998558,-0.000894935,0.0536212,0.0023948,-1.52507,-0.00496086,-0.00378154,1.75531,-0.337375,-0.00235769,-1.52295,-0.0049482,-0.00374815,1.75683,-0.341002,-0.00231378,0.00176828,0.017394,-0.129133,0.2,0.2,0,1.28,0,0,0,0.2,-0.2,0,1.28,0,0,0,-1.52507,-0.00496086,-0.00378154,1.75531,-0.337375,-0.00235769,-1.52295,-0.0049482,-0.00374815,1.75683,-0.341002,-0.00231378,0.00176828,0.017394,-0.129133,0.2,0.2,0,1.28,0,0,0,0.2,-0.2,0,1.28,0,0,0
gen_000185_tz+0.03_tx+0.02_ty+0.01_p-0.05_fx+0.00_fy+0.00,-0.230495,1.499187567,0.486343,0.998984,-0.00089625,0.045001,0.00235874,-1.51558,-0.00490627,-0.00378492,1.73834,-0.312637,-0.00234933,-1.51353,-0.00489341,-0.00375145,1.73985,-0.316195,-0.00230574,0.0015568,0.0174616,-0.111887,0.2,0.2,0,1.28,0,0,0,0.2,-0.2,0,1.28,0,0,0,-1.51558,-0.00490627,-0.00378492,1.73834,-0.312637,-0.00234933,-1.51353,-0.00489341,-0.00375145,1.73985,-0.316195,-0.00230574,0.0015568,0.0174616,-0.111887,0.2,0.2,0,1.28,0,0,0,0.2,-0.2,0,1.28,0,0,0
gen_000186_tz+0.03_tx+0.02_ty+0.01_p-0.05_fx+0.01_fy+0.00,-0.229714,1.499188403,0.486329,0.999331,-0.000895598,0.0364889,0.00232388,-1.50567,-0.0048513,-0.0037855,1.72064,-0.287822,-0.00233992,-1.50368,-0.00483829,-0.00375196,1.72215,-0.291313,-0.00229665,0.00134499,0.0175211,-0.0948641,0.2,0.2,0,1.28,0,0,0,0.2,-0.2,0,1.28,0,0,0,-1.50567,-0.0048513,-0.0037855,1.72064,-0.287822,-0.00233992,-1.50368,-0.00483829,-0.00375196,1.72215,-0.291313,-0.00229665,0.00134499,0.0175211,-0.0948641,0.2,0.2,0,1.28,0,0,0,0.2,-0.2,0,1.28,0,0,0
gen_000187_tz+0.03_tx+0.02_ty+0.01_p-0.05_fx+0.02_fy+0.00,-0.228942,1.49918942,0.486328,0.999603,-0.000892138,0.0280804,0.00228978,-1.49531,-0.00479491,-0.0037811,1.70221,-0.262935,-0.00232892,-1.49339,-0.0047818,-0.0037475,1.70373,-0.266362,-0.00228598,0.0011337,0.0175707,-0.0780544,0.2,0.2,0,1.28,0,0,0,0.2,-0.2,0,1.28,0,0,0,-1.49531,-0.00479491,-0.0037811,1.70221,-0.262935,-0.00232892,-1.49339,-0.0047818,-0.0037475,1.70373,-0.266362,-0.00228598,0.0011337,0.0175707,-0.0780544,0.2,0.2,0,1.28,0,0,0,0.2,-0.2,0,1.28,0,0,0
gen_000188_tz+0.03_tx+0.02_ty+0.01_p-0.05_fx+0.03_fy+0.00,-0.228179,1.499190756,0.486339,0.999802,-0.000884349,0.0197742,0.00225579,-1.48451,-0.00473554,-0.00376777,1.68306,-0.237977,-0.00231539,-1.48267,-0.00472241,-0.00373412,1.68459,-0.24134,-0.00227282,0.000924377,0.0176076,-0.061454,0.2,0.2,0,1.28,0,0,0,0.2,-0.2,0,1.28,0,0,0,-1.48451,-0.00473554,-0.00376777,1.68306,-0.237977,-0.00231539,-1.48267,-0.00472241,-0.00373412,1.68459,-0.24134,-0.00227282,0.000924377,0.0176076,-0.061454,0.2,0.2,0,1.28,0,0,0,0.2,-0.2,0,1.28,0,0,0
