meetpal644/Sit-to-Stand-Motion-Synthesis-For-Humanoids/keyframes/chair1_pose_0.02z.csv
name,qpos_0,qpos_1,qpos_2,qpos_3,qpos_4,qpos_5,qpos_6,qpos_7,qpos_8,qpos_9,qpos_10,qpos_11,qpos_12,qpos_13,qpos_14,qpos_15,qpos_16,qpos_17,qpos_18,qpos_19,qpos_20,qpos_21,qpos_22,qpos_23,qpos_24,qpos_25,qpos_26,qpos_27,qpos_28,qpos_29,qpos_30,qpos_31,qpos_32,qpos_33,qpos_34,qpos_35,ctrl_0,ctrl_1,ctrl_2,ctrl_3,ctrl_4,ctrl_5,ctrl_6,ctrl_7,ctrl_8,ctrl_9,ctrl_10,ctrl_11,ctrl_12,ctrl_13,ctrl_14,ctrl_15,ctrl_16,ctrl_17,ctrl_18,ctrl_19,ctrl_20,ctrl_21,ctrl_22,ctrl_23,ctrl_24,ctrl_25,ctrl_26,ctrl_27,ctrl_28
gen_000000_tz+0.02_tx-0.03_ty-0.02_p-0.05_fx-0.03_fy+0.00,-0.278645,0.9715109,0.476431,0.999388,0.0248954,0.0244377,0.00271919,-1.49563,-0.00503051,-0.0161114,1.71453,-0.267758,-0.0662335,-1.52928,-0.00567376,-0.017212,1.75575,-0.275323,-0.0675162,-0.0010951,-0.0339003,-0.0706619,0.2,0.2,0,1.28,0,0,0,0.2,-0.2,0,1.28,0,0,0,-1.49563,-0.00503051,-0.0161114,1.71453,-0.267758,-0.0662335,-1.52928,-0.00567376,-0.017212,1.75575,-0.275323,-0.0675162,-0.0010951,-0.0339003,-0.0706619,0.2,0.2,0,1.28,0,0,0,0.2,-0.2,0,1.28,0,0,0
gen_000001_tz+0.02_tx-0.03_ty-0.02_p-0.05_fx-0.02_fy+0.00,-0.27788,0.9715118,0.476447,0.999557,0.0248718,0.016112,0.00257396,-1.48489,-0.00525498,-0.0161458,1.69534,-0.242667,-0.0662165,-1.51865,-0.00590854,-0.0172356,1.73652,-0.250065,-0.0674972,-0.000653295,-0.0338208,-0.0540145,0.2,0.2,0,1.28,0,0,0,0.2,-0.2,0,1.28,0,0,0,-1.48489,-0.00525498,-0.0161458,1.69534,-0.242667,-0.0662165,-1.51865,-0.00590854,-0.0172356,1.73652,-0.250065,-0.0674972,-0.000653295,-0.0338208,-0.0540145,0.2,0.2,0,1.28,0,0,0,0.2,-0.2,0,1.28,0,0,0
gen_000002_tz+0.02_tx-0.03_ty-0.02_p-0.05_fx-0.01_fy+0.00,-0.277124,0.9715121,0.476475,0.999657,0.0248461,0.00789192,0.00242694,-1.4737,-0.00545952,-0.016184,1.67543,-0.217512,-0.0661986,-1.50757,-0.0061225,-0.0172635,1.71657,-0.224763,-0.0674773,-0.000211573,-0.0337337,-0.0375811,0.2,0.2,0,1.28,0,0,0,0.2,-0.2,0,1.28,0,0,0,-1.4737,-0.00545952,-0.016184,1.67543,-0.217512,-0.0661986,-1.50757,-0.0061225,-0.0172635,1.71657,-0.224763,-0.0674773,-0.000211573,-0.0337337,-0.0375811,0.2,0.2,0,1.28,0,0,0,0.2,-0.2,0,1.28,0,0,0
gen_000003_tz+0.02_tx-0.03_ty-0.02_p-0.05_fx+0.00_fy+0.00,-0.276376,0.9715118,0.476513,0.999689,0.0248161,-0.000233579,0.00227838,-1.46204,-0.0056454,-0.0162323,1.6548,-0.192297,-0.0661816,-1.49601,-0.0063171,-0.0173021,1.69591,-0.199423,-0.0674581,0.000229748,-0.0336346,-0.0213386,0.2,0.2,0,1.28,0,0,0,0.2,-0.2,0,1.28,0,0,0,-1.46204,-0.0056454,-0.0162323,1.6548,-0.192297,-0.0661816,-1.49601,-0.0063171,-0.0173021,1.69591,-0.199423,-0.0674581,0.000229748,-0.0336346,-0.0213386,0.2,0.2,0,1.28,0,0,0,0.2,-0.2,0,1.28,0,0,0
gen_000004_tz+0.02_tx-0.03_ty-0.02_p-0.05_fx+0.01_fy+0.00,-0.275636,0.9715104999999999,0.476561,0.999656,0.0247801,-0.00827084,0.00212847,-1.4499,-0.00581357,-0.0162958,1.63345,-0.167022,-0.0661668,-1.48396,-0.00649345,-0.0173564,1.67455,-0.174047,-0.0674408,0.000670147,-0.0335199,-0.00527323,0.2,0.2,0,1.28,0,0,0,0.2,-0.2,0,1.28,0,0,0,-1.4499,-0.00581357,-0.0162958,1.63345,-0.167022,-0.0661668,-1.48396,-0.00649345,-0.0173564,1.67455,-0.174047,-0.0674408,0.000670147,-0.0335199,-0.00527323,0.2,0.2,0,1.28,0,0,0,0.2,-0.2,0,1.28,0,0,0
gen_000005_tz+0.02_tx-0.03_ty-0.02_p-0.05_fx+0.02_fy+0.00,-0.274902,0.9715085,0.476619,0.99956,0.0247378,-0.0162263,0.00197693,-1.43727,-0.00596359,-0.0163757,1.61138,-0.141688,-0.0661543,-1.47139,-0.00665114,-0.0174278,1.65248,-0.148633,-0.0674258,0.00111006,-0.0333893,0.0106289,0.2,0.2,0,1.28,0,0,0,0.2,-0.2,0,1.28,0,0,0,-1.43727,-0.00596359,-0.0163757,1.61138,-0.141688,-0.0661543,-1.47139,-0.00665114,-0.0174278,1.65248,-0.148633,-0.0674258,0.00111006,-0.0333893,0.0106289,0.2,0.2,0,1.28,0,0,0,0.2,-0.2,0,1.28,0,0,0
gen_000006_tz+0.02_tx-0.03_ty-0.02_p-0.05_fx+0.03_fy+0.00,-0.274175,0.9715056,0.476687,0.999403,0.0246898,-0.0241096,0.00182307,-1.42411,-0.00609417,-0.0164712,1.58859,-0.116293,-0.0661442,-1.4583,-0.00678893,-0.0175154,1.62969,-0.12318,-0.067413,0.00155081,-0.0332436,0.0263878,0.2,0.2,0,1.28,0,0,0,0.2,-0.2,0,1.28,0,0,0,-1.42411,-0.00609417,-0.0164712,1.58859,-0.116293,-0.0661442,-1.4583,-0.00678893,-0.0175154,1.62969,-0.12318,-0.067413,0.00155081,-0.0332436,0.0263878,0.2,0.2,0,1.28,0,0,0,0.2,-0.2,0,1.28,0,0,0
gen_000007_tz+0.02_tx-0.02_ty-0.02_p-0.05_fx-0.03_fy+0.00,-0.269419,0.9715093,0.476425,0.999145,0.0249142,0.032878,0.00286383,-1.50596,-0.00478864,-0.0160868,1.73299,-0.292775,-0.0662513,-1.53947,-0.00542082,-0.0171987,1.77428,-0.300531,-0.0675358,-0.00153932,-0.0339669,-0.0875426,0.2,0.2,0,1.28,0,0,0,0.2,-0.2,0,1.28,0,0,0,-1.50596,-0.00478864,-0.0160868,1.73299,-0.292775,-0.0662513,-1.53947,-0.00542082,-0.0171987,1.77428,-0.300531,-0.0675358,-0.00153932,-0.0339669,-0.0875426,0.2,0.2,0,1.28,0,0,0,0.2,-0.2,0,1.28,0,0,0
gen_000008_tz+0.02_tx-0.02_ty-0.02_p-0.05_fx-0.02_fy+0.00,-0.268645,0.9715109,0.476431,0.999388,0.0248954,0.0244379,0.00271918,-1.49563,-0.00503048,-0.0161112,1.71453,-0.267757,-0.0662335,-1.52928,-0.00567372,-0.0172118,1.75575,-0.275322,-0.0675162,-0.0010951,-0.0339005,-0.0706623,0.2,0.2,0,1.28,0,0,0,0.2,-0.2,0,1.28,0,0,0,-1.49563,-0.00503048,-0.0161112,1.71453,-0.267757,-0.0662335,-1.52928,-0.00567372,-0.0172118,1.75575,-0.275322,-0.0675162,-0.0010951,-0.0339005,-0.0706623,0.2,0.2,0,1.28,0,0,0,0.2,-0.2,0,1.28,0,0,0
gen_000009_tz+0.02_tx-0.02_ty-0.02_p-0.05_fx-0.01_fy+0.00,-0.26788,0.9715118,0.476447,0.999557,0.0248719,0.0161122,0.00257395,-1.48489,-0.00525495,-0.0161455,1.69534,-0.242667,-0.0662164,-1.51865,-0.0059085,-0.0172353,1.73652,-0.250064,-0.0674971,-0.000653293,-0.033821,-0.0540149,0.2,0.2,0,1.28,0,0,0,0.2,-0.2,0,1.28,0,0,0,-1.48489,-0.00525495,-0.0161455,1.69534,-0.242667,-0.0662164,-1.51865,-0.0059085,-0.0172353,1.73652,-0.250064,-0.0674971,-0.000653293,-0.033821,-0.0540149,0.2,0.2,0,1.28,0,0,0,0.2,-0.2,0,1.28,0,0,0
gen_000010_tz+0.02_tx-0.02_ty-0.02_p-0.05_fx+0.00_fy+0.00,-0.267124,0.9715121,0.476475,0.999657,0.0248462,0.00789206,0.00242694,-1.4737,-0.00545949,-0.0161838,1.67543,-0.217512,-0.0661986,-1.50757,-0.00612246,-0.0172633,1.71657,-0.224762,-0.0674773,-0.000211567,-0.0337338,-0.0375814,0.2,0.2,0,1.28,0,0,0,0.2,-0.2,0,1.28,0,0,0,-1.4737,-0.00545949,-0.0161838,1.67543,-0.217512,-0.0661986,-1.50757,-0.00612246,-0.0172633,1.71657,-0.224762,-0.0674773,-0.000211567,-0.0337338,-0.0375814,0.2,0.2,0,1.28,0,0,0,0.2,-0.2,0,1.28,0,0,0
gen_000011_tz+0.02_tx-0.02_ty-0.02_p-0.05_fx+0.01_fy+0.00,-0.266376,0.9715118,0.476513,0.999689,0.0248161,-0.000233472,0.00227837,-1.46204,-0.00564539,-0.0162322,1.6548,-0.192296,-0.0661816,-1.49601,-0.00631709,-0.017302,1.69591,-0.199423,-0.067458,0.00022975,-0.0336346,-0.0213388,0.2,0.2,0,1.28,0,0,0,0.2,-0.2,0,1.28,0,0,0,-1.46204,-0.00564539,-0.0162322,1.6548,-0.192296,-0.0661816,-1.49601,-0.00631709,-0.017302,1.69591,-0.199423,-0.067458,0.00022975,-0.0336346,-0.0213388,0.2,0.2,0,1.28,0,0,0,0.2,-0.2,0,1.28,0,0,0
gen_000012_tz+0.02_tx-0.02_ty-0.02_p-0.05_fx+0.02_fy+0.00,-0.265636,0.9715104999999999,0.476561,0.999656,0.0247801,-0.00827074,0.00212847,-1.4499,-0.00581357,-0.0162958,1.63345,-0.167022,-0.0661668,-1.48396,-0.00649344,-0.0173564,1.67455,-0.174047,-0.0674408,0.000670145,-0.0335199,-0.00527343,0.2,0.2,0,1.28,0,0,0,0.2,-0.2,0,1.28,0,0,0,-1.4499,-0.00581357,-0.0162958,1.63345,-0.167022,-0.0661668,-1.48396,-0.00649344,-0.0173564,1.67455,-0.174047,-0.0674408,0.000670145,-0.0335199,-0.00527343,0.2,0.2,0,1.28,0,0,0,0.2,-0.2,0,1.28,0,0,0
gen_000013_tz+0.02_tx-0.02_ty-0.02_p-0.05_fx+0.03_fy+0.00,-0.264902,0.9715085,0.476619,0.99956,0.0247378,-0.0162262,0.00197693,-1.43727,-0.00596359,-0.0163758,1.61138,-0.141688,-0.0661543,-1.47139,-0.00665114,-0.0174278,1.65248,-0.148633,-0.0674258,0.00111006,-0.0333893,0.0106287,0.2,0.2,0,1.28,0,0,0,0.2,-0.2,0,1.28,0,0,0,-1.43727,-0.00596359,-0.0163758,1.61138,-0.141688,-0.0661543,-1.47139,-0.00665114,-0.0174278,1.65248,-0.148633,-0.0674258,0.00111006,-0.0333893,0.0106287,0.2,0.2,0,1.28,0,0,0,0.2,-0.2,0,1.28,0,0,0
gen_000014_tz+0.02_tx-0.01_ty-0.02_p-0.05_fx-0.03_fy+0.00,-0.260203,0.9715067,0.476433,0.998826,0.0249261,0.0414346,0.00300879,-1.51587,-0.00453157,-0.0160768,1.75073,-0.31772,-0.066271,-1.54923,-0.00515198,-0.0172003,1.79208,-0.325689,-0.0675571,-0.00198743,-0.0340163,-0.104661,0.2,0.2,0,1.28,0,0,0,0.2,-0.2,0,1.28,0,0,0,-1.51587,-0.00453157,-0.0160768,1.75073,-0.31772,-0.066271,-1.54923,-0.00515198,-0.0172003,1.79208,-0.325689,-0.0675571,-0.00198743,-0.0340163,-0.104661,0.2,0.2,0,1.28,0,0,0,0.2,-0.2,0,1.28,0,0,0
gen_000015_tz+0.02_tx-0.01_ty-0.02_p-0.05_fx-0.02_fy+0.00,-0.259419,0.9715093,0.476425,0.999145,0.0249142,0.0328782,0.00286383,-1.50596,-0.00478861,-0.0160867,1.73299,-0.292775,-0.0662513,-1.53947,-0.00542078,-0.0171986,1.77428,-0.300531,-0.0675358,-0.00153932,-0.033967,-0.087543,0.2,0.2,0,1.28,0,0,0,0.2,-0.2,0,1.28,0,0,0,-1.50596,-0.00478861,-0.0160867,1.73299,-0.292775,-0.0662513,-1.53947,-0.00542078,-0.0171986,1.77428,-0.300531,-0.0675358,-0.00153932,-0.033967,-0.087543,0.2,0.2,0,1.28,0,0,0,0.2,-0.2,0,1.28,0,0,0
gen_000016_tz+0.02_tx-0.01_ty-0.02_p-0.05_fx-0.01_fy+0.00,-0.258645,0.9715109,0.476431,0.999388,0.0248955,0.0244381,0.00271918,-1.49563,-0.00503044,-0.016111,1.71453,-0.267757,-0.0662334,-1.52928,-0.00567367,-0.0172116,1.75575,-0.275322,-0.0675161,-0.00109509,-0.0339006,-0.0706627,0.2,0.2,0,1.28,0,0,0,0.2,-0.2,0,1.28,0,0,0,-1.49563,-0.00503044,-0.016111,1.71453,-0.267757,-0.0662334,-1.52928,-0.00567367,-0.0172116,1.75575,-0.275322,-0.0675161,-0.00109509,-0.0339006,-0.0706627,0.2,0.2,0,1.28,0,0,0,0.2,-0.2,0,1.28,0,0,0
gen_000017_tz+0.02_tx-0.01_ty-0.02_p-0.05_fx+0.00_fy+0.00,-0.25788,0.9715118,0.476447,0.999557,0.024872,0.0161124,0.00257395,-1.48489,-0.00525491,-0.0161453,1.69534,-0.242667,-0.0662163,-1.51865,-0.00590845,-0.0172351,1.73652,-0.250064,-0.0674971,-0.000653285,-0.0338212,-0.0540153,0.2,0.2,0,1.28,0,0,0,0.2,-0.2,0,1.28,0,0,0,-1.48489,-0.00525491,-0.0161453,1.69534,-0.242667,-0.0662163,-1.51865,-0.00590845,-0.0172351,1.73652,-0.250064,-0.0674971,-0.000653285,-0.0338212,-0.0540153,0.2,0.2,0,1.28,0,0,0,0.2,-0.2,0,1.28,0,0,0
gen_000018_tz+0.02_tx-0.01_ty-0.02_p-0.05_fx+0.01_fy+0.00,-0.257124,0.9715121,0.476475,0.999657,0.0248462,0.00789223,0.00242694,-1.4737,-0.00545947,-0.0161838,1.67543,-0.217511,-0.0661986,-1.50757,-0.00612245,-0.0172633,1.71657,-0.224762,-0.0674772,-0.000211568,-0.0337339,-0.0375818,0.2,0.2,0,1.28,0,0,0,0.2,-0.2,0,1.28,0,0,0,-1.4737,-0.00545947,-0.0161838,1.67543,-0.217511,-0.0661986,-1.50757,-0.00612245,-0.0172633,1.71657,-0.224762,-0.0674772,-0.000211568,-0.0337339,-0.0375818,0.2,0.2,0,1.28,0,0,0,0.2,-0.2,0,1.28,0,0,0
gen_000019_tz+0.02_tx-0.01_ty-0.02_p-0.05_fx+0.02_fy+0.00,-0.256376,0.9715118,0.476513,0.999689,0.0248161,-0.000233324,0.00227838,-1.46204,-0.00564539,-0.0162323,1.6548,-0.192296,-0.0661816,-1.49601,-0.00631709,-0.017302,1.69591,-0.199423,-0.0674581,0.000229744,-0.0336346,-0.0213391,0.2,0.2,0,1.28,0,0,0,0.2,-0.2,0,1.28,0,0,0,-1.46204,-0.00564539,-0.0162323,1.6548,-0.192296,-0.0661816,-1.49601,-0.00631709,-0.017302,1.69591,-0.199423,-0.0674581,0.000229744,-0.0336346,-0.0213391,0.2,0.2,0,1.28,0,0,0,0.2,-0.2,0,1.28,0,0,0
gen_000020_tz+0.02_tx-0.01_ty-0.02_p-0.05_fx+0.03_fy+0.00,-0.255636,0.9715104999999999,0.476561,0.999656,0.0247801,-0.00827061,0.00212847,-1.4499,-0.00581357,-0.0162959,1.63345,-0.167022,-0.0661668,-1.48396,-0.00649344,-0.0173565,1.67455,-0.174047,-0.0674408,0.00067014,-0.0335199,-0.0052737,0.2,0.2,0,1.28,0,0,0,0.2,-0.2,0,1.28,0,0,0,-1.4499,-0.00581357,-0.0162959,1.63345,-0.167022,-0.0661668,-1.48396,-0.00649344,-0.0173565,1.67455,-0.174047,-0.0674408,0.00067014,-0.0335199,-0.0052737,0.2,0.2,0,1.28,0,0,0,0.2,-0.2,0,1.28,0,0,0
gen_000021_tz+0.02_tx+0.00_ty-0.02_p-0.05_fx-0.03_fy+0.00,-0.250997,0.9715031,0.476452,0.998427,0.0249316,0.0501104,0.00315417,-1.52538,-0.00425929,-0.0160794,1.76774,-0.342587,-0.0662921,-1.55857,-0.00486719,-0.0172148,1.80916,-0.350795,-0.0675796,-0.00243941,-0.034049,-0.122026,0.2,0.2,0,1.28,0,0,0,0.2,-0.2,0,1.28,0,0,0,-1.52538,-0.00425929,-0.0160794,1.76774,-0.342587,-0.0662921,-1.55857,-0.00486719,-0.0172148,1.80916,-0.350795,-0.0675796,-0.00243941,-0.034049,-0.122026,0.2,0.2,0,1.28,0,0,0,0.2,-0.2,0,1.28,0,0,0
gen_000022_tz+0.02_tx+0.00_ty-0.02_p-0.05_fx-0.02_fy+0.00,-0.250203,0.9715067,0.476433,0.998826,0.0249262,0.0414348,0.00300879,-1.51587,-0.00453154,-0.0160767,1.75073,-0.317719,-0.066271,-1.54923,-0.00515196,-0.0172002,1.79208,-0.325689,-0.0675571,-0.00198743,-0.0340163,-0.104662,0.2,0.2,0,1.28,0,0,0,0.2,-0.2,0,1.28,0,0,0,-1.51587,-0.00453154,-0.0160767,1.75073,-0.317719,-0.066271,-1.54923,-0.00515196,-0.0172002,1.79208,-0.325689,-0.0675571,-0.00198743,-0.0340163,-0.104662,0.2,0.2,0,1.28,0,0,0,0.2,-0.2,0,1.28,0,0,0
gen_000023_tz+0.02_tx+0.00_ty-0.02_p-0.05_fx-0.01_fy+0.00,-0.249419,0.9715093,0.476425,0.999145,0.0249138,0.0328775,0.00286399,-1.50596,-0.00478906,-0.0160879,1.73299,-0.292776,-0.0662516,-1.53947,-0.00542126,-0.0171997,1.77428,-0.300531,-0.0675361,-0.00153961,-0.0339661,-0.0875417,0.2,0.2,0,1.28,0,0,0,0.2,-0.2,0,1.28,0,0,0,-1.50596,-0.00478906,-0.0160879,1.73299,-0.292776,-0.0662516,-1.53947,-0.00542126,-0.0171997,1.77428,-0.300531,-0.0675361,-0.00153961,-0.0339661,-0.0875417,0.2,0.2,0,1.28,0,0,0,0.2,-0.2,0,1.28,0,0,0
gen_000024_tz+0.02_tx+0.00_ty-0.02_p-0.05_fx+0.00_fy+0.00,-0.248645,0.9715109,0.476431,0.999388,0.0248956,0.0244383,0.00271917,-1.49563,-0.00503041,-0.0161109,1.71453,-0.267757,-0.0662334,-1.52928,-0.00567364,-0.0172115,1.75575,-0.275322,-0.0675161,-0.00109509,-0.0339007,-0.0706631,0.2,0.2,0,1.28,0,0,0,0.2,-0.2,0,1.28,0,0,0,-1.49563,-0.00503041,-0.0161109,1.71453,-0.267757,-0.0662334,-1.52928,-0.00567364,-0.0172115,1.75575,-0.275322,-0.0675161,-0.00109509,-0.0339007,-0.0706631,0.2,0.2,0,1.28,0,0,0,0.2,-0.2,0,1.28,0,0,0
gen_000025_tz+0.02_tx+0.00_ty-0.02_p-0.05_fx+0.01_fy+0.00,-0.24788,0.9715118,0.476447,0.999557,0.0248719,0.0161126,0.00257395,-1.48489,-0.00525491,-0.0161454,1.69534,-0.242667,-0.0662164,-1.51865,-0.00590845,-0.0172351,1.73652,-0.250064,-0.0674971,-0.000653293,-0.0338211,-0.0540157,0.2,0.2,0,1.28,0,0,0,0.2,-0.2,0,1.28,0,0,0,-1.48489,-0.00525491,-0.0161454,1.69534,-0.242667,-0.0662164,-1.51865,-0.00590845,-0.0172351,1.73652,-0.250064,-0.0674971,-0.000653293,-0.0338211,-0.0540157,0.2,0.2,0,1.28,0,0,0,0.2,-0.2,0,1.28,0,0,0
gen_000026_tz+0.02_tx+0.00_ty-0.02_p-0.05_fx+0.02_fy+0.00,-0.247124,0.9715121,0.476475,0.999657,0.0248461,0.00789243,0.00242694,-1.4737,-0.00545949,-0.0161839,1.67543,-0.217511,-0.0661986,-1.50757,-0.00612247,-0.0172634,1.71657,-0.224762,-0.0674773,-0.000211581,-0.0337338,-0.0375822,0.2,0.2,0,1.28,0,0,0,0.2,-0.2,0,1.28,0,0,0,-1.4737,-0.00545949,-0.0161839,1.67543,-0.217511,-0.0661986,-1.50757,-0.00612247,-0.0172634,1.71657,-0.224762,-0.0674773,-0.000211581,-0.0337338,-0.0375822,0.2,0.2,0,1.28,0,0,0,0.2,-0.2,0,1.28,0,0,0
gen_000027_tz+0.02_tx+0.00_ty-0.02_p-0.05_fx+0.03_fy+0.00,-0.246376,0.9715117,0.476513,0.999689,0.0248161,-0.000233143,0.00227838,-1.46204,-0.00564539,-0.0162324,1.6548,-0.192296,-0.0661817,-1.49601,-0.0063171,-0.0173022,1.69591,-0.199423,-0.0674581,0.000229736,-0.0336345,-0.0213395,0.2,0.2,0,1.28,0,0,0,0.2,-0.2,0,1.28,0,0,0,-1.46204,-0.00564539,-0.0162324,1.6548,-0.192296,-0.0661817,-1.49601,-0.0063171,-0.0173022,1.69591,-0.199423,-0.0674581,0.000229736,-0.0336345,-0.0213395,0.2,0.2,0,1.28,0,0,0,0.2,-0.2,0,1.28,0,0,0
gen_000028_tz+0.02_tx+0.01_ty-0.02_p-0.05_fx-0.03_fy+0.00,-0.241801,0.9714986,0.476485,0.997947,0.0249309,0.0589088,0.00330004,-1.53449,-0.00397174,-0.016093,1.78402,-0.367371,-0.0663143,-1.5675,-0.00456632,-0.0172405,1.82553,-0.375841,-0.0676029,-0.00289523,-0.0340657,-0.139643,0.2,0.2,0,1.28,0,0,0,0.2,-0.2,0,1.28,0,0,0,-1.53449,-0.00397174,-0.016093,1.78402,-0.367371,-0.0663143,-1.5675,-0.00456632,-0.0172405,1.82553,-0.375841,-0.0676029,-0.00289523,-0.0340657,-0.139643,0.2,0.2,0,1.28,0,0,0,0.2,-0.2,0,1.28,0,0,0
gen_000029_tz+0.02_tx+0.01_ty-0.02_p-0.05_fx-0.02_fy+0.00,-0.240997,0.9715031,0.476452,0.998427,0.0249316,0.0501106,0.00315417,-1.52538,-0.00425927,-0.0160793,1.76774,-0.342586,-0.0662921,-1.55857,-0.00486717,-0.0172147,1.80916,-0.350794,-0.0675796,-0.00243941,-0.034049,-0.122026,0.2,0.2,0,1.28,0,0,0,0.2,-0.2,0,1.28,0,0,0,-1.52538,-0.00425927,-0.0160793,1.76774,-0.342586,-0.0662921,-1.55857,-0.00486717,-0.0172147,1.80916,-0.350794,-0.0675796,-0.00243941,-0.034049,-0.122026,0.2,0.2,0,1.28,0,0,0,0.2,-0.2,0,1.28,0,0,0
gen_000030_tz+0.02_tx+0.01_ty-0.02_p-0.05_fx-0.01_fy+0.00,-0.240203,0.9715067,0.476433,0.998826,0.0249258,0.041434,0.00300892,-1.51587,-0.00453189,-0.0160776,1.75073,-0.31772,-0.0662712,-1.54923,-0.00515233,-0.0172011,1.79208,-0.32569,-0.0675573,-0.00198764,-0.0340156,-0.10466,0.2,0.2,0,1.28,0,0,0,0.2,-0.2,0,1.28,0,0,0,-1.51587,-0.00453189,-0.0160776,1.75073,-0.31772,-0.0662712,-1.54923,-0.00515233,-0.0172011,1.79208,-0.32569,-0.0675573,-0.00198764,-0.0340156,-0.10466,0.2,0.2,0,1.28,0,0,0,0.2,-0.2,0,1.28,0,0,0
gen_000031_tz+0.02_tx+0.01_ty-0.02_p-0.05_fx+0.00_fy+0.00,-0.239419,0.9715093,0.476425,0.999145,0.0249138,0.0328777,0.00286399,-1.50596,-0.00478905,-0.0160878,1.73299,-0.292776,-0.0662516,-1.53947,-0.00542124,-0.0171997,1.77428,-0.300531,-0.0675361,-0.00153961,-0.0339661,-0.087542,0.2,0.2,0,1.28,0,0,0,0.2,-0.2,0,1.28,0,0,0,-1.50596,-0.00478905,-0.0160878,1.73299,-0.292776,-0.0662516,-1.53947,-0.00542124,-0.0171997,1.77428,-0.300531,-0.0675361,-0.00153961,-0.0339661,-0.087542,0.2,0.2,0,1.28,0,0,0,0.2,-0.2,0,1.28,0,0,0
gen_000032_tz+0.02_tx+0.01_ty-0.02_p-0.05_fx+0.01_fy+0.00,-0.238645,0.9715109,0.476431,0.999388,0.0248955,0.0244384,0.00271918,-1.49563,-0.00503042,-0.016111,1.71453,-0.267757,-0.0662334,-1.52928,-0.00567366,-0.0172116,1.75575,-0.275322,-0.0675161,-0.0010951,-0.0339007,-0.0706634,0.2,0.2,0,1.28,0,0,0,0.2,-0.2,0,1.28,0,0,0,-1.49563,-0.00503042,-0.016111,1.71453,-0.267757,-0.0662334,-1.52928,-0.00567366,-0.0172116,1.75575,-0.275322,-0.0675161,-0.0010951,-0.0339007,-0.0706634,0.2,0.2,0,1.28,0,0,0,0.2,-0.2,0,1.28,0,0,0
gen_000033_tz+0.02_tx+0.01_ty-0.02_p-0.05_fx+0.02_fy+0.00,-0.23788,0.9715118,0.476447,0.999557,0.0248719,0.0161128,0.00257396,-1.48489,-0.00525493,-0.0161456,1.69534,-0.242667,-0.0662164,-1.51865,-0.00590848,-0.0172354,1.73652,-0.250064,-0.0674972,-0.000653312,-0.033821,-0.0540161,0.2,0.2,0,1.28,0,0,0,0.2,-0.2,0,1.28,0,0,0,-1.48489,-0.00525493,-0.0161456,1.69534,-0.242667,-0.0662164,-1.51865,-0.00590848,-0.0172354,1.73652,-0.250064,-0.0674972,-0.000653312,-0.033821,-0.0540161,0.2,0.2,0,1.28,0,0,0,0.2,-0.2,0,1.28,0,0,0
gen_000034_tz+0.02_tx+0.01_ty-0.02_p-0.05_fx+0.03_fy+0.00,-0.237124,0.9715121,0.476475,0.999657,0.024846,0.00789265,0.00242695,-1.4737,-0.0054595,-0.0161841,1.67543,-0.217511,-0.0661987,-1.50757,-0.00612249,-0.0172636,1.71657,-0.224762,-0.0674773,-0.000211593,-0.0337336,-0.0375826,0.2,0.2,0,1.28,0,0,0,0.2,-0.2,0,1.28,0,0,0,-1.4737,-0.0054595,-0.0161841,1.67543,-0.217511,-0.0661987,-1.50757,-0.00612249,-0.0172636,1.71657,-0.224762,-0.0674773,-0.000211593,-0.0337336,-0.0375826,0.2,0.2,0,1.28,0,0,0,0.2,-0.2,0,1.28,0,0,0
gen_000035_tz+0.02_tx+0.02_ty-0.02_p-0.05_fx-0.03_fy+0.00,-0.232615,0.9714931,0.476532,0.997379,0.0249238,0.0678314,0.00344663,-1.54322,-0.00366933,-0.0161171,1.79958,-0.392067,-0.0663373,-1.57603,-0.0042497,-0.017277,1.84116,-0.400823,-0.0676269,-0.00335507,-0.0340658,-0.15752,0.2,0.2,0,1.28,0,0,0,0.2,-0.2,0,1.28,0,0,0,-1.54322,-0.00366933,-0.0161171,1.79958,-0.392067,-0.0663373,-1.57603,-0.0042497,-0.017277,1.84116,-0.400823,-0.0676269,-0.00335507,-0.0340658,-0.15752,0.2,0.2,0,1.28,0,0,0,0.2,-0.2,0,1.28,0,0,0
gen_000036_tz+0.02_tx+0.02_ty-0.02_p-0.05_fx-0.02_fy+0.00,-0.231801,0.9714986,0.476485,0.997947,0.0249309,0.0589089,0.00330004,-1.53449,-0.00397173,-0.016093,1.78402,-0.367371,-0.0663143,-1.5675,-0.0045663,-0.0172405,1.82553,-0.375841,-0.0676029,-0.00289523,-0.0340657,-0.139644,0.2,0.2,0,1.28,0,0,0,0.2,-0.2,0,1.28,0,0,0,-1.53449,-0.00397173,-0.016093,1.78402,-0.367371,-0.0663143,-1.5675,-0.0045663,-0.0172405,1.82553,-0.375841,-0.0676029,-0.00289523,-0.0340657,-0.139644,0.2,0.2,0,1.28,0,0,0,0.2,-0.2,0,1.28,0,0,0
gen_000037_tz+0.02_tx+0.02_ty-0.02_p-0.05_fx-0.01_fy+0.00,-0.230997,0.9715031,0.476452,0.998427,0.0249316,0.0501107,0.00315416,-1.52538,-0.00425926,-0.0160793,1.76774,-0.342586,-0.0662921,-1.55857,-0.00486716,-0.0172147,1.80916,-0.350794,-0.0675795,-0.00243941,-0.0340491,-0.122026,0.2,0.2,0,1.28,0,0,0,0.2,-0.2,0,1.28,0,0,0,-1.52538,-0.00425926,-0.0160793,1.76774,-0.342586,-0.0662921,-1.55857,-0.00486716,-0.0172147,1.80916,-0.350794,-0.0675795,-0.00243941,-0.0340491,-0.122026,0.2,0.2,0,1.28,0,0,0,0.2,-0.2,0,1.28,0,0,0
gen_000038_tz+0.02_tx+0.02_ty-0.02_p-0.05_fx+0.00_fy+0.00,-0.230203,0.9715067,0.476433,0.998826,0.0249258,0.0414341,0.00300892,-1.51587,-0.00453189,-0.0160776,1.75073,-0.31772,-0.0662712,-1.54923,-0.00515233,-0.0172011,1.79208,-0.32569,-0.0675573,-0.00198764,-0.0340156,-0.10466,0.2,0.2,0,1.28,0,0,0,0.2,-0.2,0,1.28,0,0,0,-1.51587,-0.00453189,-0.0160776,1.75073,-0.31772,-0.0662712,-1.54923,-0.00515233,-0.0172011,1.79208,-0.32569,-0.0675573,-0.00198764,-0.0340156,-0.10466,0.2,0.2,0,1.28,0,0,0,0.2,-0.2,0,1.28,0,0,0
gen_000039_tz+0.02_tx+0.02_ty-0.02_p-0.05_fx+0.01_fy+0.00,-0.229419,0.9715093,0.476425,0.999145,0.0249138,0.0328778,0.002864,-1.50596,-0.00478906,-0.016088,1.73299,-0.292776,-0.0662516,-1.53947,-0.00542126,-0.0171998,1.77428,-0.300531,-0.0675361,-0.00153962,-0.033966,-0.0875421,0.2,0.2,0,1.28,0,0,0,0.2,-0.2,0,1.28,0,0,0,-1.50596,-0.00478906,-0.016088,1.73299,-0.292776,-0.0662516,-1.53947,-0.00542126,-0.0171998,1.77428,-0.300531,-0.0675361,-0.00153962,-0.033966,-0.0875421,0.2,0.2,0,1.28,0,0,0,0.2,-0.2,0,1.28,0,0,0
gen_000040_tz+0.02_tx+0.02_ty-0.02_p-0.05_fx+0.02_fy+0.00,-0.228645,0.9715109,0.476431,0.999388,0.0248954,0.0244386,0.00271919,-1.49563,-0.00503045,-0.0161112,1.71453,-0.267757,-0.0662335,-1.52928,-0.00567369,-0.0172118,1.75575,-0.275322,-0.0675162,-0.00109512,-0.0339005,-0.0706637,0.2,0.2,0,1.28,0,0,0,0.2,-0.2,0,1.28,0,0,0,-1.49563,-0.00503045,-0.0161112,1.71453,-0.267757,-0.0662335,-1.52928,-0.00567369,-0.0172118,1.75575,-0.275322,-0.0675162,-0.00109512,-0.0339005,-0.0706637,0.2,0.2,0,1.28,0,0,0,0.2,-0.2,0,1.28,0,0,0
gen_000041_tz+0.02_tx+0.02_ty-0.02_p-0.05_fx+0.03_fy+0.00,-0.22788,0.9715118,0.476447,0.999557,0.0248718,0.016113,0.00257396,-1.48489,-0.00525495,-0.0161459,1.69534,-0.242666,-0.0662165,-1.51865,-0.00590851,-0.0172356,1.73652,-0.250064,-0.0674972,-0.000653322,-0.0338208,-0.0540166,0.2,0.2,0,1.28,0,0,0,0.2,-0.2,0,1.28,0,0,0,-1.48489,-0.00525495,-0.0161459,1.69534,-0.242666,-0.0662165,-1.51865,-0.00590851,-0.0172356,1.73652,-0.250064,-0.0674972,-0.000653322,-0.0338208,-0.0540166,0.2,0.2,0,1.28,0,0,0,0.2,-0.2,0,1.28,0,0,0
gen_000042_tz+0.02_tx+0.03_ty-0.02_p-0.05_fx-0.03_fy+0.00,-0.223439,0.9714866,0.476594,0.996723,0.02491,0.0768781,0.00359422,-1.55157,-0.00335263,-0.0161517,1.8144,-0.416669,-0.0663613,-1.58415,-0.00391794,-0.017324,1.85606,-0.425736,-0.0676516,-0.00381914,-0.0340485,-0.175657,0.2,0.2,0,1.28,0,0,0,0.2,-0.2,0,1.28,0,0,0,-1.55157,-0.00335263,-0.0161517,1.8144,-0.416669,-0.0663613,-1.58415,-0.00391794,-0.017324,1.85606,-0.425736,-0.0676516,-0.00381914,-0.0340485,-0.175657,0.2,0.2,0,1.28,0,0,0,0.2,-0.2,0,1.28,0,0,0
gen_000043_tz+0.02_tx+0.03_ty-0.02_p-0.05_fx-0.02_fy+0.00,-0.222615,0.9714931,0.476532,0.997379,0.0249238,0.0678315,0.00344663,-1.54322,-0.00366932,-0.0161171,1.79958,-0.392067,-0.0663373,-1.57603,-0.0042497,-0.0172769,1.84116,-0.400823,-0.0676269,-0.00335507,-0.0340658,-0.15752,0.2,0.2,0,1.28,0,0,0,0.2,-0.2,0,1.28,0,0,0,-1.54322,-0.00366932,-0.0161171,1.79958,-0.392067,-0.0663373,-1.57603,-0.0042497,-0.0172769,1.84116,-0.400823,-0.0676269,-0.00335507,-0.0340658,-0.15752,0.2,0.2,0,1.28,0,0,0,0.2,-0.2,0,1.28,0,0,0
gen_000044_tz+0.02_tx+0.03_ty-0.02_p-0.05_fx-0.01_fy+0.00,-0.221801,0.9714986,0.476485,0.997947,0.0249309,0.058909,0.00330004,-1.53449,-0.00397172,-0.016093,1.78402,-0.367371,-0.0663143,-1.5675,-0.00456629,-0.0172405,1.82553,-0.375841,-0.0676029,-0.00289523,-0.0340657,-0.139644,0.2,0.2,0,1.28,0,0,0,0.2,-0.2,0,1.28,0,0,0,-1.53449,-0.00397172,-0.016093,1.78402,-0.367371,-0.0663143,-1.5675,-0.00456629,-0.0172405,1.82553,-0.375841,-0.0676029,-0.00289523,-0.0340657,-0.139644,0.2,0.2,0,1.28,0,0,0,0.2,-0.2,0,1.28,0,0,0
gen_000045_tz+0.02_tx+0.03_ty-0.02_p-0.05_fx+0.00_fy+0.00,-0.220997,0.9715031,0.476452,0.998427,0.0249316,0.0501107,0.00315417,-1.52538,-0.00425926,-0.0160793,1.76774,-0.342586,-0.0662921,-1.55857,-0.00486716,-0.0172147,1.80916,-0.350794,-0.0675796,-0.00243941,-0.034049,-0.122026,0.2,0.2,0,1.28,0,0,0,0.2,-0.2,0,1.28,0,0,0,-1.52538,-0.00425926,-0.0160793,1.76774,-0.342586,-0.0662921,-1.55857,-0.00486716,-0.0172147,1.80916,-0.350794,-0.0675796,-0.00243941,-0.034049,-0.122026,0.2,0.2,0,1.28,0,0,0,0.2,-0.2,0,1.28,0,0,0
gen_000046_tz+0.02_tx+0.03_ty-0.02_p-0.05_fx+0.01_fy+0.00,-0.220203,0.9715067,0.476433,0.998826,0.0249258,0.0414341,0.00300892,-1.51587,-0.00453191,-0.0160777,1.75073,-0.31772,-0.0662713,-1.54923,-0.00515235,-0.0172012,1.79208,-0.32569,-0.0675573,-0.00198765,-0.0340155,-0.104661,0.2,0.2,0,1.28,0,0,0,0.2,-0.2,0,1.28,0,0,0,-1.51587,-0.00453191,-0.0160777,1.75073,-0.31772,-0.0662713,-1.54923,-0.00515235,-0.0172012,1.79208,-0.32569,-0.0675573,-0.00198765,-0.0340155,-0.104661,0.2,0.2,0,1.28,0,0,0,0.2,-0.2,0,1.28,0,0,0
gen_000047_tz+0.02_tx+0.03_ty-0.02_p-0.05_fx+0.02_fy+0.00,-0.219419,0.9715092,0.476425,0.999145,0.0249137,0.0328778,0.002864,-1.50596,-0.00478909,-0.0160881,1.73299,-0.292775,-0.0662517,-1.53947,-0.00542129,-0.0172,1.77428,-0.300531,-0.0675361,-0.00153963,-0.0339659,-0.0875423,0.2,0.2,0,1.28,0,0,0,0.2,-0.2,0,1.28,0,0,0,-1.50596,-0.00478909,-0.0160881,1.73299,-0.292775,-0.0662517,-1.53947,-0.00542129,-0.0172,1.77428,-0.300531,-0.0675361,-0.00153963,-0.0339659,-0.0875423,0.2,0.2,0,1.28,0,0,0,0.2,-0.2,0,1.28,0,0,0
gen_000048_tz+0.02_tx+0.03_ty-0.02_p-0.05_fx+0.03_fy+0.00,-0.218645,0.9715109,0.476431,0.999388,0.0248954,0.0244387,0.00271919,-1.49563,-0.00503046,-0.0161114,1.71453,-0.267757,-0.0662335,-1.52928,-0.00567371,-0.017212,1.75575,-0.275322,-0.0675162,-0.00109512,-0.0339003,-0.0706639,0.2,0.2,0,1.28,0,0,0,0.2,-0.2,0,1.28,0,0,0,-1.49563,-0.00503046,-0.0161114,1.71453,-0.267757,-0.0662335,-1.52928,-0.00567371,-0.017212,1.75575,-0.275322,-0.0675162,-0.00109512,-0.0339003,-0.0706639,0.2,0.2,0,1.28,0,0,0,0.2,-0.2,0,1.28,0,0,0
gen_000049_tz+0.02_tx-0.03_ty-0.01_p-0.05_fx-0.03_fy+0.00,-0.278629,0.9807371,0.476401,0.999569,0.0162953,0.0242703,0.00254922,-1.50266,-0.00501339,-0.0121764,1.72312,-0.268939,-0.0451355,-1.52446,-0.00531862,-0.0126252,1.75105,-0.275069,-0.0456978,-0.000338446,-0.0167251,-0.070344,0.2,0.2,0,1.28,0,0,0,0.2,-0.2,0,1.28,0,0,0,-1.50266,-0.00501339,-0.0121764,1.72312,-0.268939,-0.0451355,-1.52446,-0.00531862,-0.0126252,1.75105,-0.275069,-0.0456978,-0.000338446,-0.0167251,-0.070344,0.2,0.2,0,1.28,0,0,0,0.2,-0.2,0,1.28,0,0,0
gen_000050_tz+0.02_tx-0.03_ty-0.01_p-0.05_fx-0.02_fy+0.00,-0.277865,0.9807376,0.476417,0.999737,0.0162775,0.0159433,0.00244271,-1.49194,-0.00514907,-0.0122055,1.70392,-0.24382,-0.0451225,-1.51383,-0.00545924,-0.0126495,1.73182,-0.249818,-0.0456837,-0.000117394,-0.0166504,-0.053702,0.2,0.2,0,1.28,0,0,0,0.2,-0.2,0,1.28,0,0,0,-1.49194,-0.00514907,-0.0122055,1.70392,-0.24382,-0.0451225,-1.51383,-0.00545924,-0.0126495,1.73182,-0.249818,-0.0456837,-0.000117394,-0.0166504,-0.053702,0.2,0.2,0,1.28,0,0,0,0.2,-0.2,0,1.28,0,0,0
gen_000051_tz+0.02_tx-0.03_ty-0.01_p-0.05_fx-0.01_fy+0.00,-0.277109,0.9807383,0.476445,0.999835,0.0162639,0.00772682,0.00233422,-1.48077,-0.0052676,-0.0122231,1.68399,-0.218635,-0.0451053,-1.50276,-0.0055821,-0.0126627,1.71187,-0.224515,-0.0456654,0.000105818,-0.0165834,-0.0372839,0.2,0.2,0,1.28,0,0,0,0.2,-0.2,0,1.28,0,0,0,-1.48077,-0.0052676,-0.0122231,1.68399,-0.218635,-0.0451053,-1.50276,-0.0055821,-0.0126627,1.71187,-0.224515,-0.0456654,0.000105818,-0.0165834,-0.0372839,0.2,0.2,0,1.28,0,0,0,0.2,-0.2,0,1.28,0,0,0
gen_000052_tz+0.02_tx-0.03_ty-0.01_p-0.05_fx+0.00_fy+0.00,-0.276361,0.9807386,0.476484,0.999865,0.0162482,-0.000401362,0.00222498,-1.46912,-0.00537335,-0.0122463,1.66336,-0.193402,-0.0450881,-1.4912,-0.00569184,-0.0126817,1.69123,-0.199179,-0.0456472,0.000329055,-0.0165112,-0.0210439,0.2,0.2,0,1.28,0,0,0,0.2,-0.2,0,1.28,0,0,0,-1.46912,-0.00537335,-0.0122463,1.66336,-0.193402,-0.0450881,-1.4912,-0.00569184,-0.0126817,1.69123,-0.199179,-0.0456472,0.000329055,-0.0165112,-0.0210439,0.2,0.2,0,1.28,0,0,0,0.2,-0.2,0,1.28,0,0,0
gen_000053_tz+0.02_tx-0.03_ty-0.01_p-0.05_fx+0.01_fy+0.00,-0.275621,0.9807382,0.476533,0.99983,0.0162272,-0.00843948,0.00211584,-1.45699,-0.00546862,-0.0122837,1.64201,-0.168113,-0.0450732,-1.47915,-0.00579089,-0.0127153,1.66987,-0.173803,-0.0456311,0.000550464,-0.0164273,-0.00498466,0.2,0.2,0,1.28,0,0,0,0.2,-0.2,0,1.28,0,0,0,-1.45699,-0.00546862,-0.0122837,1.64201,-0.168113,-0.0450732,-1.47915,-0.00579089,-0.0127153,1.66987,-0.173803,-0.0456311,0.000550464,-0.0164273,-0.00498466,0.2,0.2,0,1.28,0,0,0,0.2,-0.2,0,1.28,0,0,0
gen_000054_tz+0.02_tx-0.03_ty-0.01_p-0.05_fx+0.02_fy+0.00,-0.274887,0.9807373,0.476591,0.999732,0.0162025,-0.0163953,0.00200604,-1.44436,-0.00555164,-0.0123316,1.61993,-0.142767,-0.0450597,-1.46659,-0.00587745,-0.0127594,1.6478,-0.148386,-0.0456163,0.000771433,-0.016335,0.0109104,0.2,0.2,0,1.28,0,0,0,0.2,-0.2,0,1.28,0,0,0,-1.44436,-0.00555164,-0.0123316,1.61993,-0.142767,-0.0450597,-1.46659,-0.00587745,-0.0127594,1.6478,-0.148386,-0.0456163,0.000771433,-0.016335,0.0109104,0.2,0.2,0,1.28,0,0,0,0.2,-0.2,0,1.28,0,0,0
gen_000055_tz+0.02_tx-0.03_ty-0.01_p-0.05_fx+0.03_fy+0.00,-0.27416,0.9807358,0.476659,0.999573,0.0161743,-0.0242773,0.00189518,-1.43121,-0.00562171,-0.0123897,1.59714,-0.117363,-0.0450474,-1.45351,-0.00595084,-0.0128142,1.62501,-0.122927,-0.0456028,0.000992627,-0.0162345,0.0266592,0.2,0.2,0,1.28,0,0,0,0.2,-0.2,0,1.28,0,0,0,-1.43121,-0.00562171,-0.0123897,1.59714,-0.117363,-0.0450474,-1.45351,-0.00595084,-0.0128142,1.62501,-0.122927,-0.0456028,0.000992627,-0.0162345,0.0266592,0.2,0.2,0,1.28,0,0,0,0.2,-0.2,0,1.28,0,0,0
gen_000056_tz+0.02_tx-0.02_ty-0.01_p-0.05_fx-0.03_fy+0.00,-0.269404,0.9807357,0.476395,0.999328,0.0163073,0.0327138,0.00265676,-1.51297,-0.0048685,-0.0121614,1.74159,-0.293987,-0.0451508,-1.53466,-0.00516856,-0.0126152,1.76957,-0.300267,-0.045714,-0.000562959,-0.0167872,-0.0872229,0.2,0.2,0,1.28,0,0,0,0.2,-0.2,0,1.28,0,0,0,-1.51297,-0.0048685,-0.0121614,1.74159,-0.293987,-0.0451508,-1.53466,-0.00516856,-0.0126152,1.76957,-0.300267,-0.045714,-0.000562959,-0.0167872,-0.0872229,0.2,0.2,0,1.28,0,0,0,0.2,-0.2,0,1.28,0,0,0
gen_000057_tz+0.02_tx-0.02_ty-0.01_p-0.05_fx-0.02_fy+0.00,-0.268629,0.980737,0.476401,0.999569,0.0162949,0.0242697,0.00254935,-1.50266,-0.00501375,-0.0121774,1.72312,-0.268939,-0.0451358,-1.52446,-0.005319,-0.0126263,1.75105,-0.275069,-0.0456981,-0.000338685,-0.0167242,-0.0703429,0.2,0.2,0,1.28,0,0,0,0.2,-0.2,0,1.28,0,0,0,-1.50266,-0.00501375,-0.0121774,1.72312,-0.268939,-0.0451358,-1.52446,-0.005319,-0.0126263,1.75105,-0.275069,-0.0456981,-0.000338685,-0.0167242,-0.0703429,0.2,0.2,0,1.28,0,0,0,0.2,-0.2,0,1.28,0,0,0
gen_000058_tz+0.02_tx-0.02_ty-0.01_p-0.05_fx-0.01_fy+0.00,-0.267865,0.9807376,0.476417,0.999737,0.0162767,0.0159434,0.00244294,-1.49194,-0.00514969,-0.0122074,1.70392,-0.243819,-0.045123,-1.51383,-0.00545989,-0.0126515,1.73182,-0.249818,-0.0456842,-0.00011784,-0.0166488,-0.0537024,0.2,0.2,0,1.28,0,0,0,0.2,-0.2,0,1.28,0,0,0,-1.49194,-0.00514969,-0.0122074,1.70392,-0.243819,-0.045123,-1.51383,-0.00545989,-0.0126515,1.73182,-0.249818,-0.0456842,-0.00011784,-0.0166488,-0.0537024,0.2,0.2,0,1.28,0,0,0,0.2,-0.2,0,1.28,0,0,0
gen_000059_tz+0.02_tx-0.02_ty-0.01_p-0.05_fx+0.00_fy+0.00,-0.267109,0.9807383,0.476445,0.999835,0.016264,0.00772705,0.00233422,-1.48077,-0.00526757,-0.0122229,1.68399,-0.218635,-0.0451052,-1.50276,-0.00558207,-0.0126626,1.71187,-0.224515,-0.0456654,0.000105819,-0.0165835,-0.0372844,0.2,0.2,0,1.28,0,0,0,0.2,-0.2,0,1.28,0,0,0,-1.48077,-0.00526757,-0.0122229,1.68399,-0.218635,-0.0451052,-1.50276,-0.00558207,-0.0126626,1.71187,-0.224515,-0.0456654,0.000105819,-0.0165835,-0.0372844,0.2,0.2,0,1.28,0,0,0,0.2,-0.2,0,1.28,0,0,0
gen_000060_tz+0.02_tx-0.02_ty-0.01_p-0.05_fx+0.01_fy+0.00,-0.266361,0.9807386,0.476484,0.999865,0.0162483,-0.000401239,0.00222498,-1.46912,-0.00537335,-0.0122462,1.66336,-0.193402,-0.0450881,-1.4912,-0.00569183,-0.0126817,1.69123,-0.199179,-0.0456472,0.000329055,-0.0165112,-0.0210442,0.2,0.2,0,1.28,0,0,0,0.2,-0.2,0,1.28,0,0,0,-1.46912,-0.00537335,-0.0122462,1.66336,-0.193402,-0.0450881,-1.4912,-0.00569183,-0.0126817,1.69123,-0.199179,-0.0456472,0.000329055,-0.0165112,-0.0210442,0.2,0.2,0,1.28,0,0,0,0.2,-0.2,0,1.28,0,0,0
gen_000061_tz+0.02_tx-0.02_ty-0.01_p-0.05_fx+0.02_fy+0.00,-0.265621,0.9807382,0.476533,0.99983,0.0162272,-0.00843937,0.00211584,-1.45699,-0.00546862,-0.0122838,1.64201,-0.168113,-0.0450732,-1.47915,-0.00579088,-0.0127153,1.66987,-0.173803,-0.0456311,0.000550463,-0.0164273,-0.00498488,0.2,0.2,0,1.28,0,0,0,0.2,-0.2,0,1.28,0,0,0,-1.45699,-0.00546862,-0.0122838,1.64201,-0.168113,-0.0450732,-1.47915,-0.00579088,-0.0127153,1.66987,-0.173803,-0.0456311,0.000550463,-0.0164273,-0.00498488,0.2,0.2,0,1.28,0,0,0,0.2,-0.2,0,1.28,0,0,0
gen_000062_tz+0.02_tx-0.02_ty-0.01_p-0.05_fx+0.03_fy+0.00,-0.264887,0.9807373,0.476591,0.999732,0.0162025,-0.0163952,0.00200604,-1.44436,-0.00555164,-0.0123316,1.61993,-0.142766,-0.0450597,-1.46659,-0.00587745,-0.0127595,1.6478,-0.148386,-0.0456163,0.000771433,-0.016335,0.0109102,0.2,0.2,0,1.28,0,0,0,0.2,-0.2,0,1.28,0,0,0,-1.44436,-0.00555164,-0.0123316,1.61993,-0.142766,-0.0450597,-1.46659,-0.00587745,-0.0127595,1.6478,-0.148386,-0.0456163,0.000771433,-0.016335,0.0109102,0.2,0.2,0,1.28,0,0,0,0.2,-0.2,0,1.28,0,0,0
gen_000063_tz+0.02_tx-0.01_ty-0.01_p-0.05_fx-0.03_fy+0.00,-0.260188,0.9807337,0.476402,0.999011,0.0163152,0.0412746,0.002765,-1.52287,-0.00471342,-0.0121557,1.75934,-0.318966,-0.045167,-1.54443,-0.00500797,-0.0126145,1.78736,-0.325411,-0.0457312,-0.000790196,-0.0168402,-0.104342,0.2,0.2,0,1.28,0,0,0,0.2,-0.2,0,1.28,0,0,0,-1.52287,-0.00471342,-0.0121557,1.75934,-0.318966,-0.045167,-1.54443,-0.00500797,-0.0126145,1.78736,-0.325411,-0.0457312,-0.000790196,-0.0168402,-0.104342,0.2,0.2,0,1.28,0,0,0,0.2,-0.2,0,1.28,0,0,0
gen_000064_tz+0.02_tx-0.01_ty-0.01_p-0.05_fx-0.02_fy+0.00,-0.259404,0.9807357,0.476395,0.999328,0.0163074,0.032714,0.00265676,-1.51297,-0.00486848,-0.0121613,1.74159,-0.293987,-0.0451508,-1.53466,-0.00516854,-0.0126151,1.76957,-0.300266,-0.045714,-0.000562959,-0.0167873,-0.0872233,0.2,0.2,0,1.28,0,0,0,0.2,-0.2,0,1.28,0,0,0,-1.51297,-0.00486848,-0.0121613,1.74159,-0.293987,-0.0451508,-1.53466,-0.00516854,-0.0126151,1.76957,-0.300266,-0.045714,-0.000562959,-0.0167873,-0.0872233,0.2,0.2,0,1.28,0,0,0,0.2,-0.2,0,1.28,0,0,0
gen_000065_tz+0.02_tx-0.01_ty-0.01_p-0.05_fx-0.01_fy+0.00,-0.258629,0.980737,0.476401,0.999569,0.016295,0.0242701,0.00254934,-1.50266,-0.00501372,-0.0121773,1.72312,-0.268939,-0.0451357,-1.52446,-0.00531897,-0.0126261,1.75105,-0.275069,-0.045698,-0.000338681,-0.0167244,-0.0703435,0.2,0.2,0,1.28,0,0,0,0.2,-0.2,0,1.28,0,0,0,-1.50266,-0.00501372,-0.0121773,1.72312,-0.268939,-0.0451357,-1.52446,-0.00531897,-0.0126261,1.75105,-0.275069,-0.045698,-0.000338681,-0.0167244,-0.0703435,0.2,0.2,0,1.28,0,0,0,0.2,-0.2,0,1.28,0,0,0
gen_000066_tz+0.02_tx-0.01_ty-0.01_p-0.05_fx+0.00_fy+0.00,-0.257865,0.9807376,0.476417,0.999737,0.0162768,0.0159439,0.00244294,-1.49194,-0.00514965,-0.0122072,1.70392,-0.243819,-0.0451229,-1.51383,-0.00545985,-0.0126512,1.73182,-0.249817,-0.0456841,-0.000117836,-0.016649,-0.0537033,0.2,0.2,0,1.28,0,0,0,0.2,-0.2,0,1.28,0,0,0,-1.49194,-0.00514965,-0.0122072,1.70392,-0.243819,-0.0451229,-1.51383,-0.00545985,-0.0126512,1.73182,-0.249817,-0.0456841,-0.000117836,-0.016649,-0.0537033,0.2,0.2,0,1.28,0,0,0,0.2,-0.2,0,1.28,0,0,0
gen_000067_tz+0.02_tx-0.01_ty-0.01_p-0.05_fx+0.01_fy+0.00,-0.257109,0.9807384,0.476445,0.999835,0.0162646,0.00772656,0.00233403,-1.48077,-0.00526709,-0.0122214,1.68399,-0.218636,-0.0451048,-1.50276,-0.00558156,-0.012661,1.71188,-0.224515,-0.045665,0.000106186,-0.0165848,-0.0372834,0.2,0.2,0,1.28,0,0,0,0.2,-0.2,0,1.28,0,0,0,-1.48077,-0.00526709,-0.0122214,1.68399,-0.218636,-0.0451048,-1.50276,-0.00558156,-0.012661,1.71188,-0.224515,-0.045665,0.000106186,-0.0165848,-0.0372834,0.2,0.2,0,1.28,0,0,0,0.2,-0.2,0,1.28,0,0,0
gen_000068_tz+0.02_tx-0.01_ty-0.01_p-0.05_fx+0.02_fy+0.00,-0.256361,0.9807386,0.476484,0.999865,0.0162482,-0.000401061,0.00222498,-1.46912,-0.00537335,-0.0122463,1.66336,-0.193402,-0.0450881,-1.4912,-0.00569183,-0.0126817,1.69123,-0.199179,-0.0456472,0.000329052,-0.0165112,-0.0210445,0.2,0.2,0,1.28,0,0,0,0.2,-0.2,0,1.28,0,0,0,-1.46912,-0.00537335,-0.0122463,1.66336,-0.193402,-0.0450881,-1.4912,-0.00569183,-0.0126817,1.69123,-0.199179,-0.0456472,0.000329052,-0.0165112,-0.0210445,0.2,0.2,0,1.28,0,0,0,0.2,-0.2,0,1.28,0,0,0
gen_000069_tz+0.02_tx-0.01_ty-0.01_p-0.05_fx+0.03_fy+0.00,-0.255621,0.9807382,0.476533,0.99983,0.0162272,-0.00843922,0.00211584,-1.45699,-0.00546862,-0.0122838,1.64201,-0.168112,-0.0450733,-1.47915,-0.00579088,-0.0127153,1.66987,-0.173803,-0.0456311,0.000550462,-0.0164273,-0.00498518,0.2,0.2,0,1.28,0,0,0,0.2,-0.2,0,1.28,0,0,0,-1.45699,-0.00546862,-0.0122838,1.64201,-0.168112,-0.0450733,-1.47915,-0.00579088,-0.0127153,1.66987,-0.173803,-0.0456311,0.000550462,-0.0164273,-0.00498518,0.2,0.2,0,1.28,0,0,0,0.2,-0.2,0,1.28,0,0,0
gen_000070_tz+0.02_tx+0.00_ty-0.01_p-0.05_fx-0.03_fy+0.00,-0.250982,0.9807311,0.476422,0.998614,0.0163193,0.0499554,0.002874,-1.53236,-0.0045481,-0.0121577,1.77637,-0.343871,-0.0451839,-1.55379,-0.00483677,-0.0126218,1.80444,-0.3505,-0.0457489,-0.00102015,-0.0168847,-0.121708,0.2,0.2,0,1.28,0,0,0,0.2,-0.2,0,1.28,0,0,0,-1.53236,-0.0045481,-0.0121577,1.77637,-0.343871,-0.0451839,-1.55379,-0.00483677,-0.0126218,1.80444,-0.3505,-0.0457489,-0.00102015,-0.0168847,-0.121708,0.2,0.2,0,1.28,0,0,0,0.2,-0.2,0,1.28,0,0,0
gen_000071_tz+0.02_tx+0.00_ty-0.01_p-0.05_fx-0.02_fy+0.00,-0.250188,0.9807337,0.476402,0.999011,0.0163152,0.0412748,0.002765,-1.52287,-0.0047134,-0.0121556,1.75934,-0.318966,-0.045167,-1.54443,-0.00500795,-0.0126145,1.78736,-0.325411,-0.0457312,-0.000790194,-0.0168403,-0.104342,0.2,0.2,0,1.28,0,0,0,0.2,-0.2,0,1.28,0,0,0,-1.52287,-0.0047134,-0.0121556,1.75934,-0.318966,-0.045167,-1.54443,-0.00500795,-0.0126145,1.78736,-0.325411,-0.0457312,-0.000790194,-0.0168403,-0.104342,0.2,0.2,0,1.28,0,0,0,0.2,-0.2,0,1.28,0,0,0
gen_000072_tz+0.02_tx+0.00_ty-0.01_p-0.05_fx-0.01_fy+0.00,-0.249404,0.9807357,0.476395,0.999328,0.0163074,0.0327142,0.00265675,-1.51298,-0.00486846,-0.0121612,1.74159,-0.293987,-0.0451507,-1.53466,-0.00516852,-0.012615,1.76957,-0.300266,-0.045714,-0.000562954,-0.0167874,-0.0872238,0.2,0.2,0,1.28,0,0,0,0.2,-0.2,0,1.28,0,0,0,-1.51298,-0.00486846,-0.0121612,1.74159,-0.293987,-0.0451507,-1.53466,-0.00516852,-0.012615,1.76957,-0.300266,-0.045714,-0.000562954,-0.0167874,-0.0872238,0.2,0.2,0,1.28,0,0,0,0.2,-0.2,0,1.28,0,0,0
gen_000073_tz+0.02_tx+0.00_ty-0.01_p-0.05_fx+0.00_fy+0.00,-0.248629,0.980737,0.476401,0.999569,0.016295,0.0242703,0.00254934,-1.50266,-0.00501369,-0.0121772,1.72312,-0.268938,-0.0451357,-1.52446,-0.00531894,-0.012626,1.75105,-0.275069,-0.045698,-0.000338678,-0.0167244,-0.0703441,0.2,0.2,0,1.28,0,0,0,0.2,-0.2,0,1.28,0,0,0,-1.50266,-0.00501369,-0.0121772,1.72312,-0.268938,-0.0451357,-1.52446,-0.00531894,-0.012626,1.75105,-0.275069,-0.045698,-0.000338678,-0.0167244,-0.0703441,0.2,0.2,0,1.28,0,0,0,0.2,-0.2,0,1.28,0,0,0
gen_000074_tz+0.02_tx+0.00_ty-0.01_p-0.05_fx+0.01_fy+0.00,-0.247865,0.9807376,0.476417,0.999737,0.0162768,0.0159443,0.00244294,-1.49194,-0.00514965,-0.0122072,1.70392,-0.243819,-0.0451229,-1.51383,-0.00545985,-0.0126513,1.73182,-0.249817,-0.0456841,-0.000117845,-0.016649,-0.0537041,0.2,0.2,0,1.28,0,0,0,0.2,-0.2,0,1.28,0,0,0,-1.49194,-0.00514965,-0.0122072,1.70392,-0.243819,-0.0451229,-1.51383,-0.00545985,-0.0126513,1.73182,-0.249817,-0.0456841,-0.000117845,-0.016649,-0.0537041,0.2,0.2,0,1.28,0,0,0,0.2,-0.2,0,1.28,0,0,0
gen_000075_tz+0.02_tx+0.00_ty-0.01_p-0.05_fx+0.02_fy+0.00,-0.247109,0.9807384,0.476445,0.999835,0.0162645,0.00772686,0.00233404,-1.48077,-0.0052671,-0.0122215,1.68399,-0.218636,-0.0451049,-1.50276,-0.00558157,-0.0126611,1.71187,-0.224515,-0.045665,0.000106176,-0.0165847,-0.037284,0.2,0.2,0,1.28,0,0,0,0.2,-0.2,0,1.28,0,0,0,-1.48077,-0.0052671,-0.0122215,1.68399,-0.218636,-0.0451049,-1.50276,-0.00558157,-0.0126611,1.71187,-0.224515,-0.045665,0.000106176,-0.0165847,-0.037284,0.2,0.2,0,1.28,0,0,0,0.2,-0.2,0,1.28,0,0,0
gen_000076_tz+0.02_tx+0.00_ty-0.01_p-0.05_fx+0.03_fy+0.00,-0.246361,0.9807386,0.476484,0.999865,0.0162482,-0.000400842,0.00222498,-1.46912,-0.00537335,-0.0122464,1.66336,-0.193402,-0.0450881,-1.4912,-0.00569183,-0.0126818,1.69123,-0.199179,-0.0456472,0.000329049,-0.0165111,-0.021045,0.2,0.2,0,1.28,0,0,0,0.2,-0.2,0,1.28,0,0,0,-1.46912,-0.00537335,-0.0122464,1.66336,-0.193402,-0.0450881,-1.4912,-0.00569183,-0.0126818,1.69123,-0.199179,-0.0456472,0.000329049,-0.0165111,-0.021045,0.2,0.2,0,1.28,0,0,0,0.2,-0.2,0,1.28,0,0,0
gen_000077_tz+0.02_tx+0.01_ty-0.01_p-0.05_fx-0.03_fy+0.00,-0.241787,0.9807279,0.476454,0.998134,0.0163198,0.0587585,0.00298385,-1.54146,-0.00437264,-0.0121666,1.79266,-0.368699,-0.0452012,-1.56274,-0.00465504,-0.0126361,1.82079,-0.375528,-0.0457669,-0.0012529,-0.0169209,-0.139326,0.2,0.2,0,1.28,0,0,0,0.2,-0.2,0,1.28,0,0,0,-1.54146,-0.00437264,-0.0121666,1.79266,-0.368699,-0.0452012,-1.56274,-0.00465504,-0.0126361,1.82079,-0.375528,-0.0457669,-0.0012529,-0.0169209,-0.139326,0.2,0.2,0,1.28,0,0,0,0.2,-0.2,0,1.28,0,0,0
gen_000078_tz+0.02_tx+0.01_ty-0.01_p-0.05_fx-0.02_fy+0.00,-0.240982,0.9807311,0.476422,0.998614,0.0163193,0.0499556,0.002874,-1.53236,-0.00454809,-0.0121577,1.77637,-0.343871,-0.0451839,-1.55379,-0.00483675,-0.0126218,1.80444,-0.3505,-0.0457489,-0.00102015,-0.0168847,-0.121708,0.2,0.2,0,1.28,0,0,0,0.2,-0.2,0,1.28,0,0,0,-1.53236,-0.00454809,-0.0121577,1.77637,-0.343871,-0.0451839,-1.55379,-0.00483675,-0.0126218,1.80444,-0.3505,-0.0457489,-0.00102015,-0.0168847,-0.121708,0.2,0.2,0,1.28,0,0,0,0.2,-0.2,0,1.28,0,0,0
gen_000079_tz+0.02_tx+0.01_ty-0.01_p-0.05_fx-0.01_fy+0.00,-0.240188,0.9807337,0.476402,0.999011,0.0163153,0.041275,0.002765,-1.52287,-0.00471339,-0.0121555,1.75934,-0.318965,-0.045167,-1.54444,-0.00500794,-0.0126144,1.78736,-0.325411,-0.0457311,-0.000790192,-0.0168403,-0.104343,0.2,0.2,0,1.28,0,0,0,0.2,-0.2,0,1.28,0,0,0,-1.52287,-0.00471339,-0.0121555,1.75934,-0.318965,-0.045167,-1.54444,-0.00500794,-0.0126144,1.78736,-0.325411,-0.0457311,-0.000790192,-0.0168403,-0.104343,0.2,0.2,0,1.28,0,0,0,0.2,-0.2,0,1.28,0,0,0
gen_000080_tz+0.02_tx+0.01_ty-0.01_p-0.05_fx+0.00_fy+0.00,-0.239404,0.9807357,0.476395,0.999328,0.0163071,0.0327134,0.00265683,-1.51297,-0.00486871,-0.0121619,1.74159,-0.293987,-0.0451509,-1.53466,-0.00516878,-0.0126157,1.76957,-0.300267,-0.0457142,-0.000563099,-0.0167868,-0.0872222,0.2,0.2,0,1.28,0,0,0,0.2,-0.2,0,1.28,0,0,0,-1.51297,-0.00486871,-0.0121619,1.74159,-0.293987,-0.0451509,-1.53466,-0.00516878,-0.0126157,1.76957,-0.300267,-0.0457142,-0.000563099,-0.0167868,-0.0872222,0.2,0.2,0,1.28,0,0,0,0.2,-0.2,0,1.28,0,0,0
gen_000081_tz+0.02_tx+0.01_ty-0.01_p-0.05_fx+0.01_fy+0.00,-0.238629,0.980737,0.476401,0.999569,0.016295,0.0242705,0.00254935,-1.50267,-0.00501371,-0.0121773,1.72312,-0.268938,-0.0451357,-1.52446,-0.00531896,-0.0126261,1.75105,-0.275068,-0.045698,-0.000338687,-0.0167244,-0.0703445,0.2,0.2,0,1.28,0,0,0,0.2,-0.2,0,1.28,0,0,0,-1.50267,-0.00501371,-0.0121773,1.72312,-0.268938,-0.0451357,-1.52446,-0.00531896,-0.0126261,1.75105,-0.275068,-0.045698,-0.000338687,-0.0167244,-0.0703445,0.2,0.2,0,1.28,0,0,0,0.2,-0.2,0,1.28,0,0,0
gen_000082_tz+0.02_tx+0.01_ty-0.01_p-0.05_fx+0.02_fy+0.00,-0.237865,0.9807376,0.476417,0.999737,0.0162767,0.0159447,0.00244295,-1.49194,-0.00514968,-0.0122075,1.70392,-0.243818,-0.045123,-1.51383,-0.00545989,-0.0126516,1.73182,-0.249816,-0.0456842,-0.000117863,-0.0166488,-0.0537049,0.2,0.2,0,1.28,0,0,0,0.2,-0.2,0,1.28,0,0,0,-1.49194,-0.00514968,-0.0122075,1.70392,-0.243818,-0.045123,-1.51383,-0.00545989,-0.0126516,1.73182,-0.249816,-0.0456842,-0.000117863,-0.0166488,-0.0537049,0.2,0.2,0,1.28,0,0,0,0.2,-0.2,0,1.28,0,0,0
gen_000083_tz+0.02_tx+0.01_ty-0.01_p-0.05_fx+0.03_fy+0.00,-0.237109,0.9807384,0.476445,0.999835,0.0162645,0.0077272,0.00233404,-1.48077,-0.00526711,-0.0122217,1.68399,-0.218635,-0.0451049,-1.50276,-0.00558159,-0.0126613,1.71187,-0.224514,-0.0456651,0.000106171,-0.0165845,-0.0372847,0.2,0.2,0,1.28,0,0,0,0.2,-0.2,0,1.28,0,0,0,-1.48077,-0.00526711,-0.0122217,1.68399,-0.218635,-0.0451049,-1.50276,-0.00558159,-0.0126613,1.71187,-0.224514,-0.0456651,0.000106171,-0.0165845,-0.0372847,0.2,0.2,0,1.28,0,0,0,0.2,-0.2,0,1.28,0,0,0
gen_000084_tz+0.02_tx+0.02_ty-0.01_p-0.05_fx-0.03_fy+0.00,-0.232601,0.9807241,0.476501,0.997568,0.0163166,0.0676864,0.00309464,-1.55016,-0.00418714,-0.0121817,1.80823,-0.393442,-0.0452188,-1.57129,-0.00446284,-0.0126567,1.83642,-0.400488,-0.0457851,-0.00148853,-0.0169488,-0.157205,0.2,0.2,0,1.28,0,0,0,0.2,-0.2,0,1.28,0,0,0,-1.55016,-0.00418714,-0.0121817,1.80823,-0.393442,-0.0452188,-1.57129,-0.00446284,-0.0126567,1.83642,-0.400488,-0.0457851,-0.00148853,-0.0169488,-0.157205,0.2,0.2,0,1.28,0,0,0,0.2,-0.2,0,1.28,0,0,0
gen_000085_tz+0.02_tx+0.02_ty-0.01_p-0.05_fx-0.02_fy+0.00,-0.231787,0.9807279,0.476454,0.998134,0.0163198,0.0587586,0.00298385,-1.54146,-0.00437263,-0.0121666,1.79266,-0.368699,-0.0452012,-1.56274,-0.00465503,-0.0126361,1.82079,-0.375527,-0.0457669,-0.0012529,-0.0169209,-0.139327,0.2,0.2,0,1.28,0,0,0,0.2,-0.2,0,1.28,0,0,0,-1.54146,-0.00437263,-0.0121666,1.79266,-0.368699,-0.0452012,-1.56274,-0.00465503,-0.0126361,1.82079,-0.375527,-0.0457669,-0.0012529,-0.0169209,-0.139327,0.2,0.2,0,1.28,0,0,0,0.2,-0.2,0,1.28,0,0,0
gen_000086_tz+0.02_tx+0.02_ty-0.01_p-0.05_fx-0.01_fy+0.00,-0.230982,0.9807311,0.476422,0.998614,0.0163192,0.0499547,0.00287404,-1.53236,-0.00454822,-0.012158,1.77637,-0.343872,-0.045184,-1.55379,-0.0048369,-0.0126221,1.80444,-0.350501,-0.0457489,-0.00102021,-0.0168844,-0.121706,0.2,0.2,0,1.28,0,0,0,0.2,-0.2,0,1.28,0,0,0,-1.53236,-0.00454822,-0.012158,1.77637,-0.343872,-0.045184,-1.55379,-0.0048369,-0.0126221,1.80444,-0.350501,-0.0457489,-0.00102021,-0.0168844,-0.121706,0.2,0.2,0,1.28,0,0,0,0.2,-0.2,0,1.28,0,0,0
gen_000087_tz+0.02_tx+0.02_ty-0.01_p-0.05_fx+0.00_fy+0.00,-0.230188,0.9807337,0.476402,0.999011,0.0163151,0.0412741,0.00276506,-1.52287,-0.00471358,-0.0121561,1.75934,-0.318966,-0.0451671,-1.54443,-0.00500813,-0.0126149,1.78736,-0.325412,-0.0457313,-0.00079029,-0.0168399,-0.104341,0.2,0.2,0,1.28,0,0,0,0.2,-0.2,0,1.28,0,0,0,-1.52287,-0.00471358,-0.0121561,1.75934,-0.318966,-0.0451671,-1.54443,-0.00500813,-0.0126149,1.78736,-0.325412,-0.0457313,-0.00079029,-0.0168399,-0.104341,0.2,0.2,0,1.28,0,0,0,0.2,-0.2,0,1.28,0,0,0
gen_000088_tz+0.02_tx+0.02_ty-0.01_p-0.05_fx+0.01_fy+0.00,-0.229404,0.9807357,0.476395,0.999328,0.0163071,0.0327135,0.00265684,-1.51297,-0.00486872,-0.012162,1.74159,-0.293987,-0.0451509,-1.53466,-0.00516879,-0.0126158,1.76957,-0.300267,-0.0457142,-0.000563106,-0.0167867,-0.0872224,0.2,0.2,0,1.28,0,0,0,0.2,-0.2,0,1.28,0,0,0,-1.51297,-0.00486872,-0.012162,1.74159,-0.293987,-0.0451509,-1.53466,-0.00516879,-0.0126158,1.76957,-0.300267,-0.0457142,-0.000563106,-0.0167867,-0.0872224,0.2,0.2,0,1.28,0,0,0,0.2,-0.2,0,1.28,0,0,0
gen_000089_tz+0.02_tx+0.02_ty-0.01_p-0.05_fx+0.02_fy+0.00,-0.228629,0.980737,0.476401,0.999569,0.0162944,0.0242698,0.00254949,-1.50266,-0.00501414,-0.0121787,1.72312,-0.268939,-0.0451361,-1.52446,-0.00531941,-0.0126276,1.75105,-0.275069,-0.0456984,-0.000338948,-0.0167232,-0.0703431,0.2,0.2,0,1.28,0,0,0,0.2,-0.2,0,1.28,0,0,0,-1.50266,-0.00501414,-0.0121787,1.72312,-0.268939,-0.0451361,-1.52446,-0.00531941,-0.0126276,1.75105,-0.275069,-0.0456984,-0.000338948,-0.0167232,-0.0703431,0.2,0.2,0,1.28,0,0,0,0.2,-0.2,0,1.28,0,0,0
gen_000090_tz+0.02_tx+0.02_ty-0.01_p-0.05_fx+0.03_fy+0.00,-0.227865,0.9807375,0.476417,0.999737,0.0162766,0.0159451,0.00244296,-1.49194,-0.0051497,-0.0122078,1.70392,-0.243818,-0.0451231,-1.51383,-0.00545991,-0.0126519,1.73182,-0.249816,-0.0456843,-0.000117868,-0.0166485,-0.0537058,0.2,0.2,0,1.28,0,0,0,0.2,-0.2,0,1.28,0,0,0,-1.49194,-0.0051497,-0.0122078,1.70392,-0.243818,-0.0451231,-1.51383,-0.00545991,-0.0126519,1.73182,-0.249816,-0.0456843,-0.000117868,-0.0166485,-0.0537058,0.2,0.2,0,1.28,0,0,0,0.2,-0.2,0,1.28,0,0,0
gen_000091_tz+0.02_tx+0.03_ty-0.01_p-0.05_fx-0.03_fy+0.00,-0.223426,0.9807196,0.476563,0.996913,0.0163097,0.0767391,0.00320655,-1.55849,-0.00399193,-0.0122028,1.82307,-0.418096,-0.0452366,-1.57944,-0.00426051,-0.0126833,1.85132,-0.425376,-0.0458034,-0.00172718,-0.0169681,-0.175345,0.2,0.2,0,1.28,0,0,0,0.2,-0.2,0,1.28,0,0,0,-1.55849,-0.00399193,-0.0122028,1.82307,-0.418096,-0.0452366,-1.57944,-0.00426051,-0.0126833,1.85132,-0.425376,-0.0458034,-0.00172718,-0.0169681,-0.175345,0.2,0.2,0,1.28,0,0,0,0.2,-0.2,0,1.28,0,0,0
gen_000092_tz+0.02_tx+0.03_ty-0.01_p-0.05_fx-0.02_fy+0.00,-0.222601,0.9807241,0.476501,0.997568,0.0163166,0.0676865,0.00309464,-1.55016,-0.00418713,-0.0121817,1.80823,-0.393442,-0.0452188,-1.57129,-0.00446283,-0.0126566,1.83642,-0.400488,-0.0457851,-0.00148853,-0.0169488,-0.157205,0.2,0.2,0,1.28,0,0,0,0.2,-0.2,0,1.28,0,0,0,-1.55016,-0.00418713,-0.0121817,1.80823,-0.393442,-0.0452188,-1.57129,-0.00446283,-0.0126566,1.83642,-0.400488,-0.0457851,-0.00148853,-0.0169488,-0.157205,0.2,0.2,0,1.28,0,0,0,0.2,-0.2,0,1.28,0,0,0
gen_000093_tz+0.02_tx+0.03_ty-0.01_p-0.05_fx-0.01_fy+0.00,-0.221787,0.9807279,0.476454,0.998134,0.0163198,0.0587587,0.00298385,-1.54146,-0.00437263,-0.0121666,1.79266,-0.368699,-0.0452012,-1.56274,-0.00465502,-0.0126361,1.82079,-0.375527,-0.0457669,-0.0012529,-0.0169209,-0.139327,0.2,0.2,0,1.28,0,0,0,0.2,-0.2,0,1.28,0,0,0,-1.54146,-0.00437263,-0.0121666,1.79266,-0.368699,-0.0452012,-1.56274,-0.00465502,-0.0126361,1.82079,-0.375527,-0.0457669,-0.0012529,-0.0169209,-0.139327,0.2,0.2,0,1.28,0,0,0,0.2,-0.2,0,1.28,0,0,0
gen_000094_tz+0.02_tx+0.03_ty-0.01_p-0.05_fx+0.00_fy+0.00,-0.220982,0.9807311,0.476422,0.998614,0.0163192,0.0499548,0.00287404,-1.53236,-0.00454823,-0.012158,1.77637,-0.343872,-0.045184,-1.55379,-0.0048369,-0.0126221,1.80444,-0.350501,-0.0457489,-0.00102022,-0.0168844,-0.121706,0.2,0.2,0,1.28,0,0,0,0.2,-0.2,0,1.28,0,0,0,-1.53236,-0.00454823,-0.012158,1.77637,-0.343872,-0.045184,-1.55379,-0.0048369,-0.0126221,1.80444,-0.350501,-0.0457489,-0.00102022,-0.0168844,-0.121706,0.2,0.2,0,1.28,0,0,0,0.2,-0.2,0,1.28,0,0,0
gen_000095_tz+0.02_tx+0.03_ty-0.01_p-0.05_fx+0.01_fy+0.00,-0.220188,0.9807337,0.476402,0.999011,0.016315,0.0412741,0.00276506,-1.52287,-0.00471359,-0.0121561,1.75934,-0.318966,-0.0451672,-1.54443,-0.00500814,-0.012615,1.78736,-0.325412,-0.0457313,-0.000790295,-0.0168398,-0.104341,0.2,0.2,0,1.28,0,0,0,0.2,-0.2,0,1.28,0,0,0,-1.52287,-0.00471359,-0.0121561,1.75934,-0.318966,-0.0451672,-1.54443,-0.00500814,-0.012615,1.78736,-0.325412,-0.0457313,-0.000790295,-0.0168398,-0.104341,0.2,0.2,0,1.28,0,0,0,0.2,-0.2,0,1.28,0,0,0
gen_000096_tz+0.02_tx+0.03_ty-0.01_p-0.05_fx+0.02_fy+0.00,-0.219404,0.9807357,0.476395,0.999328,0.0163071,0.0327136,0.00265684,-1.51297,-0.00486874,-0.0121621,1.74159,-0.293987,-0.045151,-1.53466,-0.00516881,-0.0126159,1.76957,-0.300267,-0.0457142,-0.000563111,-0.0167866,-0.0872225,0.2,0.2,0,1.28,0,0,0,0.2,-0.2,0,1.28,0,0,0,-1.51297,-0.00486874,-0.0121621,1.74159,-0.293987,-0.045151,-1.53466,-0.00516881,-0.0126159,1.76957,-0.300267,-0.0457142,-0.000563111,-0.0167866,-0.0872225,0.2,0.2,0,1.28,0,0,0,0.2,-0.2,0,1.28,0,0,0
gen_000097_tz+0.02_tx+0.03_ty-0.01_p-0.05_fx+0.03_fy+0.00,-0.218629,0.980737,0.476401,0.999569,0.0162943,0.02427,0.00254949,-1.50266,-0.00501415,-0.0121789,1.72312,-0.268939,-0.0451361,-1.52446,-0.00531943,-0.0126277,1.75105,-0.275069,-0.0456984,-0.00033895,-0.0167231,-0.0703435,0.2,0.2,0,1.28,0,0,0,0.2,-0.2,0,1.28,0,0,0,-1.50266,-0.00501415,-0.0121789,1.72312,-0.268939,-0.0451361,-1.52446,-0.00531943,-0.0126277,1.75105,-0.275069,-0.0456984,-0.00033895,-0.0167231,-0.0703435,0.2,0.2,0,1.28,0,0,0,0.2,-0.2,0,1.28,0,0,0
gen_000098_tz+0.02_tx-0.03_ty+0.00_p-0.05_fx-0.03_fy+0.00,-0.278619,0.9899612,0.476383,0.999676,0.00767667,0.0241718,0.00237776,-1.50928,-0.00491555,-0.00810913,1.73095,-0.269921,-0.0238658,-1.51918,-0.00500065,-0.00817889,1.7456,-0.274651,-0.0239847,0.000417229,0.000484768,-0.0701809,0.2,0.2,0,1.28,0,0,0,0.2,-0.2,0,1.28,0,0,0,-1.50928,-0.00491555,-0.00810913,1.73095,-0.269921,-0.0238658,-1.51918,-0.00500065,-0.00817889,1.7456,-0.274651,-0.0239847,0.000417229,0.000484768,-0.0701809,0.2,0.2,0,1.28,0,0,0,0.2,-0.2,0,1.28,0,0,0
gen_000099_tz+0.02_tx-0.03_ty+0.00_p-0.05_fx-0.02_fy+0.00,-0.277854,0.9899624,0.4764,0.999842,0.00767412,0.0158366,0.00230585,-1.49855,-0.00495083,-0.00811043,1.71175,-0.244788,-0.023851,-1.50854,-0.00503725,-0.00817914,1.72638,-0.249416,-0.0239696,0.000425211,0.000535448,-0.0535254,0.2,0.2,0,1.28,0,0,0,0.2,-0.2,0,1.28,0,0,0,-1.49855,-0.00495083,-0.00811043,1.71175,-0.244788,-0.023851,-1.50854,-0.00503725,-0.00817914,1.72638,-0.249416,-0.0239696,0.000425211,0.000535448,-0.0535254,0.2,0.2,0,1.28,0,0,0,0.2,-0.2,0,1.28,0,0,0
gen_000100_tz+0.02_tx-0.03_ty+0.00_p-0.05_fx-0.01_fy+0.00,-0.2771,0.9899629,0.476428,0.999939,0.00766693,0.0076312,0.00223862,-1.48742,-0.00498872,-0.00812359,1.69181,-0.21957,-0.0238382,-1.49749,-0.0050764,-0.00819122,1.70643,-0.224111,-0.0239565,0.000424852,0.000593805,-0.0371325,0.2,0.2,0,1.28,0,0,0,0.2,-0.2,0,1.28,0,0,0,-1.48742,-0.00498872,-0.00812359,1.69181,-0.21957,-0.0238382,-1.49749,-0.0050764,-0.00819122,1.70643,-0.224111,-0.0239565,0.000424852,0.000593805,-0.0371325,0.2,0.2,0,1.28,0,0,0,0.2,-0.2,0,1.28,0,0,0
gen_000101_tz+0.02_tx-0.03_ty+0.00_p-0.05_fx+0.00_fy+0.00,-0.276352,0.9899635,0.476467,0.999968,0.00766061,-0.000498824,0.00217032,-1.47578,-0.00501725,-0.00813593,1.67117,-0.194321,-0.0238243,-1.48592,-0.00510609,-0.0082026,1.68578,-0.198783,-0.0239424,0.000426652,0.000648978,-0.0208918,0.2,0.2,0,1.28,0,0,0,0.2,-0.2,0,1.28,0,0,0,-1.47578,-0.00501725,-0.00813593,1.67117,-0.194321,-0.0238243,-1.48592,-0.00510609,-0.0082026,1.68578,-0.198783,-0.0239424,0.000426652,0.000648978,-0.0208918,0.2,0.2,0,1.28,0,0,0,0.2,-0.2,0,1.28,0,0,0
gen_000102_tz+0.02_tx-0.03_ty+0.00_p-0.05_fx+0.01_fy+0.00,-0.275611,0.9899638,0.476516,0.999932,0.00765377,-0.00853769,0.00210219,-1.46366,-0.00503898,-0.00815092,1.64981,-0.169019,-0.0238102,-1.47387,-0.00512892,-0.00821671,1.66443,-0.17341,-0.023928,0.000428435,0.000703758,-0.00483396,0.2,0.2,0,1.28,0,0,0,0.2,-0.2,0,1.28,0,0,0,-1.46366,-0.00503898,-0.00815092,1.64981,-0.169019,-0.0238102,-1.47387,-0.00512892,-0.00821671,1.66443,-0.17341,-0.023928,0.000428435,0.000703758,-0.00483396,0.2,0.2,0,1.28,0,0,0,0.2,-0.2,0,1.28,0,0,0
gen_000103_tz+0.02_tx-0.03_ty+0.00_p-0.05_fx+0.02_fy+0.00,-0.274878,0.9899639,0.476575,0.999833,0.00764619,-0.0164929,0.00203423,-1.45104,-0.00505405,-0.00816923,1.62773,-0.143663,-0.0237961,-1.46132,-0.00514501,-0.00823421,1.64236,-0.147993,-0.0239136,0.000430107,0.000758623,0.011057,0.2,0.2,0,1.28,0,0,0,0.2,-0.2,0,1.28,0,0,0,-1.45104,-0.00505405,-0.00816923,1.62773,-0.143663,-0.0237961,-1.46132,-0.00514501,-0.00823421,1.64236,-0.147993,-0.0239136,0.000430107,0.000758623,0.011057,0.2,0.2,0,1.28,0,0,0,0.2,-0.2,0,1.28,0,0,0
gen_000104_tz+0.02_tx-0.03_ty+0.00_p-0.05_fx+0.03_fy+0.00,-0.274151,0.9899638,0.476643,0.999672,0.00763779,-0.0243738,0.00196629,-1.43789,-0.00506225,-0.00819122,1.60494,-0.118253,-0.023782,-1.44825,-0.00515416,-0.00825549,1.61958,-0.122531,-0.0238993,0.000431846,0.000813829,0.0268008,0.2,0.2,0,1.28,0,0,0,0.2,-0.2,0,1.28,0,0,0,-1.43789,-0.00506225,-0.00819122,1.60494,-0.118253,-0.023782,-1.44825,-0.00515416,-0.00825549,1.61958,-0.122531,-0.0238993,0.000431846,0.000813829,0.0268008,0.2,0.2,0,1.28,0,0,0,0.2,-0.2,0,1.28,0,0,0
gen_000105_tz+0.02_tx-0.02_ty+0.00_p-0.05_fx-0.03_fy+0.00,-0.269394,0.98996,0.476378,0.999435,0.00768035,0.0326175,0.00244868,-1.51958,-0.00487054,-0.00810588,1.74944,-0.294996,-0.0238793,-1.52939,-0.00495421,-0.00817681,1.7641,-0.299834,-0.0239984,0.000411756,0.000430134,-0.0870611,0.2,0.2,0,1.28,0,0,0,0.2,-0.2,0,1.28,0,0,0,-1.51958,-0.00487054,-0.00810588,1.74944,-0.294996,-0.0238793,-1.52939,-0.00495421,-0.00817681,1.7641,-0.299834,-0.0239984,0.000411756,0.000430134,-0.0870611,0.2,0.2,0,1.28,0,0,0,0.2,-0.2,0,1.28,0,0,0
gen_000106_tz+0.02_tx-0.02_ty+0.00_p-0.05_fx-0.02_fy+0.00,-0.268619,0.9899612,0.476383,0.999676,0.0076767,0.0241712,0.00237773,-1.50928,-0.00491548,-0.00810906,1.73095,-0.269922,-0.0238658,-1.51918,-0.00500057,-0.00817882,1.7456,-0.274651,-0.0239846,0.000417292,0.000484708,-0.0701796,0.2,0.2,0,1.28,0,0,0,0.2,-0.2,0,1.28,0,0,0,-1.50928,-0.00491548,-0.00810906,1.73095,-0.269922,-0.0238658,-1.51918,-0.00500057,-0.00817882,1.7456,-0.274651,-0.0239846,0.000417292,0.000484708,-0.0701796,0.2,0.2,0,1.28,0,0,0,0.2,-0.2,0,1.28,0,0,0
gen_000107_tz+0.02_tx-0.02_ty+0.00_p-0.05_fx-0.01_fy+0.00,-0.267854,0.9899624,0.4764,0.999842,0.00767451,0.0158364,0.00230548,-1.49855,-0.00495002,-0.00810948,1.71175,-0.244788,-0.0238507,-1.50854,-0.00503643,-0.0081782,1.72638,-0.249415,-0.0239694,0.000425925,0.000534641,-0.0535251,0.2,0.2,0,1.28,0,0,0,0.2,-0.2,0,1.28,0,0,0,-1.49855,-0.00495002,-0.00810948,1.71175,-0.244788,-0.0238507,-1.50854,-0.00503643,-0.0081782,1.72638,-0.249415,-0.0239694,0.000425925,0.000534641,-0.0535251,0.2,0.2,0,1.28,0,0,0,0.2,-0.2,0,1.28,0,0,0
gen_000108_tz+0.02_tx-0.02_ty+0.00_p-0.05_fx+0.00_fy+0.00,-0.2671,0.9899629,0.476428,0.999939,0.00766693,0.00763149,0.00223863,-1.48742,-0.00498874,-0.0081236,1.69181,-0.21957,-0.0238382,-1.49749,-0.00507642,-0.00819123,1.70643,-0.224111,-0.0239565,0.00042484,0.000593814,-0.0371331,0.2,0.2,0,1.28,0,0,0,0.2,-0.2,0,1.28,0,0,0,-1.48742,-0.00498874,-0.0081236,1.69181,-0.21957,-0.0238382,-1.49749,-0.00507642,-0.00819123,1.70643,-0.224111,-0.0239565,0.00042484,0.000593814,-0.0371331,0.2,0.2,0,1.28,0,0,0,0.2,-0.2,0,1.28,0,0,0
gen_000109_tz+0.02_tx-0.02_ty+0.00_p-0.05_fx+0.01_fy+0.00,-0.266352,0.9899635,0.476467,0.999968,0.00766061,-0.000498693,0.00217032,-1.47578,-0.00501725,-0.00813593,1.67117,-0.194321,-0.0238243,-1.48592,-0.0051061,-0.0082026,1.68578,-0.198783,-0.0239424,0.000426649,0.00064898,-0.0208921,0.2,0.2,0,1.28,0,0,0,0.2,-0.2,0,1.28,0,0,0,-1.47578,-0.00501725,-0.00813593,1.67117,-0.194321,-0.0238243,-1.48592,-0.0051061,-0.0082026,1.68578,-0.198783,-0.0239424,0.000426649,0.00064898,-0.0208921,0.2,0.2,0,1.28,0,0,0,0.2,-0.2,0,1.28,0,0,0
gen_000110_tz+0.02_tx-0.02_ty+0.00_p-0.05_fx+0.02_fy+0.00,-0.265611,0.9899638,0.476516,0.999932,0.00765377,-0.00853758,0.00210219,-1.46366,-0.00503898,-0.00815092,1.64981,-0.169019,-0.0238102,-1.47387,-0.00512892,-0.00821671,1.66443,-0.17341,-0.023928,0.000428436,0.000703758,-0.00483418,0.2,0.2,0,1.28,0,0,0,0.2,-0.2,0,1.28,0,0,0,-1.46366,-0.00503898,-0.00815092,1.64981,-0.169019,-0.0238102,-1.47387,-0.00512892,-0.00821671,1.66443,-0.17341,-0.023928,0.000428436,0.000703758,-0.00483418,0.2,0.2,0,1.28,0,0,0,0.2,-0.2,0,1.28,0,0,0
gen_000111_tz+0.02_tx-0.02_ty+0.00_p-0.05_fx+0.03_fy+0.00,-0.264878,0.9899639,0.476574,0.999833,0.00764619,-0.0164928,0.00203423,-1.45104,-0.00505405,-0.00816923,1.62773,-0.143663,-0.0237961,-1.46132,-0.00514501,-0.00823421,1.64236,-0.147993,-0.0239136,0.00043011,0.000758623,0.0110568,0.2,0.2,0,1.28,0,0,0,0.2,-0.2,0,1.28,0,0,0,-1.45104,-0.00505405,-0.00816923,1.62773,-0.143663,-0.0237961,-1.46132,-0.00514501,-0.00823421,1.64236,-0.147993,-0.0239136,0.00043011,0.000758623,0.0110568,0.2,0.2,0,1.28,0,0,0,0.2,-0.2,0,1.28,0,0,0
gen_000112_tz+0.02_tx-0.01_ty+0.00_p-0.05_fx-0.03_fy+0.00,-0.260179,0.9899586,0.476384,0.999119,0.00768337,0.0411812,0.00252047,-1.52946,-0.00481981,-0.00810472,1.7672,-0.320005,-0.0238925,-1.53918,-0.00490196,-0.00817688,1.78189,-0.324961,-0.0240119,0.000405197,0.000375143,-0.104183,0.2,0.2,0,1.28,0,0,0,0.2,-0.2,0,1.28,0,0,0,-1.52946,-0.00481981,-0.00810472,1.7672,-0.320005,-0.0238925,-1.53918,-0.00490196,-0.00817688,1.78189,-0.324961,-0.0240119,0.000405197,0.000375143,-0.104183,0.2,0.2,0,1.28,0,0,0,0.2,-0.2,0,1.28,0,0,0
gen_000113_tz+0.02_tx-0.01_ty+0.00_p-0.05_fx-0.02_fy+0.00,-0.259394,0.98996,0.476378,0.999435,0.00768035,0.0326178,0.00244869,-1.51958,-0.00487054,-0.00810589,1.74944,-0.294996,-0.0238793,-1.52939,-0.00495421,-0.00817682,1.7641,-0.299834,-0.0239984,0.000411752,0.00043014,-0.0870616,0.2,0.2,0,1.28,0,0,0,0.2,-0.2,0,1.28,0,0,0,-1.51958,-0.00487054,-0.00810589,1.74944,-0.294996,-0.0238793,-1.52939,-0.00495421,-0.00817682,1.7641,-0.299834,-0.0239984,0.000411752,0.00043014,-0.0870616,0.2,0.2,0,1.28,0,0,0,0.2,-0.2,0,1.28,0,0,0
gen_000114_tz+0.02_tx-0.01_ty+0.00_p-0.05_fx-0.01_fy+0.00,-0.258619,0.9899612,0.476383,0.999676,0.00767669,0.0241716,0.00237773,-1.50928,-0.00491549,-0.00810907,1.73095,-0.269922,-0.0238658,-1.51918,-0.00500059,-0.00817884,1.7456,-0.274651,-0.0239846,0.000417282,0.000484718,-0.0701804,0.2,0.2,0,1.28,0,0,0,0.2,-0.2,0,1.28,0,0,0,-1.50928,-0.00491549,-0.00810907,1.73095,-0.269922,-0.0238658,-1.51918,-0.00500059,-0.00817884,1.7456,-0.274651,-0.0239846,0.000417282,0.000484718,-0.0701804,0.2,0.2,0,1.28,0,0,0,0.2,-0.2,0,1.28,0,0,0
gen_000115_tz+0.02_tx-0.01_ty+0.00_p-0.05_fx+0.00_fy+0.00,-0.257854,0.9899624,0.4764,0.999842,0.00767499,0.0158365,0.00230506,-1.49855,-0.00494907,-0.00810835,1.71175,-0.244788,-0.0238505,-1.50854,-0.00503548,-0.00817709,1.72638,-0.249415,-0.0239691,0.000426762,0.000533684,-0.0535253,0.2,0.2,0,1.28,0,0,0,0.2,-0.2,0,1.28,0,0,0,-1.49855,-0.00494907,-0.00810835,1.71175,-0.244788,-0.0238505,-1.50854,-0.00503548,-0.00817709,1.72638,-0.249415,-0.0239691,0.000426762,0.000533684,-0.0535253,0.2,0.2,0,1.28,0,0,0,0.2,-0.2,0,1.28,0,0,0
gen_000116_tz+0.02_tx-0.01_ty+0.00_p-0.05_fx+0.01_fy+0.00,-0.2571,0.9899629,0.476428,0.999939,0.00766692,0.00763184,0.00223864,-1.48742,-0.00498874,-0.0081236,1.69181,-0.219569,-0.0238382,-1.49749,-0.00507642,-0.00819124,1.70643,-0.224111,-0.0239565,0.000424838,0.000593816,-0.0371338,0.2,0.2,0,1.28,0,0,0,0.2,-0.2,0,1.28,0,0,0,-1.48742,-0.00498874,-0.0081236,1.69181,-0.219569,-0.0238382,-1.49749,-0.00507642,-0.00819124,1.70643,-0.224111,-0.0239565,0.000424838,0.000593816,-0.0371338,0.2,0.2,0,1.28,0,0,0,0.2,-0.2,0,1.28,0,0,0
gen_000117_tz+0.02_tx-0.01_ty+0.00_p-0.05_fx+0.02_fy+0.00,-0.256352,0.9899635,0.476467,0.999968,0.00766061,-0.000498497,0.00217032,-1.47578,-0.00501725,-0.00813593,1.67117,-0.194321,-0.0238243,-1.48592,-0.00510609,-0.0082026,1.68578,-0.198783,-0.0239424,0.000426653,0.000648979,-0.0208925,0.2,0.2,0,1.28,0,0,0,0.2,-0.2,0,1.28,0,0,0,-1.47578,-0.00501725,-0.00813593,1.67117,-0.194321,-0.0238243,-1.48592,-0.00510609,-0.0082026,1.68578,-0.198783,-0.0239424,0.000426653,0.000648979,-0.0208925,0.2,0.2,0,1.28,0,0,0,0.2,-0.2,0,1.28,0,0,0
gen_000118_tz+0.02_tx-0.01_ty+0.00_p-0.05_fx+0.03_fy+0.00,-0.255611,0.9899638,0.476516,0.999932,0.00765377,-0.00853743,0.00210219,-1.46366,-0.00503898,-0.00815092,1.64981,-0.169018,-0.0238102,-1.47387,-0.00512891,-0.00821671,1.66443,-0.17341,-0.023928,0.000428441,0.000703757,-0.00483448,0.2,0.2,0,1.28,0,0,0,0.2,-0.2,0,1.28,0,0,0,-1.46366,-0.00503898,-0.00815092,1.64981,-0.169018,-0.0238102,-1.47387,-0.00512891,-0.00821671,1.66443,-0.17341,-0.023928,0.000428441,0.000703757,-0.00483448,0.2,0.2,0,1.28,0,0,0,0.2,-0.2,0,1.28,0,0,0
gen_000119_tz+0.02_tx+0.00_ty+0.00_p-0.05_fx-0.03_fy+0.00,-0.250973,0.9899569,0.476404,0.998723,0.00768567,0.0498642,0.00259322,-1.53894,-0.00476357,-0.00810551,1.78424,-0.344946,-0.0239053,-1.54855,-0.00484408,-0.00817895,1.79895,-0.35003,-0.0240249,0.000397334,0.000319851,-0.12155,0.2,0.2,0,1.28,0,0,0,0.2,-0.2,0,1.28,0,0,0,-1.53894,-0.00476357,-0.00810551,1.78424,-0.344946,-0.0239053,-1.54855,-0.00484408,-0.00817895,1.79895,-0.35003,-0.0240249,0.000397334,0.000319851,-0.12155,0.2,0.2,0,1.28,0,0,0,0.2,-0.2,0,1.28,0,0,0
gen_000120_tz+0.02_tx+0.00_ty+0.00_p-0.05_fx-0.02_fy+0.00,-0.250179,0.9899586,0.476384,0.999119,0.00768338,0.0411804,0.00252045,-1.52946,-0.00481978,-0.00810469,1.7672,-0.320006,-0.0238925,-1.53918,-0.00490192,-0.00817684,1.78189,-0.324962,-0.0240119,0.000405224,0.000375117,-0.104181,0.2,0.2,0,1.28,0,0,0,0.2,-0.2,0,1.28,0,0,0,-1.52946,-0.00481978,-0.00810469,1.7672,-0.320006,-0.0238925,-1.53918,-0.00490192,-0.00817684,1.78189,-0.324962,-0.0240119,0.000405224,0.000375117,-0.104181,0.2,0.2,0,1.28,0,0,0,0.2,-0.2,0,1.28,0,0,0
gen_000121_tz+0.02_tx+0.00_ty+0.00_p-0.05_fx-0.01_fy+0.00,-0.249394,0.98996,0.476378,0.999435,0.00768035,0.032618,0.00244869,-1.51958,-0.00487055,-0.0081059,1.74944,-0.294996,-0.0238793,-1.52939,-0.00495422,-0.00817683,1.7641,-0.299834,-0.0239984,0.000411747,0.000430146,-0.0870621,0.2,0.2,0,1.28,0,0,0,0.2,-0.2,0,1.28,0,0,0,-1.51958,-0.00487055,-0.0081059,1.74944,-0.294996,-0.0238793,-1.52939,-0.00495422,-0.00817683,1.7641,-0.299834,-0.0239984,0.000411747,0.000430146,-0.0870621,0.2,0.2,0,1.28,0,0,0,0.2,-0.2,0,1.28,0,0,0
gen_000122_tz+0.02_tx+0.00_ty+0.00_p-0.05_fx+0.00_fy+0.00,-0.248619,0.9899612,0.476383,0.999676,0.00767673,0.0241709,0.00237769,-1.50928,-0.00491541,-0.00810899,1.73095,-0.269922,-0.0238657,-1.51918,-0.0050005,-0.00817876,1.7456,-0.274652,-0.0239846,0.000417352,0.00048465,-0.070179,0.2,0.2,0,1.28,0,0,0,0.2,-0.2,0,1.28,0,0,0,-1.50928,-0.00491541,-0.00810899,1.73095,-0.269922,-0.0238657,-1.51918,-0.0050005,-0.00817876,1.7456,-0.274652,-0.0239846,0.000417352,0.00048465,-0.070179,0.2,0.2,0,1.28,0,0,0,0.2,-0.2,0,1.28,0,0,0
gen_000123_tz+0.02_tx+0.00_ty+0.00_p-0.05_fx+0.01_fy+0.00,-0.247854,0.9899625,0.4764,0.999842,0.00767557,0.0158369,0.00230453,-1.49855,-0.00494789,-0.00810695,1.71175,-0.244788,-0.0238502,-1.50854,-0.00503429,-0.00817569,1.72638,-0.249414,-0.0239688,0.0004278,0.000532489,-0.0535259,0.2,0.2,0,1.28,0,0,0,0.2,-0.2,0,1.28,0,0,0,-1.49855,-0.00494789,-0.00810695,1.71175,-0.244788,-0.0238502,-1.50854,-0.00503429,-0.00817569,1.72638,-0.249414,-0.0239688,0.0004278,0.000532489,-0.0535259,0.2,0.2,0,1.28,0,0,0,0.2,-0.2,0,1.28,0,0,0
gen_000124_tz+0.02_tx+0.00_ty+0.00_p-0.05_fx+0.02_fy+0.00,-0.2471,0.9899629,0.476428,0.999939,0.00766688,0.00763125,0.00223867,-1.48742,-0.00498883,-0.0081237,1.69181,-0.21957,-0.0238382,-1.49749,-0.00507651,-0.00819133,1.70643,-0.224111,-0.0239566,0.000424754,0.0005939,-0.0371326,0.2,0.2,0,1.28,0,0,0,0.2,-0.2,0,1.28,0,0,0,-1.48742,-0.00498883,-0.0081237,1.69181,-0.21957,-0.0238382,-1.49749,-0.00507651,-0.00819133,1.70643,-0.224111,-0.0239566,0.000424754,0.0005939,-0.0371326,0.2,0.2,0,1.28,0,0,0,0.2,-0.2,0,1.28,0,0,0
gen_000125_tz+0.02_tx+0.00_ty+0.00_p-0.05_fx+0.03_fy+0.00,-0.246352,0.9899635,0.476467,0.999968,0.00766061,-0.000498255,0.00217032,-1.47578,-0.00501724,-0.00813593,1.67117,-0.19432,-0.0238243,-1.48592,-0.00510608,-0.0082026,1.68578,-0.198782,-0.0239424,0.00042666,0.000648976,-0.0208929,0.2,0.2,0,1.28,0,0,0,0.2,-0.2,0,1.28,0,0,0,-1.47578,-0.00501724,-0.00813593,1.67117,-0.19432,-0.0238243,-1.48592,-0.00510608,-0.0082026,1.68578,-0.198782,-0.0239424,0.00042666,0.000648976,-0.0208929,0.2,0.2,0,1.28,0,0,0,0.2,-0.2,0,1.28,0,0,0
gen_000126_tz+0.02_tx+0.01_ty+0.00_p-0.05_fx-0.03_fy+0.00,-0.241778,0.989955,0.476436,0.998244,0.0076872,0.0586699,0.00266705,-1.54801,-0.00470203,-0.00810815,1.80055,-0.369813,-0.0239178,-1.55752,-0.00478079,-0.00818292,1.8153,-0.375034,-0.0240376,0.000387949,0.000264356,-0.13917,0.2,0.2,0,1.28,0,0,0,0.2,-0.2,0,1.28,0,0,0,-1.54801,-0.00470203,-0.00810815,1.80055,-0.369813,-0.0239178,-1.55752,-0.00478079,-0.00818292,1.8153,-0.375034,-0.0240376,0.000387949,0.000264356,-0.13917,0.2,0.2,0,1.28,0,0,0,0.2,-0.2,0,1.28,0,0,0
gen_000127_tz+0.02_tx+0.01_ty+0.00_p-0.05_fx-0.02_fy+0.00,-0.240973,0.9899569,0.476404,0.998723,0.00768569,0.0498634,0.0025932,-1.53894,-0.00476355,-0.00810548,1.78424,-0.344947,-0.0239053,-1.54855,-0.00484405,-0.00817892,1.79895,-0.35003,-0.0240249,0.000397356,0.000319829,-0.121548,0.2,0.2,0,1.28,0,0,0,0.2,-0.2,0,1.28,0,0,0,-1.53894,-0.00476355,-0.00810548,1.78424,-0.344947,-0.0239053,-1.54855,-0.00484405,-0.00817892,1.79895,-0.35003,-0.0240249,0.000397356,0.000319829,-0.121548,0.2,0.2,0,1.28,0,0,0,0.2,-0.2,0,1.28,0,0,0
gen_000128_tz+0.02_tx+0.01_ty+0.00_p-0.05_fx-0.01_fy+0.00,-0.240179,0.9899586,0.476384,0.999119,0.00768338,0.0411806,0.00252045,-1.52946,-0.00481978,-0.00810469,1.7672,-0.320006,-0.0238925,-1.53918,-0.00490193,-0.00817685,1.78189,-0.324962,-0.0240119,0.000405222,0.00037512,-0.104181,0.2,0.2,0,1.28,0,0,0,0.2,-0.2,0,1.28,0,0,0,-1.52946,-0.00481978,-0.00810469,1.7672,-0.320006,-0.0238925,-1.53918,-0.00490193,-0.00817685,1.78189,-0.324962,-0.0240119,0.000405222,0.00037512,-0.104181,0.2,0.2,0,1.28,0,0,0,0.2,-0.2,0,1.28,0,0,0
gen_000129_tz+0.02_tx+0.01_ty+0.00_p-0.05_fx+0.00_fy+0.00,-0.239394,0.98996,0.476378,0.999435,0.00768035,0.0326182,0.00244869,-1.51958,-0.00487055,-0.0081059,1.74944,-0.294996,-0.0238793,-1.52939,-0.00495422,-0.00817683,1.7641,-0.299834,-0.0239984,0.000411747,0.000430147,-0.0870625,0.2,0.2,0,1.28,0,0,0,0.2,-0.2,0,1.28,0,0,0,-1.51958,-0.00487055,-0.0081059,1.74944,-0.294996,-0.0238793,-1.52939,-0.00495422,-0.00817683,1.7641,-0.299834,-0.0239984,0.000411747,0.000430147,-0.0870625,0.2,0.2,0,1.28,0,0,0,0.2,-0.2,0,1.28,0,0,0
gen_000130_tz+0.02_tx+0.01_ty+0.00_p-0.05_fx+0.01_fy+0.00,-0.238619,0.9899612,0.476383,0.999676,0.00767673,0.0241712,0.00237769,-1.50928,-0.0049154,-0.00810899,1.73095,-0.269922,-0.0238657,-1.51918,-0.0050005,-0.00817875,1.7456,-0.274651,-0.0239846,0.000417358,0.000484645,-0.0701795,0.2,0.2,0,1.28,0,0,0,0.2,-0.2,0,1.28,0,0,0,-1.50928,-0.0049154,-0.00810899,1.73095,-0.269922,-0.0238657,-1.51918,-0.0050005,-0.00817875,1.7456,-0.274651,-0.0239846,0.000417358,0.000484645,-0.0701795,0.2,0.2,0,1.28,0,0,0,0.2,-0.2,0,1.28,0,0,0
gen_000131_tz+0.02_tx+0.01_ty+0.00_p-0.05_fx+0.02_fy+0.00,-0.237854,0.9899626,0.4764,0.999842,0.0076763,0.0158376,0.00230389,-1.49855,-0.00494644,-0.0081052,1.71175,-0.244788,-0.0238497,-1.50854,-0.00503283,-0.00817397,1.72638,-0.249413,-0.0239684,0.000429076,0.000531012,-0.0535274,0.2,0.2,0,1.28,0,0,0,0.2,-0.2,0,1.28,0,0,0,-1.49855,-0.00494644,-0.0081052,1.71175,-0.244788,-0.0238497,-1.50854,-0.00503283,-0.00817397,1.72638,-0.249413,-0.0239684,0.000429076,0.000531012,-0.0535274,0.2,0.2,0,1.28,0,0,0,0.2,-0.2,0,1.28,0,0,0
gen_000132_tz+0.02_tx+0.01_ty+0.00_p-0.05_fx+0.03_fy+0.00,-0.2371,0.9899629,0.476428,0.999939,0.00766689,0.00763169,0.00223867,-1.48742,-0.00498882,-0.00812369,1.69181,-0.219569,-0.0238382,-1.49749,-0.0050765,-0.00819133,1.70643,-0.224111,-0.0239566,0.000424769,0.000593892,-0.0371334,0.2,0.2,0,1.28,0,0,0,0.2,-0.2,0,1.28,0,0,0,-1.48742,-0.00498882,-0.00812369,1.69181,-0.219569,-0.0238382,-1.49749,-0.0050765,-0.00819133,1.70643,-0.224111,-0.0239566,0.000424769,0.000593892,-0.0371334,0.2,0.2,0,1.28,0,0,0,0.2,-0.2,0,1.28,0,0,0
gen_000133_tz+0.02_tx+0.02_ty+0.00_p-0.05_fx-0.03_fy+0.00,-0.232592,0.9899528,0.476483,0.997679,0.00768789,0.0676009,0.00274205,-1.55669,-0.00463534,-0.00811251,1.81613,-0.394599,-0.0239298,-1.56609,-0.00471223,-0.00818866,1.83091,-0.399967,-0.0240499,0.000376874,0.000208748,-0.157052,0.2,0.2,0,1.28,0,0,0,0.2,-0.2,0,1.28,0,0,0,-1.55669,-0.00463534,-0.00811251,1.81613,-0.394599,-0.0239298,-1.56609,-0.00471223,-0.00818866,1.83091,-0.399967,-0.0240499,0.000376874,0.000208748,-0.157052,0.2,0.2,0,1.28,0,0,0,0.2,-0.2,0,1.28,0,0,0
gen_000134_tz+0.02_tx+0.02_ty+0.00_p-0.05_fx-0.02_fy+0.00,-0.231778,0.989955,0.476436,0.998244,0.0076872,0.0586701,0.00266705,-1.54801,-0.00470203,-0.00810815,1.80055,-0.369813,-0.0239178,-1.55752,-0.00478079,-0.00818292,1.8153,-0.375034,-0.0240376,0.000387948,0.000264358,-0.139171,0.2,0.2,0,1.28,0,0,0,0.2,-0.2,0,1.28,0,0,0,-1.54801,-0.00470203,-0.00810815,1.80055,-0.369813,-0.0239178,-1.55752,-0.00478079,-0.00818292,1.8153,-0.375034,-0.0240376,0.000387948,0.000264358,-0.139171,0.2,0.2,0,1.28,0,0,0,0.2,-0.2,0,1.28,0,0,0
gen_000135_tz+0.02_tx+0.02_ty+0.00_p-0.05_fx-0.01_fy+0.00,-0.230973,0.9899569,0.476404,0.998723,0.00768569,0.0498635,0.0025932,-1.53894,-0.00476355,-0.00810549,1.78424,-0.344947,-0.0239053,-1.54855,-0.00484406,-0.00817892,1.79895,-0.35003,-0.0240249,0.000397355,0.00031983,-0.121548,0.2,0.2,0,1.28,0,0,0,0.2,-0.2,0,1.28,0,0,0,-1.53894,-0.00476355,-0.00810549,1.78424,-0.344947,-0.0239053,-1.54855,-0.00484406,-0.00817892,1.79895,-0.35003,-0.0240249,0.000397355,0.00031983,-0.121548,0.2,0.2,0,1.28,0,0,0,0.2,-0.2,0,1.28,0,0,0
gen_000136_tz+0.02_tx+0.02_ty+0.00_p-0.05_fx+0.00_fy+0.00,-0.230179,0.9899586,0.476384,0.999119,0.00768338,0.0411807,0.00252045,-1.52946,-0.00481978,-0.00810469,1.7672,-0.320006,-0.0238925,-1.53918,-0.00490192,-0.00817685,1.78189,-0.324962,-0.0240119,0.000405223,0.00037512,-0.104182,0.2,0.2,0,1.28,0,0,0,0.2,-0.2,0,1.28,0,0,0,-1.52946,-0.00481978,-0.00810469,1.7672,-0.320006,-0.0238925,-1.53918,-0.00490192,-0.00817685,1.78189,-0.324962,-0.0240119,0.000405223,0.00037512,-0.104182,0.2,0.2,0,1.28,0,0,0,0.2,-0.2,0,1.28,0,0,0
gen_000137_tz+0.02_tx+0.02_ty+0.00_p-0.05_fx+0.01_fy+0.00,-0.229394,0.98996,0.476378,0.999435,0.00768035,0.0326183,0.00244869,-1.51958,-0.00487054,-0.00810589,1.74944,-0.294996,-0.0238793,-1.52939,-0.00495422,-0.00817682,1.7641,-0.299834,-0.0239984,0.000411751,0.000430143,-0.0870626,0.2,0.2,0,1.28,0,0,0,0.2,-0.2,0,1.28,0,0,0,-1.51958,-0.00487054,-0.00810589,1.74944,-0.294996,-0.0238793,-1.52939,-0.00495422,-0.00817682,1.7641,-0.299834,-0.0239984,0.000411751,0.000430143,-0.0870626,0.2,0.2,0,1.28,0,0,0,0.2,-0.2,0,1.28,0,0,0
gen_000138_tz+0.02_tx+0.02_ty+0.00_p-0.05_fx+0.02_fy+0.00,-0.228619,0.9899612,0.476383,0.999676,0.00767673,0.0241714,0.00237769,-1.50928,-0.00491539,-0.00810897,1.73095,-0.269922,-0.0238657,-1.51918,-0.00500049,-0.00817874,1.7456,-0.274651,-0.0239846,0.000417369,0.000484635,-0.0701799,0.2,0.2,0,1.28,0,0,0,0.2,-0.2,0,1.28,0,0,0,-1.50928,-0.00491539,-0.00810897,1.73095,-0.269922,-0.0238657,-1.51918,-0.00500049,-0.00817874,1.7456,-0.274651,-0.0239846,0.000417369,0.000484635,-0.0701799,0.2,0.2,0,1.28,0,0,0,0.2,-0.2,0,1.28,0,0,0
gen_000139_tz+0.02_tx+0.02_ty+0.00_p-0.05_fx+0.03_fy+0.00,-0.227854,0.9899627,0.4764,0.999842,0.00767763,0.0158384,0.00230273,-1.49855,-0.00494384,-0.00810201,1.71175,-0.244788,-0.023849,-1.50854,-0.00503022,-0.0081708,1.72638,-0.249412,-0.0239677,0.00043135,0.000528312,-0.0535289,0.2,0.2,0,1.28,0,0,0,0.2,-0.2,0,1.28,0,0,0,-1.49855,-0.00494384,-0.00810201,1.71175,-0.244788,-0.023849,-1.50854,-0.00503022,-0.0081708,1.72638,-0.249412,-0.0239677,0.00043135,0.000528312,-0.0535289,0.2,0.2,0,1.28,0,0,0,0.2,-0.2,0,1.28,0,0,0
gen_000140_tz+0.02_tx+0.03_ty+0.00_p-0.05_fx-0.03_fy+0.00,-0.223417,0.9899504,0.476544,0.997024,0.0076877,0.076657,0.00281825,-1.56499,-0.0045636,-0.00811843,1.83098,-0.4193,-0.0239415,-1.57427,-0.00463852,-0.00819599,1.8458,-0.424825,-0.0240617,0.000363991,0.000153094,-0.175195,0.2,0.2,0,1.28,0,0,0,0.2,-0.2,0,1.28,0,0,0,-1.56499,-0.0045636,-0.00811843,1.83098,-0.4193,-0.0239415,-1.57427,-0.00463852,-0.00819599,1.8458,-0.424825,-0.0240617,0.000363991,0.000153094,-0.175195,0.2,0.2,0,1.28,0,0,0,0.2,-0.2,0,1.28,0,0,0
gen_000141_tz+0.02_tx+0.03_ty+0.00_p-0.05_fx-0.02_fy+0.00,-0.222592,0.9899528,0.476483,0.997679,0.0076879,0.0676,0.00274203,-1.55669,-0.00463531,-0.00811249,1.81614,-0.3946,-0.0239298,-1.56609,-0.00471221,-0.00818863,1.83092,-0.399968,-0.0240499,0.000376893,0.000208727,-0.15705,0.2,0.2,0,1.28,0,0,0,0.2,-0.2,0,1.28,0,0,0,-1.55669,-0.00463531,-0.00811249,1.81614,-0.3946,-0.0239298,-1.56609,-0.00471221,-0.00818863,1.83092,-0.399968,-0.0240499,0.000376893,0.000208727,-0.15705,0.2,0.2,0,1.28,0,0,0,0.2,-0.2,0,1.28,0,0,0
gen_000142_tz+0.02_tx+0.03_ty+0.00_p-0.05_fx-0.01_fy+0.00,-0.221778,0.989955,0.476436,0.998244,0.0076872,0.0586701,0.00266705,-1.54801,-0.00470203,-0.00810815,1.80055,-0.369813,-0.0239178,-1.55752,-0.00478079,-0.00818292,1.8153,-0.375033,-0.0240376,0.000387948,0.000264358,-0.139171,0.2,0.2,0,1.28,0,0,0,0.2,-0.2,0,1.28,0,0,0,-1.54801,-0.00470203,-0.00810815,1.80055,-0.369813,-0.0239178,-1.55752,-0.00478079,-0.00818292,1.8153,-0.375033,-0.0240376,0.000387948,0.000264358,-0.139171,0.2,0.2,0,1.28,0,0,0,0.2,-0.2,0,1.28,0,0,0
gen_000143_tz+0.02_tx+0.03_ty+0.00_p-0.05_fx+0.00_fy+0.00,-0.220973,0.9899569,0.476404,0.998723,0.00768569,0.0498636,0.0025932,-1.53894,-0.00476355,-0.00810548,1.78424,-0.344947,-0.0239053,-1.54855,-0.00484405,-0.00817892,1.79895,-0.35003,-0.0240249,0.000397356,0.000319829,-0.121548,0.2,0.2,0,1.28,0,0,0,0.2,-0.2,0,1.28,0,0,0,-1.53894,-0.00476355,-0.00810548,1.78424,-0.344947,-0.0239053,-1.54855,-0.00484405,-0.00817892,1.79895,-0.35003,-0.0240249,0.000397356,0.000319829,-0.121548,0.2,0.2,0,1.28,0,0,0,0.2,-0.2,0,1.28,0,0,0
gen_000144_tz+0.02_tx+0.03_ty+0.00_p-0.05_fx+0.01_fy+0.00,-0.220179,0.9899586,0.476384,0.999119,0.00768338,0.0411807,0.00252045,-1.52946,-0.00481978,-0.00810469,1.7672,-0.320006,-0.0238925,-1.53918,-0.00490192,-0.00817684,1.78189,-0.324962,-0.0240119,0.000405226,0.000375116,-0.104182,0.2,0.2,0,1.28,0,0,0,0.2,-0.2,0,1.28,0,0,0,-1.52946,-0.00481978,-0.00810469,1.7672,-0.320006,-0.0238925,-1.53918,-0.00490192,-0.00817684,1.78189,-0.324962,-0.0240119,0.000405226,0.000375116,-0.104182,0.2,0.2,0,1.28,0,0,0,0.2,-0.2,0,1.28,0,0,0
gen_000145_tz+0.02_tx+0.03_ty+0.00_p-0.05_fx+0.02_fy+0.00,-0.219394,0.98996,0.476378,0.999435,0.00768035,0.0326183,0.00244869,-1.51958,-0.00487054,-0.00810589,1.74944,-0.294996,-0.0238793,-1.52939,-0.00495421,-0.00817682,1.7641,-0.299834,-0.0239984,0.000411756,0.000430138,-0.0870627,0.2,0.2,0,1.28,0,0,0,0.2,-0.2,0,1.28,0,0,0,-1.51958,-0.00487054,-0.00810589,1.74944,-0.294996,-0.0238793,-1.52939,-0.00495421,-0.00817682,1.7641,-0.299834,-0.0239984,0.000411756,0.000430138,-0.0870627,0.2,0.2,0,1.28,0,0,0,0.2,-0.2,0,1.28,0,0,0
gen_000146_tz+0.02_tx+0.03_ty+0.00_p-0.05_fx+0.03_fy+0.00,-0.218619,0.9899612,0.476383,0.999676,0.00767674,0.0241716,0.00237769,-1.50928,-0.00491538,-0.00810897,1.73095,-0.269922,-0.0238657,-1.51918,-0.00500048,-0.00817873,1.7456,-0.274651,-0.0239846,0.000417378,0.000484626,-0.0701803,0.2,0.2,0,1.28,0,0,0,0.2,-0.2,0,1.28,0,0,0,-1.50928,-0.00491538,-0.00810897,1.73095,-0.269922,-0.0238657,-1.51918,-0.00500048,-0.00817873,1.7456,-0.274651,-0.0239846,0.000417378,0.000484626,-0.0701803,0.2,0.2,0,1.28,0,0,0,0.2,-0.2,0,1.28,0,0,0
gen_000147_tz+0.02_tx-0.03_ty+0.01_p-0.05_fx-0.03_fy+0.00,-0.278616,0.999184378,0.476378,0.999706,-0.000952098,0.0241461,0.00220709,-1.51549,-0.00474854,-0.00390844,1.73804,-0.270711,-0.00243869,-1.51347,-0.00473351,-0.00387381,1.73938,-0.274059,-0.00239417,0.00117126,0.0177133,-0.0701799,0.2,0.2,0,1.28,0,0,0,0.2,-0.2,0,1.28,0,0,0,-1.51549,-0.00474854,-0.00390844,1.73804,-0.270711,-0.00243869,-1.51347,-0.00473351,-0.00387381,1.73938,-0.274059,-0.00239417,0.00117126,0.0177133,-0.0701799,0.2,0.2,0,1.28,0,0,0,0.2,-0.2,0,1.28,0,0,0
gen_000148_tz+0.02_tx-0.03_ty+0.01_p-0.05_fx-0.02_fy+0.00,-0.277851,0.99918569,0.476395,0.999872,-0.000943782,0.0158184,0.00217359,-1.50478,-0.00469045,-0.00389405,1.71881,-0.245549,-0.00242481,-1.50284,-0.0046754,-0.00385938,1.72017,-0.248832,-0.00238067,0.000958772,0.0177489,-0.0535377,0.2,0.2,0,1.28,0,0,0,0.2,-0.2,0,1.28,0,0,0,-1.50478,-0.00469045,-0.00389405,1.71881,-0.245549,-0.00242481,-1.50284,-0.0046754,-0.00385938,1.72017,-0.248832,-0.00238067,0.000958772,0.0177489,-0.0535377,0.2,0.2,0,1.28,0,0,0,0.2,-0.2,0,1.28,0,0,0
gen_000149_tz+0.02_tx-0.03_ty+0.01_p-0.05_fx-0.01_fy+0.00,-0.277096,0.999186464,0.476423,0.999968,-0.000940913,0.00760068,0.00214407,-1.49364,-0.00463902,-0.00389549,1.69887,-0.220327,-0.00241449,-1.49176,-0.00462391,-0.00386079,1.70023,-0.22355,-0.00237067,0.000741293,0.0177913,-0.037118,0.2,0.2,0,1.28,0,0,0,0.2,-0.2,0,1.28,0,0,0,-1.49364,-0.00463902,-0.00389549,1.69887,-0.220327,-0.00241449,-1.49176,-0.00462391,-0.00386079,1.70023,-0.22355,-0.00237067,0.000741293,0.0177913,-0.037118,0.2,0.2,0,1.28,0,0,0,0.2,-0.2,0,1.28,0,0,0
gen_000150_tz+0.02_tx-0.03_ty+0.01_p-0.05_fx+0.00_fy+0.00,-0.276348,0.999187279,0.476462,0.999997,-0.000937011,-0.000526564,0.00211621,-1.48201,-0.00458808,-0.00389619,1.67823,-0.195062,-0.00240355,-1.48019,-0.00457294,-0.00386147,1.67959,-0.198229,-0.00236005,0.000522588,0.0178277,-0.0208809,0.2,0.2,0,1.28,0,0,0,0.2,-0.2,0,1.28,0,0,0,-1.48201,-0.00458808,-0.00389619,1.67823,-0.195062,-0.00240355,-1.48019,-0.00457294,-0.00386147,1.67959,-0.198229,-0.00236005,0.000522588,0.0178277,-0.0208809,0.2,0.2,0,1.28,0,0,0,0.2,-0.2,0,1.28,0,0,0
gen_000151_tz+0.02_tx-0.03_ty+0.01_p-0.05_fx+0.01_fy+0.00,-0.275608,0.999188349,0.476511,0.999961,-0.000929655,-0.00856391,0.00208901,-1.46989,-0.00453507,-0.00388993,1.65686,-0.169748,-0.00239045,-1.46815,-0.00451996,-0.0038552,1.65824,-0.17286,-0.0023473,0.000304833,0.0178533,-0.00482406,0.2,0.2,0,1.28,0,0,0,0.2,-0.2,0,1.28,0,0,0,-1.46989,-0.00453507,-0.00388993,1.65686,-0.169748,-0.00239045,-1.46815,-0.00451996,-0.0038552,1.65824,-0.17286,-0.0023473,0.000304833,0.0178533,-0.00482406,0.2,0.2,0,1.28,0,0,0,0.2,-0.2,0,1.28,0,0,0
gen_000152_tz+0.02_tx-0.03_ty+0.01_p-0.05_fx+0.02_fy+0.00,-0.274874,0.999189566,0.47657,0.999861,-0.000920115,-0.0165184,0.00206284,-1.45728,-0.00448109,-0.00387993,1.63478,-0.144385,-0.00237599,-1.4556,-0.00446605,-0.00384521,1.63617,-0.147445,-0.00233321,8.72182e-05,0.0178707,0.0110675,0.2,0.2,0,1.28,0,0,0,0.2,-0.2,0,1.28,0,0,0,-1.45728,-0.00448109,-0.00387993,1.63478,-0.144385,-0.00237599,-1.4556,-0.00446605,-0.00384521,1.63617,-0.147445,-0.00233321,8.72182e-05,0.0178707,0.0110675,0.2,0.2,0,1.28,0,0,0,0.2,-0.2,0,1.28,0,0,0
gen_000153_tz+0.02_tx-0.03_ty+0.01_p-0.05_fx+0.03_fy+0.00,-0.274147,0.999190906,0.476638,0.9997,-0.000908713,-0.0243985,0.00203773,-1.44414,-0.00442632,-0.003867,1.61198,-0.118972,-0.00236036,-1.44253,-0.0044114,-0.00383229,1.61339,-0.121983,-0.00231796,-0.000130463,0.0178806,0.0268117,0.2,0.2,0,1.28,0,0,0,0.2,-0.2,0,1.28,0,0,0,-1.44414,-0.00442632,-0.003867,1.61198,-0.118972,-0.00236036,-1.44253,-0.0044114,-0.00383229,1.61339,-0.121983,-0.00231796,-0.000130463,0.0178806,0.0268117,0.2,0.2,0,1.28,0,0,0,0.2,-0.2,0,1.28,0,0,0
gen_000154_tz+0.02_tx-0.02_ty+0.01_p-0.05_fx-0.03_fy+0.00,-0.26939,0.999183331,0.476373,0.999466,-0.000956684,0.032591,0.0022413,-1.52577,-0.00480462,-0.00391524,1.75654,-0.29581,-0.00245032,-1.52369,-0.00478967,-0.00388066,1.75788,-0.299226,-0.00240546,0.0013851,0.0176661,-0.0870606,0.2,0.2,0,1.28,0,0,0,0.2,-0.2,0,1.28,0,0,0,-1.52577,-0.00480462,-0.00391524,1.75654,-0.29581,-0.00245032,-1.52369,-0.00478967,-0.00388066,1.75788,-0.299226,-0.00240546,0.0013851,0.0176661,-0.0870606,0.2,0.2,0,1.28,0,0,0,0.2,-0.2,0,1.28,0,0,0
gen_000155_tz+0.02_tx-0.02_ty+0.01_p-0.05_fx-0.02_fy+0.00,-0.268616,0.999184372,0.476378,0.999706,-0.000952164,0.0241464,0.0022071,-1.51549,-0.00474858,-0.00390861,1.73804,-0.27071,-0.00243873,-1.51347,-0.00473355,-0.00387398,1.73938,-0.274059,-0.00239422,0.00117125,0.0177135,-0.0701805,0.2,0.2,0,1.28,0,0,0,0.2,-0.2,0,1.28,0,0,0,-1.51549,-0.00474858,-0.00390861,1.73804,-0.27071,-0.00243873,-1.51347,-0.00473355,-0.00387398,1.73938,-0.274059,-0.00239422,0.00117125,0.0177135,-0.0701805,0.2,0.2,0,1.28,0,0,0,0.2,-0.2,0,1.28,0,0,0
gen_000156_tz+0.02_tx-0.02_ty+0.01_p-0.05_fx-0.01_fy+0.00,-0.267851,0.99918568,0.476395,0.999872,-0.000943898,0.0158188,0.00217361,-1.50478,-0.00469052,-0.00389436,1.71881,-0.245548,-0.00242489,-1.50284,-0.00467547,-0.00385968,1.72017,-0.248831,-0.00238074,0.00095875,0.0177491,-0.0535384,0.2,0.2,0,1.28,0,0,0,0.2,-0.2,0,1.28,0,0,0,-1.50478,-0.00469052,-0.00389436,1.71881,-0.245548,-0.00242489,-1.50284,-0.00467547,-0.00385968,1.72017,-0.248831,-0.00238074,0.00095875,0.0177491,-0.0535384,0.2,0.2,0,1.28,0,0,0,0.2,-0.2,0,1.28,0,0,0
gen_000157_tz+0.02_tx-0.02_ty+0.01_p-0.05_fx+0.00_fy+0.00,-0.267096,0.999186458,0.476423,0.999968,-0.000940981,0.00760089,0.00214408,-1.49364,-0.00463907,-0.00389567,1.69887,-0.220327,-0.00241454,-1.49176,-0.00462395,-0.00386097,1.70023,-0.22355,-0.00237072,0.000741273,0.0177914,-0.0371184,0.2,0.2,0,1.28,0,0,0,0.2,-0.2,0,1.28,0,0,0,-1.49364,-0.00463907,-0.00389567,1.69887,-0.220327,-0.00241454,-1.49176,-0.00462395,-0.00386097,1.70023,-0.22355,-0.00237072,0.000741273,0.0177914,-0.0371184,0.2,0.2,0,1.28,0,0,0,0.2,-0.2,0,1.28,0,0,0
gen_000158_tz+0.02_tx-0.02_ty+0.01_p-0.05_fx+0.01_fy+0.00,-0.266348,0.999187277,0.476462,0.999997,-0.000937029,-0.000526441,0.00211621,-1.48201,-0.00458809,-0.00389623,1.67823,-0.195062,-0.00240356,-1.48019,-0.00457295,-0.00386151,1.67959,-0.198228,-0.00236006,0.000522583,0.0178277,-0.0208811,0.2,0.2,0,1.28,0,0,0,0.2,-0.2,0,1.28,0,0,0,-1.48201,-0.00458809,-0.00389623,1.67823,-0.195062,-0.00240356,-1.48019,-0.00457295,-0.00386151,1.67959,-0.198228,-0.00236006,0.000522583,0.0178277,-0.0208811,0.2,0.2,0,1.28,0,0,0,0.2,-0.2,0,1.28,0,0,0
gen_000159_tz+0.02_tx-0.02_ty+0.01_p-0.05_fx+0.02_fy+0.00,-0.265608,0.999188349,0.476511,0.999961,-0.000929654,-0.0085638,0.00208901,-1.46989,-0.00453507,-0.00388992,1.65686,-0.169748,-0.00239045,-1.46815,-0.00451996,-0.0038552,1.65824,-0.17286,-0.0023473,0.000304835,0.0178533,-0.00482428,0.2,0.2,0,1.28,0,0,0,0.2,-0.2,0,1.28,0,0,0,-1.46989,-0.00453507,-0.00388992,1.65686,-0.169748,-0.00239045,-1.46815,-0.00451996,-0.0038552,1.65824,-0.17286,-0.0023473,0.000304835,0.0178533,-0.00482428,0.2,0.2,0,1.28,0,0,0,0.2,-0.2,0,1.28,0,0,0
gen_000160_tz+0.02_tx-0.02_ty+0.01_p-0.05_fx+0.03_fy+0.00,-0.264874,0.999189567,0.47657,0.999861,-0.000920109,-0.0165183,0.00206284,-1.45728,-0.00448108,-0.00387991,1.63478,-0.144385,-0.00237599,-1.4556,-0.00446605,-0.00384519,1.63617,-0.147445,-0.00233321,8.72232e-05,0.0178707,0.0110673,0.2,0.2,0,1.28,0,0,0,0.2,-0.2,0,1.28,0,0,0,-1.45728,-0.00448108,-0.00387991,1.63478,-0.144385,-0.00237599,-1.4556,-0.00446605,-0.00384519,1.63617,-0.147445,-0.00233321,8.72232e-05,0.0178707,0.0110673,0.2,0.2,0,1.28,0,0,0,0.2,-0.2,0,1.28,0,0,0
gen_000161_tz+0.02_tx-0.01_ty+0.01_p-0.05_fx-0.03_fy+0.00,-0.260175,0.999182459,0.476379,0.99915,-0.000958512,0.041154,0.00227659,-1.53564,-0.0048596,-0.00391702,1.77431,-0.320847,-0.00246035,-1.53348,-0.00484479,-0.0038825,1.77565,-0.324333,-0.00241516,0.00159942,0.0176091,-0.104183,0.2,0.2,0,1.28,0,0,0,0.2,-0.2,0,1.28,0,0,0,-1.53564,-0.0048596,-0.00391702,1.77431,-0.320847,-0.00246035,-1.53348,-0.00484479,-0.0038825,1.77565,-0.324333,-0.00241516,0.00159942,0.0176091,-0.104183,0.2,0.2,0,1.28,0,0,0,0.2,-0.2,0,1.28,0,0,0
gen_000162_tz+0.02_tx-0.01_ty+0.01_p-0.05_fx-0.02_fy+0.00,-0.25939,0.999183327,0.476373,0.999466,-0.000956729,0.0325913,0.00224131,-1.52577,-0.00480465,-0.00391536,1.75654,-0.29581,-0.00245035,-1.52369,-0.0047897,-0.00388077,1.75788,-0.299225,-0.00240549,0.00138509,0.0176662,-0.0870611,0.2,0.2,0,1.28,0,0,0,0.2,-0.2,0,1.28,0,0,0,-1.52577,-0.00480465,-0.00391536,1.75654,-0.29581,-0.00245035,-1.52369,-0.0047897,-0.00388077,1.75788,-0.299225,-0.00240549,0.00138509,0.0176662,-0.0870611,0.2,0.2,0,1.28,0,0,0,0.2,-0.2,0,1.28,0,0,0
gen_000163_tz+0.02_tx-0.01_ty+0.01_p-0.05_fx-0.01_fy+0.00,-0.258616,0.999184412,0.476378,0.999706,-0.00095171,0.0241459,0.00220691,-1.51549,-0.0047481,-0.00390746,1.73804,-0.270711,-0.00243844,-1.51347,-0.00473307,-0.00387283,1.73938,-0.274059,-0.00239393,0.00117158,0.0177125,-0.0701794,0.2,0.2,0,1.28,0,0,0,0.2,-0.2,0,1.28,0,0,0,-1.51549,-0.0047481,-0.00390746,1.73804,-0.270711,-0.00243844,-1.51347,-0.00473307,-0.00387283,1.73938,-0.274059,-0.00239393,0.00117158,0.0177125,-0.0701794,0.2,0.2,0,1.28,0,0,0,0.2,-0.2,0,1.28,0,0,0
gen_000164_tz+0.02_tx-0.01_ty+0.01_p-0.05_fx+0.00_fy+0.00,-0.257851,0.999185672,0.476395,0.999872,-0.000943986,0.0158192,0.00217363,-1.50478,-0.00469058,-0.00389458,1.71881,-0.245548,-0.00242494,-1.50284,-0.00467553,-0.00385991,1.72017,-0.248831,-0.0023808,0.000958727,0.0177493,-0.0535392,0.2,0.2,0,1.28,0,0,0,0.2,-0.2,0,1.28,0,0,0,-1.50478,-0.00469058,-0.00389458,1.71881,-0.245548,-0.00242494,-1.50284,-0.00467553,-0.00385991,1.72017,-0.248831,-0.0023808,0.000958727,0.0177493,-0.0535392,0.2,0.2,0,1.28,0,0,0,0.2,-0.2,0,1.28,0,0,0
gen_000165_tz+0.02_tx-0.01_ty+0.01_p-0.05_fx+0.01_fy+0.00,-0.257096,0.999186457,0.476423,0.999968,-0.000940996,0.00760114,0.00214408,-1.49364,-0.00463908,-0.00389571,1.69887,-0.220327,-0.00241455,-1.49176,-0.00462397,-0.003861,1.70023,-0.22355,-0.00237073,0.000741273,0.0177914,-0.0371189,0.2,0.2,0,1.28,0,0,0,0.2,-0.2,0,1.28,0,0,0,-1.49364,-0.00463908,-0.00389571,1.69887,-0.220327,-0.00241455,-1.49176,-0.00462397,-0.003861,1.70023,-0.22355,-0.00237073,0.000741273,0.0177914,-0.0371189,0.2,0.2,0,1.28,0,0,0,0.2,-0.2,0,1.28,0,0,0
gen_000166_tz+0.02_tx-0.01_ty+0.01_p-0.05_fx+0.02_fy+0.00,-0.256348,0.999187278,0.476462,0.999997,-0.000937015,-0.000526262,0.00211621,-1.48201,-0.00458809,-0.00389619,1.67823,-0.195061,-0.00240355,-1.48019,-0.00457294,-0.00386147,1.67959,-0.198228,-0.00236006,0.000522592,0.0178277,-0.0208815,0.2,0.2,0,1.28,0,0,0,0.2,-0.2,0,1.28,0,0,0,-1.48201,-0.00458809,-0.00389619,1.67823,-0.195061,-0.00240355,-1.48019,-0.00457294,-0.00386147,1.67959,-0.198228,-0.00236006,0.000522592,0.0178277,-0.0208815,0.2,0.2,0,1.28,0,0,0,0.2,-0.2,0,1.28,0,0,0
gen_000167_tz+0.02_tx-0.01_ty+0.01_p-0.05_fx+0.03_fy+0.00,-0.255608,0.99918835,0.476511,0.999961,-0.000929639,-0.00856365,0.002089,-1.46989,-0.00453506,-0.00388988,1.65686,-0.169748,-0.00239044,-1.46815,-0.00451995,-0.00385516,1.65824,-0.17286,-0.00234729,0.000304845,0.0178532,-0.00482458,0.2,0.2,0,1.28,0,0,0,0.2,-0.2,0,1.28,0,0,0,-1.46989,-0.00453506,-0.00388988,1.65686,-0.169748,-0.00239044,-1.46815,-0.00451995,-0.00385516,1.65824,-0.17286,-0.00234729,0.000304845,0.0178532,-0.00482458,0.2,0.2,0,1.28,0,0,0,0.2,-0.2,0,1.28,0,0,0
gen_000168_tz+0.02_tx+0.00_ty+0.01_p-0.05_fx-0.03_fy+0.00,-0.250969,0.99918172,0.476399,0.998754,-0.000958037,0.0498374,0.0023131,-1.54509,-0.00491395,-0.003915,1.79136,-0.345819,-0.00246908,-1.54287,-0.00489933,-0.00388055,1.79271,-0.349376,-0.00242357,0.00181379,0.0175431,-0.121552,0.2,0.2,0,1.28,0,0,0,0.2,-0.2,0,1.28,0,0,0,-1.54509,-0.00491395,-0.003915,1.79136,-0.345819,-0.00246908,-1.54287,-0.00489933,-0.00388055,1.79271,-0.349376,-0.00242357,0.00181379,0.0175431,-0.121552,0.2,0.2,0,1.28,0,0,0,0.2,-0.2,0,1.28,0,0,0
gen_000169_tz+0.02_tx+0.00_ty+0.01_p-0.05_fx-0.02_fy+0.00,-0.250175,0.999182457,0.476379,0.99915,-0.000958542,0.0411542,0.0022766,-1.53564,-0.00485962,-0.0039171,1.77431,-0.320847,-0.00246037,-1.53348,-0.00484482,-0.00388257,1.77565,-0.324332,-0.00241518,0.00159942,0.0176092,-0.104183,0.2,0.2,0,1.28,0,0,0,0.2,-0.2,0,1.28,0,0,0,-1.53564,-0.00485962,-0.0039171,1.77431,-0.320847,-0.00246037,-1.53348,-0.00484482,-0.00388257,1.77565,-0.324332,-0.00241518,0.00159942,0.0176092,-0.104183,0.2,0.2,0,1.28,0,0,0,0.2,-0.2,0,1.28,0,0,0
gen_000170_tz+0.02_tx+0.00_ty+0.01_p-0.05_fx-0.01_fy+0.00,-0.24939,0.999183323,0.476373,0.999466,-0.00095677,0.0325915,0.00224133,-1.52577,-0.00480468,-0.00391546,1.75653,-0.29581,-0.00245038,-1.52369,-0.00478973,-0.00388088,1.75788,-0.299225,-0.00240552,0.00138508,0.0176663,-0.0870616,0.2,0.2,0,1.28,0,0,0,0.2,-0.2,0,1.28,0,0,0,-1.52577,-0.00480468,-0.00391546,1.75653,-0.29581,-0.00245038,-1.52369,-0.00478973,-0.00388088,1.75788,-0.299225,-0.00240552,0.00138508,0.0176663,-0.0870616,0.2,0.2,0,1.28,0,0,0,0.2,-0.2,0,1.28,0,0,0
gen_000171_tz+0.02_tx+0.00_ty+0.01_p-0.05_fx+0.00_fy+0.00,-0.248616,0.999184409,0.476378,0.999706,-0.000951749,0.0241461,0.00220693,-1.51549,-0.00474813,-0.00390756,1.73804,-0.270711,-0.00243847,-1.51347,-0.0047331,-0.00387293,1.73938,-0.274059,-0.00239396,0.00117157,0.0177126,-0.07018,0.2,0.2,0,1.28,0,0,0,0.2,-0.2,0,1.28,0,0,0,-1.51549,-0.00474813,-0.00390756,1.73804,-0.270711,-0.00243847,-1.51347,-0.0047331,-0.00387293,1.73938,-0.274059,-0.00239396,0.00117157,0.0177126,-0.07018,0.2,0.2,0,1.28,0,0,0,0.2,-0.2,0,1.28,0,0,0
gen_000172_tz+0.02_tx+0.00_ty+0.01_p-0.05_fx+0.01_fy+0.00,-0.247851,0.999185674,0.476395,0.999872,-0.00094397,0.0158195,0.00217363,-1.50478,-0.00469057,-0.00389454,1.71881,-0.245548,-0.00242493,-1.50284,-0.00467552,-0.00385986,1.72017,-0.24883,-0.00238079,0.000958742,0.0177492,-0.0535399,0.2,0.2,0,1.28,0,0,0,0.2,-0.2,0,1.28,0,0,0,-1.50478,-0.00469057,-0.00389454,1.71881,-0.245548,-0.00242493,-1.50284,-0.00467552,-0.00385986,1.72017,-0.24883,-0.00238079,0.000958742,0.0177492,-0.0535399,0.2,0.2,0,1.28,0,0,0,0.2,-0.2,0,1.28,0,0,0
gen_000173_tz+0.02_tx+0.00_ty+0.01_p-0.05_fx+0.02_fy+0.00,-0.247096,0.999186407,0.476423,0.999968,-0.000941567,0.00760072,0.00214431,-1.49364,-0.00463966,-0.00389716,1.69888,-0.220327,-0.00241491,-1.49176,-0.00462454,-0.00386246,1.70023,-0.22355,-0.00237108,0.000740814,0.0177926,-0.0371181,0.2,0.2,0,1.28,0,0,0,0.2,-0.2,0,1.28,0,0,0,-1.49364,-0.00463966,-0.00389716,1.69888,-0.220327,-0.00241491,-1.49176,-0.00462454,-0.00386246,1.70023,-0.22355,-0.00237108,0.000740814,0.0177926,-0.0371181,0.2,0.2,0,1.28,0,0,0,0.2,-0.2,0,1.28,0,0,0
gen_000174_tz+0.02_tx+0.00_ty+0.01_p-0.05_fx+0.03_fy+0.00,-0.246348,0.99918725,0.476462,0.999997,-0.000937343,-0.000526963,0.00211636,-1.48201,-0.00458845,-0.00389703,1.67823,-0.195062,-0.00240375,-1.48019,-0.0045733,-0.00386231,1.67959,-0.198229,-0.00236025,0.00052228,0.0178283,-0.0208801,0.2,0.2,0,1.28,0,0,0,0.2,-0.2,0,1.28,0,0,0,-1.48201,-0.00458845,-0.00389703,1.67823,-0.195062,-0.00240375,-1.48019,-0.0045733,-0.00386231,1.67959,-0.198229,-0.00236025,0.00052228,0.0178283,-0.0208801,0.2,0.2,0,1.28,0,0,0,0.2,-0.2,0,1.28,0,0,0
gen_000175_tz+0.02_tx+0.01_ty+0.01_p-0.05_fx-0.03_fy+0.00,-0.241774,0.99918109,0.476431,0.998276,-0.00095545,0.0586436,0.00235092,-1.55414,-0.00496788,-0.00390975,1.80769,-0.370721,-0.00247666,-1.55186,-0.0049535,-0.00387538,1.80904,-0.374352,-0.00243083,0.00202793,0.0174683,-0.139176,0.2,0.2,0,1.28,0,0,0,0.2,-0.2,0,1.28,0,0,0,-1.55414,-0.00496788,-0.00390975,1.80769,-0.370721,-0.00247666,-1.55186,-0.0049535,-0.00387538,1.80904,-0.374352,-0.00243083,0.00202793,0.0174683,-0.139176,0.2,0.2,0,1.28,0,0,0,0.2,-0.2,0,1.28,0,0,0
gen_000176_tz+0.02_tx+0.01_ty+0.01_p-0.05_fx-0.02_fy+0.00,-0.240969,0.999181718,0.476399,0.998754,-0.000958056,0.0498375,0.00231311,-1.54509,-0.00491397,-0.00391505,1.79136,-0.345819,-0.00246909,-1.54287,-0.00489935,-0.0038806,1.79271,-0.349376,-0.00242358,0.00181378,0.0175431,-0.121553,0.2,0.2,0,1.28,0,0,0,0.2,-0.2,0,1.28,0,0,0,-1.54509,-0.00491397,-0.00391505,1.79136,-0.345819,-0.00246909,-1.54287,-0.00489935,-0.0038806,1.79271,-0.349376,-0.00242358,0.00181378,0.0175431,-0.121553,0.2,0.2,0,1.28,0,0,0,0.2,-0.2,0,1.28,0,0,0
gen_000177_tz+0.02_tx+0.01_ty+0.01_p-0.05_fx-0.01_fy+0.00,-0.240175,0.999182455,0.476379,0.99915,-0.000958563,0.0411543,0.0022766,-1.53564,-0.00485964,-0.00391715,1.77431,-0.320847,-0.00246038,-1.53348,-0.00484483,-0.00388263,1.77565,-0.324332,-0.00241519,0.00159941,0.0176092,-0.104183,0.2,0.2,0,1.28,0,0,0,0.2,-0.2,0,1.28,0,0,0,-1.53564,-0.00485964,-0.00391715,1.77431,-0.320847,-0.00246038,-1.53348,-0.00484483,-0.00388263,1.77565,-0.324332,-0.00241519,0.00159941,0.0176092,-0.104183,0.2,0.2,0,1.28,0,0,0,0.2,-0.2,0,1.28,0,0,0
gen_000178_tz+0.02_tx+0.01_ty+0.01_p-0.05_fx+0.00_fy+0.00,-0.23939,0.999183322,0.476373,0.999466,-0.000956778,0.0325917,0.00224133,-1.52577,-0.00480469,-0.00391548,1.75653,-0.29581,-0.00245038,-1.52369,-0.00478974,-0.0038809,1.75788,-0.299225,-0.00240553,0.00138508,0.0176663,-0.0870619,0.2,0.2,0,1.28,0,0,0,0.2,-0.2,0,1.28,0,0,0,-1.52577,-0.00480469,-0.00391548,1.75653,-0.29581,-0.00245038,-1.52369,-0.00478974,-0.0038809,1.75788,-0.299225,-0.00240553,0.00138508,0.0176663,-0.0870619,0.2,0.2,0,1.28,0,0,0,0.2,-0.2,0,1.28,0,0,0
gen_000179_tz+0.02_tx+0.01_ty+0.01_p-0.05_fx+0.01_fy+0.00,-0.238616,0.999184412,0.476378,0.999706,-0.000951714,0.0241463,0.00220692,-1.51549,-0.00474811,-0.00390747,1.73804,-0.270711,-0.00243845,-1.51347,-0.00473308,-0.00387283,1.73938,-0.274059,-0.00239394,0.00117159,0.0177126,-0.0701804,0.2,0.2,0,1.28,0,0,0,0.2,-0.2,0,1.28,0,0,0,-1.51549,-0.00474811,-0.00390747,1.73804,-0.270711,-0.00243845,-1.51347,-0.00473308,-0.00387283,1.73938,-0.274059,-0.00239394,0.00117159,0.0177126,-0.0701804,0.2,0.2,0,1.28,0,0,0,0.2,-0.2,0,1.28,0,0,0
gen_000180_tz+0.02_tx+0.01_ty+0.01_p-0.05_fx+0.02_fy+0.00,-0.237851,0.999185682,0.476395,0.999872,-0.000943871,0.0158199,0.00217361,-1.50478,-0.00469052,-0.00389428,1.71881,-0.245547,-0.00242487,-1.50284,-0.00467547,-0.0038596,1.72017,-0.24883,-0.00238073,0.000958782,0.017749,-0.0535406,0.2,0.2,0,1.28,0,0,0,0.2,-0.2,0,1.28,0,0,0,-1.50478,-0.00469052,-0.00389428,1.71881,-0.245547,-0.00242487,-1.50284,-0.00467547,-0.0038596,1.72017,-0.24883,-0.00238073,0.000958782,0.017749,-0.0535406,0.2,0.2,0,1.28,0,0,0,0.2,-0.2,0,1.28,0,0,0
gen_000181_tz+0.02_tx+0.01_ty+0.01_p-0.05_fx+0.03_fy+0.00,-0.237096,0.999186413,0.476423,0.999968,-0.000941501,0.00760104,0.0021443,-1.49364,-0.00463963,-0.00389698,1.69887,-0.220327,-0.00241486,-1.49176,-0.00462451,-0.00386228,1.70023,-0.22355,-0.00237104,0.00074084,0.0177925,-0.0371187,0.2,0.2,0,1.28,0,0,0,0.2,-0.2,0,1.28,0,0,0,-1.49364,-0.00463963,-0.00389698,1.69887,-0.220327,-0.00241486,-1.49176,-0.00462451,-0.00386228,1.70023,-0.22355,-0.00237104,0.00074084,0.0177925,-0.0371187,0.2,0.2,0,1.28,0,0,0,0.2,-0.2,0,1.28,0,0,0
gen_000182_tz+0.02_tx+0.02_ty+0.01_p-0.05_fx-0.03_fy+0.00,-0.232588,0.999180548,0.476478,0.997711,-0.000950941,0.0675753,0.00239013,-1.5628,-0.00502165,-0.00390182,1.82328,-0.395546,-0.00248322,-1.56045,-0.00500754,-0.00386754,1.82465,-0.399254,-0.00243709,0.00224158,0.0173851,-0.157061,0.2,0.2,0,1.28,0,0,0,0.2,-0.2,0,1.28,0,0,0,-1.5628,-0.00502165,-0.00390182,1.82328,-0.395546,-0.00248322,-1.56045,-0.00500754,-0.00386754,1.82465,-0.399254,-0.00243709,0.00224158,0.0173851,-0.157061,0.2,0.2,0,1.28,0,0,0,0.2,-0.2,0,1.28,0,0,0
gen_000183_tz+0.02_tx+0.02_ty+0.01_p-0.05_fx-0.02_fy+0.00,-0.231774,0.999181089,0.476431,0.998276,-0.000955462,0.0586437,0.00235093,-1.55414,-0.00496789,-0.00390978,1.80769,-0.370721,-0.00247666,-1.55186,-0.00495351,-0.00387541,1.80904,-0.374352,-0.00243084,0.00202793,0.0174683,-0.139176,0.2,0.2,0,1.28,0,0,0,0.2,-0.2,0,1.28,0,0,0,-1.55414,-0.00496789,-0.00390978,1.80769,-0.370721,-0.00247666,-1.55186,-0.00495351,-0.00387541,1.80904,-0.374352,-0.00243084,0.00202793,0.0174683,-0.139176,0.2,0.2,0,1.28,0,0,0,0.2,-0.2,0,1.28,0,0,0
gen_000184_tz+0.02_tx+0.02_ty+0.01_p-0.05_fx-0.01_fy+0.00,-0.230969,0.999181717,0.476399,0.998754,-0.000958065,0.0498376,0.00231311,-1.54509,-0.00491398,-0.00391508,1.79136,-0.345819,-0.0024691,-1.54287,-0.00489936,-0.00388062,1.79271,-0.349376,-0.00242359,0.00181378,0.0175431,-0.121553,0.2,0.2,0,1.28,0,0,0,0.2,-0.2,0,1.28,0,0,0,-1.54509,-0.00491398,-0.00391508,1.79136,-0.345819,-0.0024691,-1.54287,-0.00489936,-0.00388062,1.79271,-0.349376,-0.00242359,0.00181378,0.0175431,-0.121553,0.2,0.2,0,1.28,0,0,0,0.2,-0.2,0,1.28,0,0,0
gen_000185_tz+0.02_tx+0.02_ty+0.01_p-0.05_fx+0.00_fy+0.00,-0.230175,0.999182455,0.476379,0.99915,-0.000958559,0.0411544,0.0022766,-1.53564,-0.00485964,-0.00391714,1.77431,-0.320847,-0.00246038,-1.53348,-0.00484483,-0.00388262,1.77565,-0.324332,-0.00241519,0.00159941,0.0176092,-0.104184,0.2,0.2,0,1.28,0,0,0,0.2,-0.2,0,1.28,0,0,0,-1.53564,-0.00485964,-0.00391714,1.77431,-0.320847,-0.00246038,-1.53348,-0.00484483,-0.00388262,1.77565,-0.324332,-0.00241519,0.00159941,0.0176092,-0.104184,0.2,0.2,0,1.28,0,0,0,0.2,-0.2,0,1.28,0,0,0
gen_000186_tz+0.02_tx+0.02_ty+0.01_p-0.05_fx+0.01_fy+0.00,-0.22939,0.999183325,0.476373,0.999466,-0.000956747,0.0325917,0.00224132,-1.52577,-0.00480467,-0.0039154,1.75653,-0.295809,-0.00245036,-1.52369,-0.00478972,-0.00388082,1.75788,-0.299225,-0.00240551,0.00138509,0.0176662,-0.087062,0.2,0.2,0,1.28,0,0,0,0.2,-0.2,0,1.28,0,0,0,-1.52577,-0.00480467,-0.0039154,1.75653,-0.295809,-0.00245036,-1.52369,-0.00478972,-0.00388082,1.75788,-0.299225,-0.00240551,0.00138509,0.0176662,-0.087062,0.2,0.2,0,1.28,0,0,0,0.2,-0.2,0,1.28,0,0,0
gen_000187_tz+0.02_tx+0.02_ty+0.01_p-0.05_fx+0.02_fy+0.00,-0.228616,0.999184418,0.476378,0.999706,-0.00095164,0.0241465,0.00220691,-1.51549,-0.00474807,-0.00390728,1.73804,-0.27071,-0.0024384,-1.51347,-0.00473304,-0.00387264,1.73938,-0.274058,-0.00239389,0.00117162,0.0177124,-0.0701807,0.2,0.2,0,1.28,0,0,0,0.2,-0.2,0,1.28,0,0,0,-1.51549,-0.00474807,-0.00390728,1.73804,-0.27071,-0.0024384,-1.51347,-0.00473304,-0.00387264,1.73938,-0.274058,-0.00239389,0.00117162,0.0177124,-0.0701807,0.2,0.2,0,1.28,0,0,0,0.2,-0.2,0,1.28,0,0,0
