meetpal644/Sit-to-Stand-Motion-Synthesis-For-Humanoids/keyframes/chair1_pose_0.075z.csv
name,qpos_0,qpos_1,qpos_2,qpos_3,qpos_4,qpos_5,qpos_6,qpos_7,qpos_8,qpos_9,qpos_10,qpos_11,qpos_12,qpos_13,qpos_14,qpos_15,qpos_16,qpos_17,qpos_18,qpos_19,qpos_20,qpos_21,qpos_22,qpos_23,qpos_24,qpos_25,qpos_26,qpos_27,qpos_28,qpos_29,qpos_30,qpos_31,qpos_32,qpos_33,qpos_34,qpos_35,ctrl_0,ctrl_1,ctrl_2,ctrl_3,ctrl_4,ctrl_5,ctrl_6,ctrl_7,ctrl_8,ctrl_9,ctrl_10,ctrl_11,ctrl_12,ctrl_13,ctrl_14,ctrl_15,ctrl_16,ctrl_17,ctrl_18,ctrl_19,ctrl_20,ctrl_21,ctrl_22,ctrl_23,ctrl_24,ctrl_25,ctrl_26,ctrl_27,ctrl_28
gen_000000_tz+0.07_tx-0.03_ty-0.02_p-0.05_fx-0.03_fy+0.00,-0.280066,2.9712379,0.531145,0.998879,0.0217466,0.0419592,0.00273632,-1.3781,-0.00197591,-0.0163916,1.51008,-0.215936,-0.0597701,-1.40769,-0.00239166,-0.0172175,1.55136,-0.227605,-0.0606639,-0.00118657,-0.0276882,-0.105756,0.2,0.2,0,1.28,0,0,0,0.2,-0.2,0,1.28,0,0,0,-1.3781,-0.00197591,-0.0163916,1.51008,-0.215936,-0.0597701,-1.40769,-0.00239166,-0.0172175,1.55136,-0.227605,-0.0606639,-0.00118657,-0.0276882,-0.105756,0.2,0.2,0,1.28,0,0,0,0.2,-0.2,0,1.28,0,0,0
gen_000001_tz+0.07_tx-0.03_ty-0.02_p-0.05_fx-0.02_fy+0.00,-0.279301,2.9712395,0.53113,0.999193,0.0217229,0.0336853,0.00258048,-1.36656,-0.00210098,-0.0164738,1.49105,-0.191881,-0.0597684,-1.39633,-0.00252655,-0.0172948,1.53236,-0.203412,-0.0606612,-0.000773558,-0.027611,-0.0892071,0.2,0.2,0,1.28,0,0,0,0.2,-0.2,0,1.28,0,0,0,-1.36656,-0.00210098,-0.0164738,1.49105,-0.191881,-0.0597684,-1.39633,-0.00252655,-0.0172948,1.53236,-0.203412,-0.0606612,-0.000773558,-0.027611,-0.0892071,0.2,0.2,0,1.28,0,0,0,0.2,-0.2,0,1.28,0,0,0
gen_000002_tz+0.07_tx-0.03_ty-0.02_p-0.05_fx-0.01_fy+0.00,-0.278538,2.9712404,0.531127,0.999438,0.0216951,0.0254504,0.00241988,-1.35448,-0.00220355,-0.0165629,1.47125,-0.167698,-0.059768,-1.38441,-0.00263852,-0.0173795,1.51261,-0.179107,-0.0606597,-0.000353086,-0.0275221,-0.0727417,0.2,0.2,0,1.28,0,0,0,0.2,-0.2,0,1.28,0,0,0,-1.35448,-0.00220355,-0.0165629,1.47125,-0.167698,-0.059768,-1.38441,-0.00263852,-0.0173795,1.51261,-0.179107,-0.0606597,-0.000353086,-0.0275221,-0.0727417,0.2,0.2,0,1.28,0,0,0,0.2,-0.2,0,1.28,0,0,0
gen_000003_tz+0.07_tx-0.03_ty-0.02_p-0.05_fx+0.00_fy+0.00,-0.277776,2.9712406,0.531134,0.999614,0.0216634,0.0172404,0.00225341,-1.34181,-0.00228167,-0.0166586,1.4507,-0.143396,-0.0597689,-1.37191,-0.00272563,-0.0174714,1.49211,-0.154697,-0.0606594,7.70512e-05,-0.0274216,-0.0563303,0.2,0.2,0,1.28,0,0,0,0.2,-0.2,0,1.28,0,0,0,-1.34181,-0.00228167,-0.0166586,1.4507,-0.143396,-0.0597689,-1.37191,-0.00272563,-0.0174714,1.49211,-0.154697,-0.0606594,7.70512e-05,-0.0274216,-0.0563303,0.2,0.2,0,1.28,0,0,0,0.2,-0.2,0,1.28,0,0,0
gen_000004_tz+0.07_tx-0.03_ty-0.02_p-0.05_fx+0.01_fy+0.00,-0.277014,2.97124,0.531152,0.999723,0.0216244,0.00904721,0.00208367,-1.32854,-0.00233998,-0.0167699,1.42938,-0.118973,-0.0597731,-1.35879,-0.00279272,-0.0175793,1.47086,-0.130184,-0.0606623,0.000511572,-0.0273027,-0.0399557,0.2,0.2,0,1.28,0,0,0,0.2,-0.2,0,1.28,0,0,0,-1.32854,-0.00233998,-0.0167699,1.42938,-0.118973,-0.0597731,-1.35879,-0.00279272,-0.0175793,1.47086,-0.130184,-0.0606623,0.000511572,-0.0273027,-0.0399557,0.2,0.2,0,1.28,0,0,0,0.2,-0.2,0,1.28,0,0,0
gen_000005_tz+0.07_tx-0.03_ty-0.02_p-0.05_fx+0.02_fy+0.00,-0.276252,2.9712384,0.53118,0.999765,0.0215777,0.000864223,0.00191047,-1.31464,-0.00237775,-0.016898,1.4073,-0.0944261,-0.0597808,-1.34504,-0.00283911,-0.0177045,1.44885,-0.105566,-0.0606686,0.000950622,-0.0271642,-0.0236035,0.2,0.2,0,1.28,0,0,0,0.2,-0.2,0,1.28,0,0,0,-1.31464,-0.00237775,-0.016898,1.4073,-0.0944261,-0.0597808,-1.34504,-0.00283911,-0.0177045,1.44885,-0.105566,-0.0606686,0.000950622,-0.0271642,-0.0236035,0.2,0.2,0,1.28,0,0,0,0.2,-0.2,0,1.28,0,0,0
gen_000006_tz+0.07_tx-0.03_ty-0.02_p-0.05_fx+0.03_fy+0.00,-0.275489,2.9712358,0.531219,0.99974,0.0215236,-0.00731838,0.00173262,-1.30008,-0.00239253,-0.0170423,1.38443,-0.0697549,-0.0597921,-1.33062,-0.00286235,-0.0178466,1.42607,-0.0808411,-0.0606784,0.00139629,-0.0270064,-0.00725313,0.2,0.2,0,1.28,0,0,0,0.2,-0.2,0,1.28,0,0,0,-1.30008,-0.00239253,-0.0170423,1.38443,-0.0697549,-0.0597921,-1.33062,-0.00286235,-0.0178466,1.42607,-0.0808411,-0.0606784,0.00139629,-0.0270064,-0.00725313,0.2,0.2,0,1.28,0,0,0,0.2,-0.2,0,1.28,0,0,0
gen_000007_tz+0.07_tx-0.02_ty-0.02_p-0.05_fx-0.03_fy+0.00,-0.270834,2.9712354,0.53117,0.998494,0.021763,0.050276,0.00289122,-1.3891,-0.00183557,-0.0163242,1.52837,-0.239863,-0.0597745,-1.41851,-0.00224123,-0.0171552,1.56962,-0.251689,-0.0606692,-0.0015993,-0.0277473,-0.122396,0.2,0.2,0,1.28,0,0,0,0.2,-0.2,0,1.28,0,0,0,-1.3891,-0.00183557,-0.0163242,1.52837,-0.239863,-0.0597745,-1.41851,-0.00224123,-0.0171552,1.56962,-0.251689,-0.0606692,-0.0015993,-0.0277473,-0.122396,0.2,0.2,0,1.28,0,0,0,0.2,-0.2,0,1.28,0,0,0
gen_000008_tz+0.07_tx-0.02_ty-0.02_p-0.05_fx-0.02_fy+0.00,-0.270066,2.9712379,0.531145,0.998879,0.0217467,0.0419594,0.00273634,-1.3781,-0.00197594,-0.0163915,1.51008,-0.215936,-0.0597701,-1.40769,-0.00239169,-0.0172174,1.55136,-0.227605,-0.0606639,-0.00118661,-0.0276883,-0.105756,0.2,0.2,0,1.28,0,0,0,0.2,-0.2,0,1.28,0,0,0,-1.3781,-0.00197594,-0.0163915,1.51008,-0.215936,-0.0597701,-1.40769,-0.00239169,-0.0172174,1.55136,-0.227605,-0.0606639,-0.00118661,-0.0276883,-0.105756,0.2,0.2,0,1.28,0,0,0,0.2,-0.2,0,1.28,0,0,0
gen_000009_tz+0.07_tx-0.02_ty-0.02_p-0.05_fx-0.01_fy+0.00,-0.269301,2.9712395,0.53113,0.999193,0.021723,0.0336855,0.0025805,-1.36656,-0.00210102,-0.0164737,1.49105,-0.19188,-0.0597684,-1.39633,-0.00252659,-0.0172947,1.53236,-0.203412,-0.0606612,-0.000773606,-0.0276111,-0.0892075,0.2,0.2,0,1.28,0,0,0,0.2,-0.2,0,1.28,0,0,0,-1.36656,-0.00210102,-0.0164737,1.49105,-0.19188,-0.0597684,-1.39633,-0.00252659,-0.0172947,1.53236,-0.203412,-0.0606612,-0.000773606,-0.0276111,-0.0892075,0.2,0.2,0,1.28,0,0,0,0.2,-0.2,0,1.28,0,0,0
gen_000010_tz+0.07_tx-0.02_ty-0.02_p-0.05_fx+0.00_fy+0.00,-0.268538,2.9712404,0.531127,0.999438,0.0216952,0.0254505,0.0024199,-1.35448,-0.00220358,-0.0165628,1.47125,-0.167698,-0.059768,-1.38441,-0.00263854,-0.0173794,1.51261,-0.179107,-0.0606596,-0.000353119,-0.0275222,-0.072742,0.2,0.2,0,1.28,0,0,0,0.2,-0.2,0,1.28,0,0,0,-1.35448,-0.00220358,-0.0165628,1.47125,-0.167698,-0.059768,-1.38441,-0.00263854,-0.0173794,1.51261,-0.179107,-0.0606596,-0.000353119,-0.0275222,-0.072742,0.2,0.2,0,1.28,0,0,0,0.2,-0.2,0,1.28,0,0,0
gen_000011_tz+0.07_tx-0.02_ty-0.02_p-0.05_fx+0.01_fy+0.00,-0.267776,2.9712406,0.531134,0.999614,0.0216634,0.0172405,0.00225341,-1.34181,-0.00228168,-0.0166586,1.4507,-0.143395,-0.0597689,-1.37191,-0.00272564,-0.0174714,1.49211,-0.154697,-0.0606594,7.70406e-05,-0.0274217,-0.0563306,0.2,0.2,0,1.28,0,0,0,0.2,-0.2,0,1.28,0,0,0,-1.34181,-0.00228168,-0.0166586,1.4507,-0.143395,-0.0597689,-1.37191,-0.00272564,-0.0174714,1.49211,-0.154697,-0.0606594,7.70406e-05,-0.0274217,-0.0563306,0.2,0.2,0,1.28,0,0,0,0.2,-0.2,0,1.28,0,0,0
gen_000012_tz+0.07_tx-0.02_ty-0.02_p-0.05_fx+0.02_fy+0.00,-0.267014,2.97124,0.531152,0.999723,0.0216244,0.0090473,0.00208367,-1.32854,-0.00233997,-0.0167699,1.42938,-0.118973,-0.0597731,-1.35879,-0.00279271,-0.0175794,1.47086,-0.130184,-0.0606623,0.000511572,-0.0273027,-0.0399558,0.2,0.2,0,1.28,0,0,0,0.2,-0.2,0,1.28,0,0,0,-1.32854,-0.00233997,-0.0167699,1.42938,-0.118973,-0.0597731,-1.35879,-0.00279271,-0.0175794,1.47086,-0.130184,-0.0606623,0.000511572,-0.0273027,-0.0399558,0.2,0.2,0,1.28,0,0,0,0.2,-0.2,0,1.28,0,0,0
gen_000013_tz+0.07_tx-0.02_ty-0.02_p-0.05_fx+0.03_fy+0.00,-0.266252,2.9712384,0.53118,0.999765,0.0215777,0.000864294,0.00191047,-1.31464,-0.00237774,-0.016898,1.4073,-0.094426,-0.0597808,-1.34504,-0.0028391,-0.0177045,1.44885,-0.105566,-0.0606686,0.000950627,-0.0271642,-0.0236036,0.2,0.2,0,1.28,0,0,0,0.2,-0.2,0,1.28,0,0,0,-1.31464,-0.00237774,-0.016898,1.4073,-0.094426,-0.0597808,-1.34504,-0.0028391,-0.0177045,1.44885,-0.105566,-0.0606686,0.000950627,-0.0271642,-0.0236036,0.2,0.2,0,1.28,0,0,0,0.2,-0.2,0,1.28,0,0,0
gen_000014_tz+0.07_tx-0.01_ty-0.02_p-0.05_fx-0.03_fy+0.00,-0.261605,2.971232,0.531208,0.998037,0.0217727,0.0586392,0.00304501,-1.39959,-0.00167985,-0.0162696,1.54591,-0.26366,-0.0597811,-1.4288,-0.00207507,-0.017106,1.58714,-0.275661,-0.0606766,-0.00201116,-0.0277894,-0.139138,0.2,0.2,0,1.28,0,0,0,0.2,-0.2,0,1.28,0,0,0,-1.39959,-0.00167985,-0.0162696,1.54591,-0.26366,-0.0597811,-1.4288,-0.00207507,-0.017106,1.58714,-0.275661,-0.0606766,-0.00201116,-0.0277894,-0.139138,0.2,0.2,0,1.28,0,0,0,0.2,-0.2,0,1.28,0,0,0
gen_000015_tz+0.07_tx-0.01_ty-0.02_p-0.05_fx-0.02_fy+0.00,-0.260834,2.9712354,0.53117,0.998494,0.021763,0.0502761,0.00289123,-1.3891,-0.0018356,-0.0163241,1.52837,-0.239863,-0.0597744,-1.41851,-0.00224125,-0.0171551,1.56962,-0.251688,-0.0606692,-0.00159933,-0.0277474,-0.122397,0.2,0.2,0,1.28,0,0,0,0.2,-0.2,0,1.28,0,0,0,-1.3891,-0.0018356,-0.0163241,1.52837,-0.239863,-0.0597744,-1.41851,-0.00224125,-0.0171551,1.56962,-0.251688,-0.0606692,-0.00159933,-0.0277474,-0.122397,0.2,0.2,0,1.28,0,0,0,0.2,-0.2,0,1.28,0,0,0
gen_000016_tz+0.07_tx-0.01_ty-0.02_p-0.05_fx-0.01_fy+0.00,-0.260066,2.9712379,0.531145,0.998879,0.0217467,0.0419595,0.00273635,-1.3781,-0.00197597,-0.0163914,1.51008,-0.215936,-0.0597701,-1.40769,-0.00239171,-0.0172173,1.55136,-0.227605,-0.0606639,-0.00118664,-0.0276884,-0.105756,0.2,0.2,0,1.28,0,0,0,0.2,-0.2,0,1.28,0,0,0,-1.3781,-0.00197597,-0.0163914,1.51008,-0.215936,-0.0597701,-1.40769,-0.00239171,-0.0172173,1.55136,-0.227605,-0.0606639,-0.00118664,-0.0276884,-0.105756,0.2,0.2,0,1.28,0,0,0,0.2,-0.2,0,1.28,0,0,0
gen_000017_tz+0.07_tx-0.01_ty-0.02_p-0.05_fx+0.00_fy+0.00,-0.259301,2.9712395,0.53113,0.999193,0.021723,0.0336857,0.00258051,-1.36656,-0.00210104,-0.0164736,1.49105,-0.19188,-0.0597684,-1.39633,-0.00252661,-0.0172946,1.53236,-0.203412,-0.0606612,-0.000773633,-0.0276111,-0.0892079,0.2,0.2,0,1.28,0,0,0,0.2,-0.2,0,1.28,0,0,0,-1.36656,-0.00210104,-0.0164736,1.49105,-0.19188,-0.0597684,-1.39633,-0.00252661,-0.0172946,1.53236,-0.203412,-0.0606612,-0.000773633,-0.0276111,-0.0892079,0.2,0.2,0,1.28,0,0,0,0.2,-0.2,0,1.28,0,0,0
gen_000018_tz+0.07_tx-0.01_ty-0.02_p-0.05_fx+0.01_fy+0.00,-0.258538,2.9712404,0.531127,0.999438,0.0216952,0.0254507,0.0024199,-1.35448,-0.00220358,-0.0165628,1.47125,-0.167697,-0.0597679,-1.38441,-0.00263854,-0.0173794,1.51261,-0.179107,-0.0606596,-0.000353128,-0.0275222,-0.0727424,0.2,0.2,0,1.28,0,0,0,0.2,-0.2,0,1.28,0,0,0,-1.35448,-0.00220358,-0.0165628,1.47125,-0.167697,-0.0597679,-1.38441,-0.00263854,-0.0173794,1.51261,-0.179107,-0.0606596,-0.000353128,-0.0275222,-0.0727424,0.2,0.2,0,1.28,0,0,0,0.2,-0.2,0,1.28,0,0,0
gen_000019_tz+0.07_tx-0.01_ty-0.02_p-0.05_fx+0.02_fy+0.00,-0.257776,2.9712406,0.531134,0.999614,0.0216634,0.0172406,0.00225341,-1.34181,-0.00228167,-0.0166586,1.4507,-0.143395,-0.0597689,-1.37191,-0.00272562,-0.0174714,1.49211,-0.154697,-0.0606594,7.70459e-05,-0.0274216,-0.0563308,0.2,0.2,0,1.28,0,0,0,0.2,-0.2,0,1.28,0,0,0,-1.34181,-0.00228167,-0.0166586,1.4507,-0.143395,-0.0597689,-1.37191,-0.00272562,-0.0174714,1.49211,-0.154697,-0.0606594,7.70459e-05,-0.0274216,-0.0563308,0.2,0.2,0,1.28,0,0,0,0.2,-0.2,0,1.28,0,0,0
gen_000020_tz+0.07_tx-0.01_ty-0.02_p-0.05_fx+0.03_fy+0.00,-0.257014,2.97124,0.531152,0.999723,0.0216244,0.00904739,0.00208367,-1.32854,-0.00233996,-0.0167699,1.42938,-0.118972,-0.0597731,-1.35879,-0.0027927,-0.0175794,1.47086,-0.130184,-0.0606623,0.000511581,-0.0273027,-0.039956,0.2,0.2,0,1.28,0,0,0,0.2,-0.2,0,1.28,0,0,0,-1.32854,-0.00233996,-0.0167699,1.42938,-0.118972,-0.0597731,-1.35879,-0.0027927,-0.0175794,1.47086,-0.130184,-0.0606623,0.000511581,-0.0273027,-0.039956,0.2,0.2,0,1.28,0,0,0,0.2,-0.2,0,1.28,0,0,0
gen_000021_tz+0.07_tx+0.00_ty-0.02_p-0.05_fx-0.03_fy+0.00,-0.252379,2.9712277,0.531257,0.997507,0.0217761,0.0670538,0.00319758,-1.40957,-0.0015086,-0.0162262,1.5627,-0.287325,-0.0597895,-1.43858,-0.00189301,-0.0170681,1.60392,-0.299519,-0.0606858,-0.00242173,-0.0278157,-0.155991,0.2,0.2,0,1.28,0,0,0,0.2,-0.2,0,1.28,0,0,0,-1.40957,-0.0015086,-0.0162262,1.5627,-0.287325,-0.0597895,-1.43858,-0.00189301,-0.0170681,1.60392,-0.299519,-0.0606858,-0.00242173,-0.0278157,-0.155991,0.2,0.2,0,1.28,0,0,0,0.2,-0.2,0,1.28,0,0,0
gen_000022_tz+0.07_tx+0.00_ty-0.02_p-0.05_fx-0.02_fy+0.00,-0.251605,2.971232,0.531208,0.998037,0.0217727,0.0586393,0.00304502,-1.39959,-0.00167986,-0.0162696,1.54591,-0.26366,-0.0597811,-1.4288,-0.00207509,-0.0171059,1.58714,-0.275661,-0.0606766,-0.00201118,-0.0277895,-0.139138,0.2,0.2,0,1.28,0,0,0,0.2,-0.2,0,1.28,0,0,0,-1.39959,-0.00167986,-0.0162696,1.54591,-0.26366,-0.0597811,-1.4288,-0.00207509,-0.0171059,1.58714,-0.275661,-0.0606766,-0.00201118,-0.0277895,-0.139138,0.2,0.2,0,1.28,0,0,0,0.2,-0.2,0,1.28,0,0,0
gen_000023_tz+0.07_tx+0.00_ty-0.02_p-0.05_fx-0.01_fy+0.00,-0.250834,2.9712354,0.53117,0.998494,0.021763,0.0502762,0.00289124,-1.3891,-0.00183561,-0.0163241,1.52837,-0.239863,-0.0597744,-1.41851,-0.00224127,-0.0171551,1.56962,-0.251688,-0.0606692,-0.00159935,-0.0277474,-0.122397,0.2,0.2,0,1.28,0,0,0,0.2,-0.2,0,1.28,0,0,0,-1.3891,-0.00183561,-0.0163241,1.52837,-0.239863,-0.0597744,-1.41851,-0.00224127,-0.0171551,1.56962,-0.251688,-0.0606692,-0.00159935,-0.0277474,-0.122397,0.2,0.2,0,1.28,0,0,0,0.2,-0.2,0,1.28,0,0,0
gen_000024_tz+0.07_tx+0.00_ty-0.02_p-0.05_fx+0.00_fy+0.00,-0.250066,2.9712379,0.531145,0.998879,0.0217462,0.0419589,0.00273684,-1.3781,-0.0019769,-0.0163926,1.51008,-0.215936,-0.0597703,-1.40769,-0.00239267,-0.0172185,1.55136,-0.227606,-0.0606641,-0.00118758,-0.0276874,-0.105755,0.2,0.2,0,1.28,0,0,0,0.2,-0.2,0,1.28,0,0,0,-1.3781,-0.0019769,-0.0163926,1.51008,-0.215936,-0.0597703,-1.40769,-0.00239267,-0.0172185,1.55136,-0.227606,-0.0606641,-0.00118758,-0.0276874,-0.105755,0.2,0.2,0,1.28,0,0,0,0.2,-0.2,0,1.28,0,0,0
gen_000025_tz+0.07_tx+0.00_ty-0.02_p-0.05_fx+0.01_fy+0.00,-0.249301,2.9712395,0.53113,0.999193,0.021723,0.0336859,0.00258051,-1.36656,-0.00210104,-0.0164736,1.49105,-0.19188,-0.0597684,-1.39633,-0.0025266,-0.0172947,1.53236,-0.203412,-0.0606612,-0.000773633,-0.0276111,-0.0892082,0.2,0.2,0,1.28,0,0,0,0.2,-0.2,0,1.28,0,0,0,-1.36656,-0.00210104,-0.0164736,1.49105,-0.19188,-0.0597684,-1.39633,-0.0025266,-0.0172947,1.53236,-0.203412,-0.0606612,-0.000773633,-0.0276111,-0.0892082,0.2,0.2,0,1.28,0,0,0,0.2,-0.2,0,1.28,0,0,0
gen_000026_tz+0.07_tx+0.00_ty-0.02_p-0.05_fx+0.02_fy+0.00,-0.248538,2.9712404,0.531127,0.999438,0.0216952,0.0254509,0.00241989,-1.35448,-0.00220355,-0.0165628,1.47125,-0.167697,-0.059768,-1.38441,-0.00263852,-0.0173795,1.51261,-0.179106,-0.0606597,-0.000353112,-0.0275221,-0.0727427,0.2,0.2,0,1.28,0,0,0,0.2,-0.2,0,1.28,0,0,0,-1.35448,-0.00220355,-0.0165628,1.47125,-0.167697,-0.059768,-1.38441,-0.00263852,-0.0173795,1.51261,-0.179106,-0.0606597,-0.000353112,-0.0275221,-0.0727427,0.2,0.2,0,1.28,0,0,0,0.2,-0.2,0,1.28,0,0,0
gen_000027_tz+0.07_tx+0.00_ty-0.02_p-0.05_fx+0.03_fy+0.00,-0.247776,2.9712406,0.531134,0.999614,0.0216634,0.0172408,0.0022534,-1.34181,-0.00228164,-0.0166587,1.4507,-0.143395,-0.0597689,-1.37191,-0.0027256,-0.0174715,1.49211,-0.154697,-0.0606594,7.70644e-05,-0.0274216,-0.0563311,0.2,0.2,0,1.28,0,0,0,0.2,-0.2,0,1.28,0,0,0,-1.34181,-0.00228164,-0.0166587,1.4507,-0.143395,-0.0597689,-1.37191,-0.0027256,-0.0174715,1.49211,-0.154697,-0.0606594,7.70644e-05,-0.0274216,-0.0563311,0.2,0.2,0,1.28,0,0,0,0.2,-0.2,0,1.28,0,0,0
gen_000028_tz+0.07_tx+0.01_ty-0.02_p-0.05_fx-0.03_fy+0.00,-0.243157,2.9712226,0.531318,0.996901,0.0217735,0.0755231,0.00334923,-1.41907,-0.00132253,-0.0161931,1.57875,-0.310853,-0.0597997,-1.44786,-0.00169571,-0.0170407,1.61996,-0.323259,-0.0606965,-0.00283141,-0.0278263,-0.172964,0.2,0.2,0,1.28,0,0,0,0.2,-0.2,0,1.28,0,0,0,-1.41907,-0.00132253,-0.0161931,1.57875,-0.310853,-0.0597997,-1.44786,-0.00169571,-0.0170407,1.61996,-0.323259,-0.0606965,-0.00283141,-0.0278263,-0.172964,0.2,0.2,0,1.28,0,0,0,0.2,-0.2,0,1.28,0,0,0
gen_000029_tz+0.07_tx+0.01_ty-0.02_p-0.05_fx-0.02_fy+0.00,-0.242379,2.9712277,0.531257,0.997507,0.0217761,0.0670539,0.00319758,-1.40957,-0.00150861,-0.0162261,1.5627,-0.287325,-0.0597895,-1.43858,-0.00189303,-0.017068,1.60392,-0.299519,-0.0606858,-0.00242175,-0.0278157,-0.155991,0.2,0.2,0,1.28,0,0,0,0.2,-0.2,0,1.28,0,0,0,-1.40957,-0.00150861,-0.0162261,1.5627,-0.287325,-0.0597895,-1.43858,-0.00189303,-0.017068,1.60392,-0.299519,-0.0606858,-0.00242175,-0.0278157,-0.155991,0.2,0.2,0,1.28,0,0,0,0.2,-0.2,0,1.28,0,0,0
gen_000030_tz+0.07_tx+0.01_ty-0.02_p-0.05_fx-0.01_fy+0.00,-0.241605,2.971232,0.531208,0.998037,0.0217727,0.0586394,0.00304503,-1.39959,-0.00167987,-0.0162696,1.54591,-0.26366,-0.0597811,-1.4288,-0.0020751,-0.0171059,1.58714,-0.275661,-0.0606766,-0.00201119,-0.0277895,-0.139138,0.2,0.2,0,1.28,0,0,0,0.2,-0.2,0,1.28,0,0,0,-1.39959,-0.00167987,-0.0162696,1.54591,-0.26366,-0.0597811,-1.4288,-0.0020751,-0.0171059,1.58714,-0.275661,-0.0606766,-0.00201119,-0.0277895,-0.139138,0.2,0.2,0,1.28,0,0,0,0.2,-0.2,0,1.28,0,0,0
gen_000031_tz+0.07_tx+0.01_ty-0.02_p-0.05_fx+0.00_fy+0.00,-0.240834,2.9712354,0.53117,0.998494,0.021763,0.0502763,0.00289124,-1.3891,-0.00183561,-0.016324,1.52837,-0.239863,-0.0597744,-1.41851,-0.00224127,-0.0171551,1.56962,-0.251688,-0.0606692,-0.00159935,-0.0277474,-0.122397,0.2,0.2,0,1.28,0,0,0,0.2,-0.2,0,1.28,0,0,0,-1.3891,-0.00183561,-0.016324,1.52837,-0.239863,-0.0597744,-1.41851,-0.00224127,-0.0171551,1.56962,-0.251688,-0.0606692,-0.00159935,-0.0277474,-0.122397,0.2,0.2,0,1.28,0,0,0,0.2,-0.2,0,1.28,0,0,0
gen_000032_tz+0.07_tx+0.01_ty-0.02_p-0.05_fx+0.01_fy+0.00,-0.240066,2.9712379,0.531145,0.998879,0.0217462,0.041959,0.00273684,-1.3781,-0.00197689,-0.0163927,1.51008,-0.215936,-0.0597703,-1.40769,-0.00239266,-0.0172185,1.55136,-0.227606,-0.0606641,-0.00118757,-0.0276874,-0.105755,0.2,0.2,0,1.28,0,0,0,0.2,-0.2,0,1.28,0,0,0,-1.3781,-0.00197689,-0.0163927,1.51008,-0.215936,-0.0597703,-1.40769,-0.00239266,-0.0172185,1.55136,-0.227606,-0.0606641,-0.00118757,-0.0276874,-0.105755,0.2,0.2,0,1.28,0,0,0,0.2,-0.2,0,1.28,0,0,0
gen_000033_tz+0.07_tx+0.01_ty-0.02_p-0.05_fx+0.02_fy+0.00,-0.239301,2.9712395,0.53113,0.999193,0.021723,0.033686,0.0025805,-1.36656,-0.002101,-0.0164737,1.49105,-0.19188,-0.0597684,-1.39633,-0.00252656,-0.0172948,1.53236,-0.203411,-0.0606612,-0.000773608,-0.0276111,-0.0892085,0.2,0.2,0,1.28,0,0,0,0.2,-0.2,0,1.28,0,0,0,-1.36656,-0.002101,-0.0164737,1.49105,-0.19188,-0.0597684,-1.39633,-0.00252656,-0.0172948,1.53236,-0.203411,-0.0606612,-0.000773608,-0.0276111,-0.0892085,0.2,0.2,0,1.28,0,0,0,0.2,-0.2,0,1.28,0,0,0
gen_000034_tz+0.07_tx+0.01_ty-0.02_p-0.05_fx+0.03_fy+0.00,-0.238538,2.9712404,0.531127,0.999438,0.0216951,0.025451,0.00241987,-1.35448,-0.0022035,-0.016563,1.47125,-0.167697,-0.059768,-1.38441,-0.00263847,-0.0173796,1.51261,-0.179106,-0.0606597,-0.000353078,-0.027522,-0.072743,0.2,0.2,0,1.28,0,0,0,0.2,-0.2,0,1.28,0,0,0,-1.35448,-0.0022035,-0.016563,1.47125,-0.167697,-0.059768,-1.38441,-0.00263847,-0.0173796,1.51261,-0.179106,-0.0606597,-0.000353078,-0.027522,-0.072743,0.2,0.2,0,1.28,0,0,0,0.2,-0.2,0,1.28,0,0,0
gen_000035_tz+0.07_tx+0.02_ty-0.02_p-0.05_fx-0.03_fy+0.00,-0.233938,2.9712166,0.531392,0.996218,0.0217646,0.0840489,0.00350042,-1.42809,-0.0011226,-0.0161703,1.59406,-0.334242,-0.0598115,-1.45665,-0.00148412,-0.0170236,1.63527,-0.346876,-0.0607087,-0.00324079,-0.0278209,-0.190062,0.2,0.2,0,1.28,0,0,0,0.2,-0.2,0,1.28,0,0,0,-1.42809,-0.0011226,-0.0161703,1.59406,-0.334242,-0.0598115,-1.45665,-0.00148412,-0.0170236,1.63527,-0.346876,-0.0607087,-0.00324079,-0.0278209,-0.190062,0.2,0.2,0,1.28,0,0,0,0.2,-0.2,0,1.28,0,0,0
gen_000036_tz+0.07_tx+0.02_ty-0.02_p-0.05_fx-0.02_fy+0.00,-0.233157,2.9712226,0.531318,0.996901,0.0217735,0.0755232,0.00334923,-1.41907,-0.00132254,-0.0161931,1.57875,-0.310853,-0.0597997,-1.44786,-0.00169572,-0.0170407,1.61996,-0.323259,-0.0606965,-0.00283142,-0.0278263,-0.172965,0.2,0.2,0,1.28,0,0,0,0.2,-0.2,0,1.28,0,0,0,-1.41907,-0.00132254,-0.0161931,1.57875,-0.310853,-0.0597997,-1.44786,-0.00169572,-0.0170407,1.61996,-0.323259,-0.0606965,-0.00283142,-0.0278263,-0.172965,0.2,0.2,0,1.28,0,0,0,0.2,-0.2,0,1.28,0,0,0
gen_000037_tz+0.07_tx+0.02_ty-0.02_p-0.05_fx-0.01_fy+0.00,-0.232379,2.9712277,0.531257,0.997507,0.0217761,0.0670539,0.00319758,-1.40957,-0.00150862,-0.0162261,1.5627,-0.287325,-0.0597895,-1.43858,-0.00189303,-0.017068,1.60392,-0.299519,-0.0606858,-0.00242175,-0.0278158,-0.155991,0.2,0.2,0,1.28,0,0,0,0.2,-0.2,0,1.28,0,0,0,-1.40957,-0.00150862,-0.0162261,1.5627,-0.287325,-0.0597895,-1.43858,-0.00189303,-0.017068,1.60392,-0.299519,-0.0606858,-0.00242175,-0.0278158,-0.155991,0.2,0.2,0,1.28,0,0,0,0.2,-0.2,0,1.28,0,0,0
gen_000038_tz+0.07_tx+0.02_ty-0.02_p-0.05_fx+0.00_fy+0.00,-0.231605,2.971232,0.531208,0.998037,0.0217727,0.0586394,0.00304503,-1.39959,-0.00167987,-0.0162696,1.54591,-0.26366,-0.0597811,-1.4288,-0.00207509,-0.0171059,1.58714,-0.275661,-0.0606766,-0.00201119,-0.0277895,-0.139138,0.2,0.2,0,1.28,0,0,0,0.2,-0.2,0,1.28,0,0,0,-1.39959,-0.00167987,-0.0162696,1.54591,-0.26366,-0.0597811,-1.4288,-0.00207509,-0.0171059,1.58714,-0.275661,-0.0606766,-0.00201119,-0.0277895,-0.139138,0.2,0.2,0,1.28,0,0,0,0.2,-0.2,0,1.28,0,0,0
gen_000039_tz+0.07_tx+0.02_ty-0.02_p-0.05_fx+0.01_fy+0.00,-0.230834,2.9712354,0.53117,0.998494,0.021763,0.0502763,0.00289124,-1.3891,-0.0018356,-0.0163241,1.52837,-0.239863,-0.0597744,-1.41851,-0.00224125,-0.0171551,1.56962,-0.251688,-0.0606692,-0.00159934,-0.0277474,-0.122397,0.2,0.2,0,1.28,0,0,0,0.2,-0.2,0,1.28,0,0,0,-1.3891,-0.0018356,-0.0163241,1.52837,-0.239863,-0.0597744,-1.41851,-0.00224125,-0.0171551,1.56962,-0.251688,-0.0606692,-0.00159934,-0.0277474,-0.122397,0.2,0.2,0,1.28,0,0,0,0.2,-0.2,0,1.28,0,0,0
gen_000040_tz+0.07_tx+0.02_ty-0.02_p-0.05_fx+0.02_fy+0.00,-0.230066,2.9712379,0.531145,0.998879,0.0217462,0.0419591,0.00273683,-1.3781,-0.00197685,-0.0163927,1.51008,-0.215936,-0.0597703,-1.40769,-0.00239262,-0.0172186,1.55136,-0.227606,-0.0606642,-0.00118754,-0.0276873,-0.105755,0.2,0.2,0,1.28,0,0,0,0.2,-0.2,0,1.28,0,0,0,-1.3781,-0.00197685,-0.0163927,1.51008,-0.215936,-0.0597703,-1.40769,-0.00239262,-0.0172186,1.55136,-0.227606,-0.0606642,-0.00118754,-0.0276873,-0.105755,0.2,0.2,0,1.28,0,0,0,0.2,-0.2,0,1.28,0,0,0
gen_000041_tz+0.07_tx+0.02_ty-0.02_p-0.05_fx+0.03_fy+0.00,-0.229301,2.9712395,0.53113,0.999193,0.0217229,0.0336862,0.00258048,-1.36656,-0.00210094,-0.0164739,1.49105,-0.19188,-0.0597684,-1.39633,-0.00252651,-0.0172949,1.53236,-0.203411,-0.0606612,-0.000773567,-0.0276109,-0.0892088,0.2,0.2,0,1.28,0,0,0,0.2,-0.2,0,1.28,0,0,0,-1.36656,-0.00210094,-0.0164739,1.49105,-0.19188,-0.0597684,-1.39633,-0.00252651,-0.0172949,1.53236,-0.203411,-0.0606612,-0.000773567,-0.0276109,-0.0892088,0.2,0.2,0,1.28,0,0,0,0.2,-0.2,0,1.28,0,0,0
gen_000042_tz+0.07_tx+0.03_ty-0.02_p-0.05_fx-0.03_fy+0.00,-0.224722,2.9712097,0.531478,0.995456,0.0217497,0.0926338,0.00365125,-1.43665,-0.000909036,-0.0161566,1.60863,-0.357485,-0.0598246,-1.46496,-0.00125844,-0.0170158,1.64985,-0.370367,-0.0607222,-0.00364983,-0.0277999,-0.207292,0.2,0.2,0,1.28,0,0,0,0.2,-0.2,0,1.28,0,0,0,-1.43665,-0.000909036,-0.0161566,1.60863,-0.357485,-0.0598246,-1.46496,-0.00125844,-0.0170158,1.64985,-0.370367,-0.0607222,-0.00364983,-0.0277999,-0.207292,0.2,0.2,0,1.28,0,0,0,0.2,-0.2,0,1.28,0,0,0
gen_000043_tz+0.07_tx+0.03_ty-0.02_p-0.05_fx-0.02_fy+0.00,-0.223938,2.9712166,0.531392,0.996218,0.0217646,0.0840489,0.00350043,-1.42809,-0.0011226,-0.0161703,1.59406,-0.334242,-0.0598115,-1.45665,-0.00148413,-0.0170236,1.63527,-0.346876,-0.0607087,-0.0032408,-0.0278209,-0.190062,0.2,0.2,0,1.28,0,0,0,0.2,-0.2,0,1.28,0,0,0,-1.42809,-0.0011226,-0.0161703,1.59406,-0.334242,-0.0598115,-1.45665,-0.00148413,-0.0170236,1.63527,-0.346876,-0.0607087,-0.0032408,-0.0278209,-0.190062,0.2,0.2,0,1.28,0,0,0,0.2,-0.2,0,1.28,0,0,0
gen_000044_tz+0.07_tx+0.03_ty-0.02_p-0.05_fx-0.01_fy+0.00,-0.223157,2.9712226,0.531318,0.996901,0.0217735,0.0755233,0.00334924,-1.41907,-0.00132254,-0.0161931,1.57875,-0.310853,-0.0597997,-1.44786,-0.00169572,-0.0170407,1.61996,-0.323259,-0.0606965,-0.00283142,-0.0278263,-0.172965,0.2,0.2,0,1.28,0,0,0,0.2,-0.2,0,1.28,0,0,0,-1.41907,-0.00132254,-0.0161931,1.57875,-0.310853,-0.0597997,-1.44786,-0.00169572,-0.0170407,1.61996,-0.323259,-0.0606965,-0.00283142,-0.0278263,-0.172965,0.2,0.2,0,1.28,0,0,0,0.2,-0.2,0,1.28,0,0,0
gen_000045_tz+0.07_tx+0.03_ty-0.02_p-0.05_fx+0.00_fy+0.00,-0.222379,2.9712277,0.531257,0.997507,0.0217761,0.067054,0.00319758,-1.40957,-0.00150861,-0.0162261,1.5627,-0.287325,-0.0597895,-1.43858,-0.00189302,-0.017068,1.60392,-0.299519,-0.0606858,-0.00242175,-0.0278157,-0.155992,0.2,0.2,0,1.28,0,0,0,0.2,-0.2,0,1.28,0,0,0,-1.40957,-0.00150861,-0.0162261,1.5627,-0.287325,-0.0597895,-1.43858,-0.00189302,-0.017068,1.60392,-0.299519,-0.0606858,-0.00242175,-0.0278157,-0.155992,0.2,0.2,0,1.28,0,0,0,0.2,-0.2,0,1.28,0,0,0
gen_000046_tz+0.07_tx+0.03_ty-0.02_p-0.05_fx+0.01_fy+0.00,-0.221605,2.971232,0.531208,0.998037,0.0217727,0.0586395,0.00304502,-1.39959,-0.00167985,-0.0162696,1.54591,-0.26366,-0.0597811,-1.4288,-0.00207508,-0.017106,1.58714,-0.275661,-0.0606766,-0.00201118,-0.0277895,-0.139138,0.2,0.2,0,1.28,0,0,0,0.2,-0.2,0,1.28,0,0,0,-1.39959,-0.00167985,-0.0162696,1.54591,-0.26366,-0.0597811,-1.4288,-0.00207508,-0.017106,1.58714,-0.275661,-0.0606766,-0.00201118,-0.0277895,-0.139138,0.2,0.2,0,1.28,0,0,0,0.2,-0.2,0,1.28,0,0,0
gen_000047_tz+0.07_tx+0.03_ty-0.02_p-0.05_fx+0.02_fy+0.00,-0.220834,2.9712354,0.53117,0.998494,0.021763,0.0502764,0.00289123,-1.3891,-0.00183557,-0.0163242,1.52837,-0.239863,-0.0597745,-1.41851,-0.00224122,-0.0171552,1.56962,-0.251688,-0.0606692,-0.00159932,-0.0277473,-0.122397,0.2,0.2,0,1.28,0,0,0,0.2,-0.2,0,1.28,0,0,0,-1.3891,-0.00183557,-0.0163242,1.52837,-0.239863,-0.0597745,-1.41851,-0.00224122,-0.0171552,1.56962,-0.251688,-0.0606692,-0.00159932,-0.0277473,-0.122397,0.2,0.2,0,1.28,0,0,0,0.2,-0.2,0,1.28,0,0,0
gen_000048_tz+0.07_tx+0.03_ty-0.02_p-0.05_fx+0.03_fy+0.00,-0.220066,2.9712379,0.531145,0.998879,0.0217461,0.0419592,0.00273681,-1.3781,-0.00197681,-0.0163929,1.51008,-0.215936,-0.0597703,-1.40769,-0.00239258,-0.0172187,1.55136,-0.227605,-0.0606642,-0.00118751,-0.0276872,-0.105756,0.2,0.2,0,1.28,0,0,0,0.2,-0.2,0,1.28,0,0,0,-1.3781,-0.00197681,-0.0163929,1.51008,-0.215936,-0.0597703,-1.40769,-0.00239258,-0.0172187,1.55136,-0.227605,-0.0606642,-0.00118751,-0.0276872,-0.105756,0.2,0.2,0,1.28,0,0,0,0.2,-0.2,0,1.28,0,0,0
gen_000049_tz+0.07_tx-0.03_ty-0.01_p-0.05_fx-0.03_fy+0.00,-0.28006,2.9805639,0.531123,0.999016,0.0143041,0.0418891,0.00269332,-1.38446,-0.00303411,-0.0121461,1.51851,-0.217823,-0.0405959,-1.40372,-0.00323423,-0.0124725,1.5468,-0.226831,-0.0409842,-0.000480803,-0.012833,-0.10563,0.2,0.2,0,1.28,0,0,0,0.2,-0.2,0,1.28,0,0,0,-1.38446,-0.00303411,-0.0121461,1.51851,-0.217823,-0.0405959,-1.40372,-0.00323423,-0.0124725,1.5468,-0.226831,-0.0409842,-0.000480803,-0.012833,-0.10563,0.2,0.2,0,1.28,0,0,0,0.2,-0.2,0,1.28,0,0,0
gen_000050_tz+0.07_tx-0.03_ty-0.01_p-0.05_fx-0.02_fy+0.00,-0.279295,2.9805651,0.531108,0.999329,0.0142875,0.0336138,0.00257937,-1.37295,-0.00310056,-0.012204,1.49948,-0.193746,-0.0405921,-1.39235,-0.00330536,-0.0125283,1.52779,-0.202646,-0.0409799,-0.000275062,-0.0127621,-0.0890852,0.2,0.2,0,1.28,0,0,0,0.2,-0.2,0,1.28,0,0,0,-1.37295,-0.00310056,-0.012204,1.49948,-0.193746,-0.0405921,-1.39235,-0.00330536,-0.0125283,1.52779,-0.202646,-0.0409799,-0.000275062,-0.0127621,-0.0890852,0.2,0.2,0,1.28,0,0,0,0.2,-0.2,0,1.28,0,0,0
gen_000051_tz+0.07_tx-0.03_ty-0.01_p-0.05_fx-0.01_fy+0.00,-0.278532,2.9805659,0.531105,0.999573,0.0142672,0.0253854,0.00246404,-1.36092,-0.00315444,-0.0122699,1.47969,-0.169537,-0.0405896,-1.38044,-0.00336379,-0.0125922,1.50804,-0.178341,-0.0409768,-6.78469e-05,-0.0126827,-0.0726393,0.2,0.2,0,1.28,0,0,0,0.2,-0.2,0,1.28,0,0,0,-1.36092,-0.00315444,-0.0122699,1.47969,-0.169537,-0.0405896,-1.38044,-0.00336379,-0.0125922,1.50804,-0.178341,-0.0409768,-6.78469e-05,-0.0126827,-0.0726393,0.2,0.2,0,1.28,0,0,0,0.2,-0.2,0,1.28,0,0,0
gen_000052_tz+0.07_tx-0.03_ty-0.01_p-0.05_fx+0.00_fy+0.00,-0.27777,2.9805667,0.531112,0.999748,0.0142502,0.017176,0.00233961,-1.34828,-0.003182,-0.0123258,1.45915,-0.145221,-0.040585,-1.36794,-0.00339553,-0.0126466,1.48754,-0.153933,-0.0409716,0.000155797,-0.0126088,-0.0562353,0.2,0.2,0,1.28,0,0,0,0.2,-0.2,0,1.28,0,0,0,-1.34828,-0.003182,-0.0123258,1.45915,-0.145221,-0.040585,-1.36794,-0.00339553,-0.0126466,1.48754,-0.153933,-0.0409716,0.000155797,-0.0126088,-0.0562353,0.2,0.2,0,1.28,0,0,0,0.2,-0.2,0,1.28,0,0,0
gen_000053_tz+0.07_tx-0.03_ty-0.01_p-0.05_fx+0.01_fy+0.00,-0.277009,2.9805666,0.53113,0.999856,0.0142259,0.00898411,0.00221604,-1.33503,-0.00320124,-0.0123992,1.43785,-0.120785,-0.0405838,-1.35482,-0.00341894,-0.0127187,1.46628,-0.129422,-0.0409698,0.000376342,-0.0125187,-0.0398697,0.2,0.2,0,1.28,0,0,0,0.2,-0.2,0,1.28,0,0,0,-1.33503,-0.00320124,-0.0123992,1.43785,-0.120785,-0.0405838,-1.35482,-0.00341894,-0.0127187,1.46628,-0.129422,-0.0409698,0.000376342,-0.0125187,-0.0398697,0.2,0.2,0,1.28,0,0,0,0.2,-0.2,0,1.28,0,0,0
gen_000054_tz+0.07_tx-0.03_ty-0.01_p-0.05_fx+0.02_fy+0.00,-0.276247,2.980566,0.531159,0.999897,0.014197,0.000802703,0.00209028,-1.32116,-0.00320639,-0.0124835,1.41577,-0.0962292,-0.0405847,-1.34106,-0.00342819,-0.0128019,1.44426,-0.104803,-0.04097,0.00059948,-0.0124177,-0.0235271,0.2,0.2,0,1.28,0,0,0,0.2,-0.2,0,1.28,0,0,0,-1.32116,-0.00320639,-0.0124835,1.41577,-0.0962292,-0.0405847,-1.34106,-0.00342819,-0.0128019,1.44426,-0.104803,-0.04097,0.00059948,-0.0124177,-0.0235271,0.2,0.2,0,1.28,0,0,0,0.2,-0.2,0,1.28,0,0,0
gen_000055_tz+0.07_tx-0.03_ty-0.01_p-0.05_fx+0.03_fy+0.00,-0.275485,2.9805647,0.531198,0.999871,0.0141635,-0.0073768,0.00196173,-1.30664,-0.00319612,-0.0125787,1.39292,-0.0715511,-0.0405878,-1.32665,-0.00342195,-0.0128961,1.42148,-0.0800747,-0.0409725,0.000826183,-0.0123057,-0.00718935,0.2,0.2,0,1.28,0,0,0,0.2,-0.2,0,1.28,0,0,0,-1.30664,-0.00319612,-0.0125787,1.39292,-0.0715511,-0.0405878,-1.32665,-0.00342195,-0.0128961,1.42148,-0.0800747,-0.0409725,0.000826183,-0.0123057,-0.00718935,0.2,0.2,0,1.28,0,0,0,0.2,-0.2,0,1.28,0,0,0
gen_000056_tz+0.07_tx-0.02_ty-0.01_p-0.05_fx-0.03_fy+0.00,-0.270828,2.9805619,0.531148,0.998632,0.0143155,0.0502072,0.0028077,-1.39543,-0.00295881,-0.0120999,1.53679,-0.241774,-0.0406016,-1.41455,-0.00315414,-0.0124285,1.56506,-0.250905,-0.0409905,-0.000688391,-0.0128923,-0.122267,0.2,0.2,0,1.28,0,0,0,0.2,-0.2,0,1.28,0,0,0,-1.39543,-0.00295881,-0.0120999,1.53679,-0.241774,-0.0406016,-1.41455,-0.00315414,-0.0124285,1.56506,-0.250905,-0.0409905,-0.000688391,-0.0128923,-0.122267,0.2,0.2,0,1.28,0,0,0,0.2,-0.2,0,1.28,0,0,0
gen_000057_tz+0.07_tx-0.02_ty-0.01_p-0.05_fx-0.02_fy+0.00,-0.27006,2.9805639,0.531123,0.999016,0.0143039,0.0418883,0.00269357,-1.38446,-0.00303461,-0.0121467,1.51851,-0.217823,-0.040596,-1.40372,-0.00323473,-0.0124731,1.5468,-0.226832,-0.0409843,-0.000481297,-0.0128326,-0.105629,0.2,0.2,0,1.28,0,0,0,0.2,-0.2,0,1.28,0,0,0,-1.38446,-0.00303461,-0.0121467,1.51851,-0.217823,-0.040596,-1.40372,-0.00323473,-0.0124731,1.5468,-0.226832,-0.0409843,-0.000481297,-0.0128326,-0.105629,0.2,0.2,0,1.28,0,0,0,0.2,-0.2,0,1.28,0,0,0
gen_000058_tz+0.07_tx-0.02_ty-0.01_p-0.05_fx-0.01_fy+0.00,-0.269295,2.9805651,0.531108,0.999329,0.014287,0.0336134,0.00257984,-1.37295,-0.00310146,-0.0122052,1.49948,-0.193746,-0.0405923,-1.39235,-0.00330627,-0.0125294,1.52779,-0.202647,-0.0409801,-0.000275987,-0.0127612,-0.0890843,0.2,0.2,0,1.28,0,0,0,0.2,-0.2,0,1.28,0,0,0,-1.37295,-0.00310146,-0.0122052,1.49948,-0.193746,-0.0405923,-1.39235,-0.00330627,-0.0125294,1.52779,-0.202647,-0.0409801,-0.000275987,-0.0127612,-0.0890843,0.2,0.2,0,1.28,0,0,0,0.2,-0.2,0,1.28,0,0,0
gen_000059_tz+0.07_tx-0.02_ty-0.01_p-0.05_fx+0.00_fy+0.00,-0.268532,2.9805659,0.531105,0.999573,0.0142679,0.0253853,0.00246341,-1.36092,-0.00315331,-0.0122681,1.47969,-0.169537,-0.0405892,-1.38044,-0.00336263,-0.0125904,1.50804,-0.178341,-0.0409764,-6.6635e-05,-0.0126841,-0.0726391,0.2,0.2,0,1.28,0,0,0,0.2,-0.2,0,1.28,0,0,0,-1.36092,-0.00315331,-0.0122681,1.47969,-0.169537,-0.0405892,-1.38044,-0.00336263,-0.0125904,1.50804,-0.178341,-0.0409764,-6.6635e-05,-0.0126841,-0.0726391,0.2,0.2,0,1.28,0,0,0,0.2,-0.2,0,1.28,0,0,0
gen_000060_tz+0.07_tx-0.02_ty-0.01_p-0.05_fx+0.01_fy+0.00,-0.26777,2.9805667,0.531112,0.999748,0.0142502,0.0171761,0.00233962,-1.34828,-0.003182,-0.0123258,1.45915,-0.14522,-0.040585,-1.36794,-0.00339553,-0.0126466,1.48754,-0.153933,-0.0409716,0.00015579,-0.0126088,-0.0562356,0.2,0.2,0,1.28,0,0,0,0.2,-0.2,0,1.28,0,0,0,-1.34828,-0.003182,-0.0123258,1.45915,-0.14522,-0.040585,-1.36794,-0.00339553,-0.0126466,1.48754,-0.153933,-0.0409716,0.00015579,-0.0126088,-0.0562356,0.2,0.2,0,1.28,0,0,0,0.2,-0.2,0,1.28,0,0,0
gen_000061_tz+0.07_tx-0.02_ty-0.01_p-0.05_fx+0.02_fy+0.00,-0.267009,2.9805666,0.53113,0.999856,0.0142259,0.00898421,0.00221604,-1.33503,-0.00320123,-0.0123992,1.43785,-0.120785,-0.0405838,-1.35482,-0.00341894,-0.0127187,1.46628,-0.129422,-0.0409698,0.000376343,-0.0125187,-0.0398699,0.2,0.2,0,1.28,0,0,0,0.2,-0.2,0,1.28,0,0,0,-1.33503,-0.00320123,-0.0123992,1.43785,-0.120785,-0.0405838,-1.35482,-0.00341894,-0.0127187,1.46628,-0.129422,-0.0409698,0.000376343,-0.0125187,-0.0398699,0.2,0.2,0,1.28,0,0,0,0.2,-0.2,0,1.28,0,0,0
gen_000062_tz+0.07_tx-0.02_ty-0.01_p-0.05_fx+0.03_fy+0.00,-0.266247,2.980566,0.531159,0.999897,0.014197,0.000802781,0.00209028,-1.32116,-0.00320638,-0.0124835,1.41577,-0.0962291,-0.0405847,-1.34106,-0.00342819,-0.0128019,1.44426,-0.104803,-0.04097,0.000599483,-0.0124177,-0.0235273,0.2,0.2,0,1.28,0,0,0,0.2,-0.2,0,1.28,0,0,0,-1.32116,-0.00320638,-0.0124835,1.41577,-0.0962291,-0.0405847,-1.34106,-0.00342819,-0.0128019,1.44426,-0.104803,-0.04097,0.000599483,-0.0124177,-0.0235273,0.2,0.2,0,1.28,0,0,0,0.2,-0.2,0,1.28,0,0,0
gen_000063_tz+0.07_tx-0.01_ty-0.01_p-0.05_fx-0.03_fy+0.00,-0.261599,2.9805594,0.531185,0.998176,0.0143229,0.0585725,0.00292154,-1.40589,-0.00287298,-0.0120618,1.55432,-0.265599,-0.0406086,-1.42486,-0.00306335,-0.0123927,1.58258,-0.274865,-0.040998,-0.000895796,-0.0129426,-0.139007,0.2,0.2,0,1.28,0,0,0,0.2,-0.2,0,1.28,0,0,0,-1.40589,-0.00287298,-0.0120618,1.55432,-0.265599,-0.0406086,-1.42486,-0.00306335,-0.0123927,1.58258,-0.274865,-0.040998,-0.000895796,-0.0129426,-0.139007,0.2,0.2,0,1.28,0,0,0,0.2,-0.2,0,1.28,0,0,0
gen_000064_tz+0.07_tx-0.01_ty-0.01_p-0.05_fx-0.02_fy+0.00,-0.260828,2.9805619,0.531148,0.998632,0.0143155,0.0502073,0.00280771,-1.39543,-0.00295882,-0.0120999,1.53679,-0.241774,-0.0406016,-1.41455,-0.00315415,-0.0124285,1.56506,-0.250905,-0.0409905,-0.000688407,-0.0128923,-0.122267,0.2,0.2,0,1.28,0,0,0,0.2,-0.2,0,1.28,0,0,0,-1.39543,-0.00295882,-0.0120999,1.53679,-0.241774,-0.0406016,-1.41455,-0.00315415,-0.0124285,1.56506,-0.250905,-0.0409905,-0.000688407,-0.0128923,-0.122267,0.2,0.2,0,1.28,0,0,0,0.2,-0.2,0,1.28,0,0,0
gen_000065_tz+0.07_tx-0.01_ty-0.01_p-0.05_fx-0.01_fy+0.00,-0.26006,2.9805639,0.531123,0.999016,0.0143039,0.0418885,0.00269358,-1.38446,-0.00303462,-0.0121467,1.51851,-0.217823,-0.040596,-1.40372,-0.00323475,-0.012473,1.5468,-0.226832,-0.0409843,-0.000481317,-0.0128326,-0.105629,0.2,0.2,0,1.28,0,0,0,0.2,-0.2,0,1.28,0,0,0,-1.38446,-0.00303462,-0.0121467,1.51851,-0.217823,-0.040596,-1.40372,-0.00323475,-0.012473,1.5468,-0.226832,-0.0409843,-0.000481317,-0.0128326,-0.105629,0.2,0.2,0,1.28,0,0,0,0.2,-0.2,0,1.28,0,0,0
gen_000066_tz+0.07_tx-0.01_ty-0.01_p-0.05_fx+0.00_fy+0.00,-0.259295,2.9805651,0.531108,0.999329,0.0142871,0.0336137,0.00257986,-1.37295,-0.00310148,-0.0122051,1.49948,-0.193746,-0.0405923,-1.39235,-0.00330629,-0.0125294,1.52779,-0.202646,-0.0409801,-0.000276012,-0.0127612,-0.089085,0.2,0.2,0,1.28,0,0,0,0.2,-0.2,0,1.28,0,0,0,-1.37295,-0.00310148,-0.0122051,1.49948,-0.193746,-0.0405923,-1.39235,-0.00330629,-0.0125294,1.52779,-0.202646,-0.0409801,-0.000276012,-0.0127612,-0.089085,0.2,0.2,0,1.28,0,0,0,0.2,-0.2,0,1.28,0,0,0
gen_000067_tz+0.07_tx-0.01_ty-0.01_p-0.05_fx+0.01_fy+0.00,-0.258532,2.9805659,0.531105,0.999573,0.0142679,0.0253857,0.00246342,-1.36092,-0.00315331,-0.0122681,1.47969,-0.169537,-0.0405892,-1.38044,-0.00336263,-0.0125904,1.50804,-0.17834,-0.0409764,-6.66451e-05,-0.0126841,-0.0726398,0.2,0.2,0,1.28,0,0,0,0.2,-0.2,0,1.28,0,0,0,-1.36092,-0.00315331,-0.0122681,1.47969,-0.169537,-0.0405892,-1.38044,-0.00336263,-0.0125904,1.50804,-0.17834,-0.0409764,-6.66451e-05,-0.0126841,-0.0726398,0.2,0.2,0,1.28,0,0,0,0.2,-0.2,0,1.28,0,0,0
gen_000068_tz+0.07_tx-0.01_ty-0.01_p-0.05_fx+0.02_fy+0.00,-0.25777,2.9805667,0.531112,0.999748,0.0142502,0.0171763,0.00233961,-1.34828,-0.00318199,-0.0123258,1.45915,-0.14522,-0.040585,-1.36794,-0.00339552,-0.0126466,1.48754,-0.153933,-0.0409716,0.000155795,-0.0126088,-0.0562359,0.2,0.2,0,1.28,0,0,0,0.2,-0.2,0,1.28,0,0,0,-1.34828,-0.00318199,-0.0123258,1.45915,-0.14522,-0.040585,-1.36794,-0.00339552,-0.0126466,1.48754,-0.153933,-0.0409716,0.000155795,-0.0126088,-0.0562359,0.2,0.2,0,1.28,0,0,0,0.2,-0.2,0,1.28,0,0,0
gen_000069_tz+0.07_tx-0.01_ty-0.01_p-0.05_fx+0.03_fy+0.00,-0.257009,2.9805667,0.53113,0.999856,0.0142261,0.00898335,0.00221579,-1.33503,-0.00320079,-0.0123988,1.43785,-0.120786,-0.0405837,-1.35482,-0.00341849,-0.0127182,1.46628,-0.129422,-0.0409697,0.000376834,-0.0125191,-0.0398682,0.2,0.2,0,1.28,0,0,0,0.2,-0.2,0,1.28,0,0,0,-1.33503,-0.00320079,-0.0123988,1.43785,-0.120786,-0.0405837,-1.35482,-0.00341849,-0.0127182,1.46628,-0.129422,-0.0409697,0.000376834,-0.0125191,-0.0398682,0.2,0.2,0,1.28,0,0,0,0.2,-0.2,0,1.28,0,0,0
gen_000070_tz+0.07_tx+0.00_ty-0.01_p-0.05_fx-0.03_fy+0.00,-0.252373,2.9805563,0.531234,0.997646,0.0143267,0.0669889,0.00303491,-1.41584,-0.00277682,-0.0120308,1.57111,-0.289295,-0.0406166,-1.43466,-0.00296205,-0.0123642,1.59936,-0.29871,-0.0410064,-0.001103,-0.0129844,-0.155857,0.2,0.2,0,1.28,0,0,0,0.2,-0.2,0,1.28,0,0,0,-1.41584,-0.00277682,-0.0120308,1.57111,-0.289295,-0.0406166,-1.43466,-0.00296205,-0.0123642,1.59936,-0.29871,-0.0410064,-0.001103,-0.0129844,-0.155857,0.2,0.2,0,1.28,0,0,0,0.2,-0.2,0,1.28,0,0,0
gen_000071_tz+0.07_tx+0.00_ty-0.01_p-0.05_fx-0.02_fy+0.00,-0.251599,2.9805594,0.531185,0.998176,0.0143229,0.0585726,0.00292155,-1.40589,-0.00287298,-0.0120618,1.55432,-0.265599,-0.0406086,-1.42486,-0.00306336,-0.0123927,1.58258,-0.274865,-0.040998,-0.000895807,-0.0129426,-0.139007,0.2,0.2,0,1.28,0,0,0,0.2,-0.2,0,1.28,0,0,0,-1.40589,-0.00287298,-0.0120618,1.55432,-0.265599,-0.0406086,-1.42486,-0.00306336,-0.0123927,1.58258,-0.274865,-0.040998,-0.000895807,-0.0129426,-0.139007,0.2,0.2,0,1.28,0,0,0,0.2,-0.2,0,1.28,0,0,0
gen_000072_tz+0.07_tx+0.00_ty-0.01_p-0.05_fx-0.01_fy+0.00,-0.250828,2.9805619,0.531148,0.998632,0.0143155,0.0502074,0.00280771,-1.39543,-0.00295883,-0.0120999,1.53679,-0.241774,-0.0406016,-1.41455,-0.00315416,-0.0124284,1.56506,-0.250905,-0.0409905,-0.000688418,-0.0128923,-0.122268,0.2,0.2,0,1.28,0,0,0,0.2,-0.2,0,1.28,0,0,0,-1.39543,-0.00295883,-0.0120999,1.53679,-0.241774,-0.0406016,-1.41455,-0.00315416,-0.0124284,1.56506,-0.250905,-0.0409905,-0.000688418,-0.0128923,-0.122268,0.2,0.2,0,1.28,0,0,0,0.2,-0.2,0,1.28,0,0,0
gen_000073_tz+0.07_tx+0.00_ty-0.01_p-0.05_fx+0.00_fy+0.00,-0.25006,2.9805639,0.531123,0.999016,0.0143039,0.0418886,0.00269359,-1.38446,-0.00303463,-0.0121467,1.51851,-0.217823,-0.040596,-1.40372,-0.00323475,-0.012473,1.5468,-0.226831,-0.0409843,-0.000481326,-0.0128326,-0.105629,0.2,0.2,0,1.28,0,0,0,0.2,-0.2,0,1.28,0,0,0,-1.38446,-0.00303463,-0.0121467,1.51851,-0.217823,-0.040596,-1.40372,-0.00323475,-0.012473,1.5468,-0.226831,-0.0409843,-0.000481326,-0.0128326,-0.105629,0.2,0.2,0,1.28,0,0,0,0.2,-0.2,0,1.28,0,0,0
gen_000074_tz+0.07_tx+0.00_ty-0.01_p-0.05_fx+0.01_fy+0.00,-0.249295,2.9805651,0.531108,0.999329,0.0142871,0.033614,0.00257986,-1.37295,-0.00310147,-0.0122052,1.49948,-0.193745,-0.0405923,-1.39235,-0.00330628,-0.0125294,1.52779,-0.202646,-0.0409801,-0.000276012,-0.0127612,-0.0890855,0.2,0.2,0,1.28,0,0,0,0.2,-0.2,0,1.28,0,0,0,-1.37295,-0.00310147,-0.0122052,1.49948,-0.193745,-0.0405923,-1.39235,-0.00330628,-0.0125294,1.52779,-0.202646,-0.0409801,-0.000276012,-0.0127612,-0.0890855,0.2,0.2,0,1.28,0,0,0,0.2,-0.2,0,1.28,0,0,0
gen_000075_tz+0.07_tx+0.00_ty-0.01_p-0.05_fx+0.02_fy+0.00,-0.248532,2.9805659,0.531105,0.999573,0.0142679,0.025386,0.00246341,-1.36092,-0.00315328,-0.0122682,1.47969,-0.169537,-0.0405892,-1.38044,-0.0033626,-0.0125905,1.50803,-0.17834,-0.0409764,-6.6627e-05,-0.012684,-0.0726405,0.2,0.2,0,1.28,0,0,0,0.2,-0.2,0,1.28,0,0,0,-1.36092,-0.00315328,-0.0122682,1.47969,-0.169537,-0.0405892,-1.38044,-0.0033626,-0.0125905,1.50803,-0.17834,-0.0409764,-6.6627e-05,-0.012684,-0.0726405,0.2,0.2,0,1.28,0,0,0,0.2,-0.2,0,1.28,0,0,0
gen_000076_tz+0.07_tx+0.00_ty-0.01_p-0.05_fx+0.03_fy+0.00,-0.24777,2.9805667,0.531112,0.999748,0.0142502,0.0171764,0.00233961,-1.34828,-0.00318197,-0.0123258,1.45915,-0.14522,-0.040585,-1.36794,-0.0033955,-0.0126466,1.48754,-0.153933,-0.0409717,0.000155809,-0.0126087,-0.0562362,0.2,0.2,0,1.28,0,0,0,0.2,-0.2,0,1.28,0,0,0,-1.34828,-0.00318197,-0.0123258,1.45915,-0.14522,-0.040585,-1.36794,-0.0033955,-0.0126466,1.48754,-0.153933,-0.0409717,0.000155809,-0.0126087,-0.0562362,0.2,0.2,0,1.28,0,0,0,0.2,-0.2,0,1.28,0,0,0
gen_000077_tz+0.07_tx+0.01_ty-0.01_p-0.05_fx-0.03_fy+0.00,-0.243151,2.9805527,0.531295,0.997041,0.014327,0.0754605,0.00314787,-1.4253,-0.00267052,-0.0120062,1.58716,-0.312858,-0.0406255,-1.44396,-0.00285042,-0.0123421,1.6154,-0.322434,-0.0410156,-0.00131002,-0.0130182,-0.172828,0.2,0.2,0,1.28,0,0,0,0.2,-0.2,0,1.28,0,0,0,-1.4253,-0.00267052,-0.0120062,1.58716,-0.312858,-0.0406255,-1.44396,-0.00285042,-0.0123421,1.6154,-0.322434,-0.0410156,-0.00131002,-0.0130182,-0.172828,0.2,0.2,0,1.28,0,0,0,0.2,-0.2,0,1.28,0,0,0
gen_000078_tz+0.07_tx+0.01_ty-0.01_p-0.05_fx-0.02_fy+0.00,-0.242373,2.9805563,0.531234,0.997646,0.0143267,0.0669889,0.00303491,-1.41584,-0.00277682,-0.0120308,1.57111,-0.289295,-0.0406166,-1.43466,-0.00296206,-0.0123642,1.59936,-0.29871,-0.0410064,-0.00110301,-0.0129844,-0.155857,0.2,0.2,0,1.28,0,0,0,0.2,-0.2,0,1.28,0,0,0,-1.41584,-0.00277682,-0.0120308,1.57111,-0.289295,-0.0406166,-1.43466,-0.00296206,-0.0123642,1.59936,-0.29871,-0.0410064,-0.00110301,-0.0129844,-0.155857,0.2,0.2,0,1.28,0,0,0,0.2,-0.2,0,1.28,0,0,0
gen_000079_tz+0.07_tx+0.01_ty-0.01_p-0.05_fx-0.01_fy+0.00,-0.241599,2.9805594,0.531185,0.998176,0.014323,0.0585727,0.00292155,-1.40589,-0.00287299,-0.0120617,1.55432,-0.265598,-0.0406086,-1.42486,-0.00306336,-0.0123927,1.58258,-0.274865,-0.040998,-0.000895813,-0.0129426,-0.139007,0.2,0.2,0,1.28,0,0,0,0.2,-0.2,0,1.28,0,0,0,-1.40589,-0.00287299,-0.0120617,1.55432,-0.265598,-0.0406086,-1.42486,-0.00306336,-0.0123927,1.58258,-0.274865,-0.040998,-0.000895813,-0.0129426,-0.139007,0.2,0.2,0,1.28,0,0,0,0.2,-0.2,0,1.28,0,0,0
gen_000080_tz+0.07_tx+0.01_ty-0.01_p-0.05_fx+0.00_fy+0.00,-0.240828,2.9805619,0.531148,0.998632,0.0143155,0.0502075,0.00280771,-1.39543,-0.00295883,-0.0120999,1.53679,-0.241773,-0.0406016,-1.41455,-0.00315416,-0.0124284,1.56506,-0.250905,-0.0409905,-0.00068842,-0.0128924,-0.122268,0.2,0.2,0,1.28,0,0,0,0.2,-0.2,0,1.28,0,0,0,-1.39543,-0.00295883,-0.0120999,1.53679,-0.241773,-0.0406016,-1.41455,-0.00315416,-0.0124284,1.56506,-0.250905,-0.0409905,-0.00068842,-0.0128924,-0.122268,0.2,0.2,0,1.28,0,0,0,0.2,-0.2,0,1.28,0,0,0
gen_000081_tz+0.07_tx+0.01_ty-0.01_p-0.05_fx+0.01_fy+0.00,-0.24006,2.9805639,0.531123,0.999016,0.0143039,0.0418888,0.00269358,-1.38446,-0.00303462,-0.0121467,1.51851,-0.217823,-0.040596,-1.40372,-0.00323474,-0.012473,1.5468,-0.226831,-0.0409843,-0.00048132,-0.0128326,-0.105629,0.2,0.2,0,1.28,0,0,0,0.2,-0.2,0,1.28,0,0,0,-1.38446,-0.00303462,-0.0121467,1.51851,-0.217823,-0.040596,-1.40372,-0.00323474,-0.012473,1.5468,-0.226831,-0.0409843,-0.00048132,-0.0128326,-0.105629,0.2,0.2,0,1.28,0,0,0,0.2,-0.2,0,1.28,0,0,0
gen_000082_tz+0.07_tx+0.01_ty-0.01_p-0.05_fx+0.02_fy+0.00,-0.239295,2.9805651,0.531108,0.999329,0.014287,0.0336142,0.00257985,-1.37295,-0.00310144,-0.0122052,1.49948,-0.193745,-0.0405923,-1.39235,-0.00330625,-0.0125294,1.52779,-0.202646,-0.0409801,-0.000275988,-0.0127612,-0.089086,0.2,0.2,0,1.28,0,0,0,0.2,-0.2,0,1.28,0,0,0,-1.37295,-0.00310144,-0.0122052,1.49948,-0.193745,-0.0405923,-1.39235,-0.00330625,-0.0125294,1.52779,-0.202646,-0.0409801,-0.000275988,-0.0127612,-0.089086,0.2,0.2,0,1.28,0,0,0,0.2,-0.2,0,1.28,0,0,0
gen_000083_tz+0.07_tx+0.01_ty-0.01_p-0.05_fx+0.03_fy+0.00,-0.238532,2.9805659,0.531105,0.999573,0.0142678,0.0253864,0.00246339,-1.36092,-0.00315323,-0.0122683,1.47969,-0.169536,-0.0405892,-1.38044,-0.00336255,-0.0125906,1.50803,-0.17834,-0.0409765,-6.6589e-05,-0.012684,-0.0726412,0.2,0.2,0,1.28,0,0,0,0.2,-0.2,0,1.28,0,0,0,-1.36092,-0.00315323,-0.0122683,1.47969,-0.169536,-0.0405892,-1.38044,-0.00336255,-0.0125906,1.50803,-0.17834,-0.0409765,-6.6589e-05,-0.012684,-0.0726412,0.2,0.2,0,1.28,0,0,0,0.2,-0.2,0,1.28,0,0,0
gen_000084_tz+0.07_tx+0.02_ty-0.01_p-0.05_fx-0.03_fy+0.00,-0.233932,2.9805485,0.531369,0.996358,0.0143238,0.083989,0.00326069,-1.43429,-0.00255468,-0.0119877,1.60247,-0.336284,-0.0406351,-1.45277,-0.00272905,-0.0123262,1.63071,-0.346034,-0.0410255,-0.00151722,-0.0130439,-0.189925,0.2,0.2,0,1.28,0,0,0,0.2,-0.2,0,1.28,0,0,0,-1.43429,-0.00255468,-0.0119877,1.60247,-0.336284,-0.0406351,-1.45277,-0.00272905,-0.0123262,1.63071,-0.346034,-0.0410255,-0.00151722,-0.0130439,-0.189925,0.2,0.2,0,1.28,0,0,0,0.2,-0.2,0,1.28,0,0,0
gen_000085_tz+0.07_tx+0.02_ty-0.01_p-0.05_fx-0.02_fy+0.00,-0.233151,2.9805527,0.531295,0.997041,0.014327,0.0754606,0.00314787,-1.42531,-0.00267052,-0.0120062,1.58716,-0.312858,-0.0406255,-1.44396,-0.00285043,-0.0123421,1.6154,-0.322434,-0.0410156,-0.00131002,-0.0130182,-0.172829,0.2,0.2,0,1.28,0,0,0,0.2,-0.2,0,1.28,0,0,0,-1.42531,-0.00267052,-0.0120062,1.58716,-0.312858,-0.0406255,-1.44396,-0.00285043,-0.0123421,1.6154,-0.322434,-0.0410156,-0.00131002,-0.0130182,-0.172829,0.2,0.2,0,1.28,0,0,0,0.2,-0.2,0,1.28,0,0,0
gen_000086_tz+0.07_tx+0.02_ty-0.01_p-0.05_fx-0.01_fy+0.00,-0.232373,2.9805563,0.531234,0.997646,0.0143267,0.066989,0.00303491,-1.41584,-0.00277683,-0.0120308,1.57111,-0.289295,-0.0406166,-1.43466,-0.00296206,-0.0123642,1.59936,-0.29871,-0.0410064,-0.00110301,-0.0129844,-0.155857,0.2,0.2,0,1.28,0,0,0,0.2,-0.2,0,1.28,0,0,0,-1.41584,-0.00277683,-0.0120308,1.57111,-0.289295,-0.0406166,-1.43466,-0.00296206,-0.0123642,1.59936,-0.29871,-0.0410064,-0.00110301,-0.0129844,-0.155857,0.2,0.2,0,1.28,0,0,0,0.2,-0.2,0,1.28,0,0,0
gen_000087_tz+0.07_tx+0.02_ty-0.01_p-0.05_fx+0.00_fy+0.00,-0.231599,2.9805594,0.531185,0.998176,0.014323,0.0585728,0.00292155,-1.40589,-0.00287299,-0.0120617,1.55432,-0.265598,-0.0406086,-1.42486,-0.00306336,-0.0123927,1.58258,-0.274865,-0.040998,-0.000895812,-0.0129426,-0.139007,0.2,0.2,0,1.28,0,0,0,0.2,-0.2,0,1.28,0,0,0,-1.40589,-0.00287299,-0.0120617,1.55432,-0.265598,-0.0406086,-1.42486,-0.00306336,-0.0123927,1.58258,-0.274865,-0.040998,-0.000895812,-0.0129426,-0.139007,0.2,0.2,0,1.28,0,0,0,0.2,-0.2,0,1.28,0,0,0
gen_000088_tz+0.07_tx+0.02_ty-0.01_p-0.05_fx+0.01_fy+0.00,-0.230828,2.9805619,0.531148,0.998632,0.0143153,0.0502066,0.00280787,-1.39543,-0.00295916,-0.0121003,1.53679,-0.241774,-0.0406017,-1.41455,-0.00315449,-0.0124289,1.56506,-0.250905,-0.0409906,-0.000688729,-0.012892,-0.122266,0.2,0.2,0,1.28,0,0,0,0.2,-0.2,0,1.28,0,0,0,-1.39543,-0.00295916,-0.0121003,1.53679,-0.241774,-0.0406017,-1.41455,-0.00315449,-0.0124289,1.56506,-0.250905,-0.0409906,-0.000688729,-0.012892,-0.122266,0.2,0.2,0,1.28,0,0,0,0.2,-0.2,0,1.28,0,0,0
gen_000089_tz+0.07_tx+0.02_ty-0.01_p-0.05_fx+0.02_fy+0.00,-0.23006,2.9805639,0.531123,0.999016,0.0143039,0.0418889,0.00269358,-1.38446,-0.0030346,-0.0121467,1.51851,-0.217823,-0.040596,-1.40372,-0.00323472,-0.0124731,1.5468,-0.226831,-0.0409844,-0.000481303,-0.0128326,-0.10563,0.2,0.2,0,1.28,0,0,0,0.2,-0.2,0,1.28,0,0,0,-1.38446,-0.0030346,-0.0121467,1.51851,-0.217823,-0.040596,-1.40372,-0.00323472,-0.0124731,1.5468,-0.226831,-0.0409844,-0.000481303,-0.0128326,-0.10563,0.2,0.2,0,1.28,0,0,0,0.2,-0.2,0,1.28,0,0,0
gen_000090_tz+0.07_tx+0.02_ty-0.01_p-0.05_fx+0.03_fy+0.00,-0.229295,2.9805651,0.531108,0.999329,0.0142865,0.0336137,0.00258032,-1.37295,-0.00310231,-0.0122067,1.49948,-0.193745,-0.0405926,-1.39235,-0.00330715,-0.0125309,1.52779,-0.202647,-0.0409804,-0.000276903,-0.01276,-0.089085,0.2,0.2,0,1.28,0,0,0,0.2,-0.2,0,1.28,0,0,0,-1.37295,-0.00310231,-0.0122067,1.49948,-0.193745,-0.0405926,-1.39235,-0.00330715,-0.0125309,1.52779,-0.202647,-0.0409804,-0.000276903,-0.01276,-0.089085,0.2,0.2,0,1.28,0,0,0,0.2,-0.2,0,1.28,0,0,0
gen_000091_tz+0.07_tx+0.03_ty-0.01_p-0.05_fx-0.03_fy+0.00,-0.224717,2.9805438,0.531455,0.995597,0.0143172,0.0925773,0.00337348,-1.44281,-0.00242957,-0.0119748,1.61704,-0.359568,-0.0406453,-1.46111,-0.00259818,-0.012316,1.64529,-0.369504,-0.041036,-0.00172471,-0.0130616,-0.207155,0.2,0.2,0,1.28,0,0,0,0.2,-0.2,0,1.28,0,0,0,-1.44281,-0.00242957,-0.0119748,1.61704,-0.359568,-0.0406453,-1.46111,-0.00259818,-0.012316,1.64529,-0.369504,-0.041036,-0.00172471,-0.0130616,-0.207155,0.2,0.2,0,1.28,0,0,0,0.2,-0.2,0,1.28,0,0,0
gen_000092_tz+0.07_tx+0.03_ty-0.01_p-0.05_fx-0.02_fy+0.00,-0.223932,2.9805485,0.531369,0.996358,0.0143238,0.0839891,0.00326069,-1.43429,-0.00255469,-0.0119877,1.60247,-0.336284,-0.040635,-1.45277,-0.00272905,-0.0123262,1.63071,-0.346034,-0.0410255,-0.00151723,-0.0130439,-0.189926,0.2,0.2,0,1.28,0,0,0,0.2,-0.2,0,1.28,0,0,0,-1.43429,-0.00255469,-0.0119877,1.60247,-0.336284,-0.040635,-1.45277,-0.00272905,-0.0123262,1.63071,-0.346034,-0.0410255,-0.00151723,-0.0130439,-0.189926,0.2,0.2,0,1.28,0,0,0,0.2,-0.2,0,1.28,0,0,0
gen_000093_tz+0.07_tx+0.03_ty-0.01_p-0.05_fx-0.01_fy+0.00,-0.223151,2.9805527,0.531295,0.997041,0.014327,0.0754606,0.00314787,-1.42531,-0.00267052,-0.0120062,1.58716,-0.312858,-0.0406255,-1.44396,-0.00285043,-0.0123421,1.6154,-0.322434,-0.0410156,-0.00131002,-0.0130182,-0.172829,0.2,0.2,0,1.28,0,0,0,0.2,-0.2,0,1.28,0,0,0,-1.42531,-0.00267052,-0.0120062,1.58716,-0.312858,-0.0406255,-1.44396,-0.00285043,-0.0123421,1.6154,-0.322434,-0.0410156,-0.00131002,-0.0130182,-0.172829,0.2,0.2,0,1.28,0,0,0,0.2,-0.2,0,1.28,0,0,0
gen_000094_tz+0.07_tx+0.03_ty-0.01_p-0.05_fx+0.00_fy+0.00,-0.222373,2.9805563,0.531234,0.997646,0.0143267,0.0669891,0.00303491,-1.41584,-0.00277682,-0.0120308,1.57111,-0.289295,-0.0406166,-1.43466,-0.00296206,-0.0123642,1.59936,-0.29871,-0.0410064,-0.00110301,-0.0129844,-0.155857,0.2,0.2,0,1.28,0,0,0,0.2,-0.2,0,1.28,0,0,0,-1.41584,-0.00277682,-0.0120308,1.57111,-0.289295,-0.0406166,-1.43466,-0.00296206,-0.0123642,1.59936,-0.29871,-0.0410064,-0.00110301,-0.0129844,-0.155857,0.2,0.2,0,1.28,0,0,0,0.2,-0.2,0,1.28,0,0,0
gen_000095_tz+0.07_tx+0.03_ty-0.01_p-0.05_fx+0.01_fy+0.00,-0.221599,2.9805594,0.531185,0.998176,0.0143229,0.0585728,0.00292155,-1.40589,-0.00287298,-0.0120618,1.55432,-0.265598,-0.0406086,-1.42486,-0.00306335,-0.0123927,1.58258,-0.274865,-0.040998,-0.000895805,-0.0129426,-0.139007,0.2,0.2,0,1.28,0,0,0,0.2,-0.2,0,1.28,0,0,0,-1.40589,-0.00287298,-0.0120618,1.55432,-0.265598,-0.0406086,-1.42486,-0.00306335,-0.0123927,1.58258,-0.274865,-0.040998,-0.000895805,-0.0129426,-0.139007,0.2,0.2,0,1.28,0,0,0,0.2,-0.2,0,1.28,0,0,0
gen_000096_tz+0.07_tx+0.03_ty-0.01_p-0.05_fx+0.02_fy+0.00,-0.220828,2.9805619,0.531148,0.998632,0.0143153,0.0502066,0.00280787,-1.39543,-0.00295914,-0.0121003,1.53679,-0.241774,-0.0406017,-1.41455,-0.00315447,-0.0124289,1.56506,-0.250905,-0.0409906,-0.000688715,-0.012892,-0.122266,0.2,0.2,0,1.28,0,0,0,0.2,-0.2,0,1.28,0,0,0,-1.39543,-0.00295914,-0.0121003,1.53679,-0.241774,-0.0406017,-1.41455,-0.00315447,-0.0124289,1.56506,-0.250905,-0.0409906,-0.000688715,-0.012892,-0.122266,0.2,0.2,0,1.28,0,0,0,0.2,-0.2,0,1.28,0,0,0
gen_000097_tz+0.07_tx+0.03_ty-0.01_p-0.05_fx+0.03_fy+0.00,-0.22006,2.9805639,0.531123,0.999016,0.0143038,0.041889,0.00269357,-1.38446,-0.00303457,-0.0121468,1.51851,-0.217822,-0.040596,-1.40372,-0.0032347,-0.0124731,1.5468,-0.226831,-0.0409844,-0.000481281,-0.0128325,-0.10563,0.2,0.2,0,1.28,0,0,0,0.2,-0.2,0,1.28,0,0,0,-1.38446,-0.00303457,-0.0121468,1.51851,-0.217822,-0.040596,-1.40372,-0.0032347,-0.0124731,1.5468,-0.226831,-0.0409844,-0.000481281,-0.0128325,-0.10563,0.2,0.2,0,1.28,0,0,0,0.2,-0.2,0,1.28,0,0,0
gen_000098_tz+0.07_tx-0.03_ty+0.00_p-0.05_fx-0.03_fy+0.00,-0.280056,2.9898884,0.53111,0.999097,0.00684635,0.0418522,0.00264729,-1.39037,-0.00403345,-0.00779717,1.52619,-0.21948,-0.0213004,-1.39928,-0.00409269,-0.00783794,1.54148,-0.225851,-0.021378,0.000230632,0.00205059,-0.105586,0.2,0.2,0,1.28,0,0,0,0.2,-0.2,0,1.28,0,0,0,-1.39037,-0.00403345,-0.00779717,1.52619,-0.21948,-0.0213004,-1.39928,-0.00409269,-0.00783794,1.54148,-0.225851,-0.021378,0.000230632,0.00205059,-0.105586,0.2,0.2,0,1.28,0,0,0,0.2,-0.2,0,1.28,0,0,0
gen_000099_tz+0.07_tx-0.03_ty+0.00_p-0.05_fx-0.02_fy+0.00,-0.279291,2.9898897,0.531095,0.999409,0.00684042,0.0335755,0.00257168,-1.37888,-0.00403334,-0.00782222,1.50717,-0.195387,-0.0212927,-1.38789,-0.00409391,-0.00786254,1.52248,-0.201675,-0.0213702,0.000235793,0.00210785,-0.0890409,0.2,0.2,0,1.28,0,0,0,0.2,-0.2,0,1.28,0,0,0,-1.37888,-0.00403334,-0.00782222,1.50717,-0.195387,-0.0212927,-1.38789,-0.00409391,-0.00786254,1.52248,-0.201675,-0.0213702,0.000235793,0.00210785,-0.0890409,0.2,0.2,0,1.28,0,0,0,0.2,-0.2,0,1.28,0,0,0
gen_000100_tz+0.07_tx-0.03_ty+0.00_p-0.05_fx-0.01_fy+0.00,-0.278529,2.9898908,0.531092,0.999652,0.00683452,0.025355,0.00249507,-1.36688,-0.00402541,-0.00784762,1.48737,-0.171157,-0.0212848,-1.37599,-0.00408726,-0.00788759,1.50271,-0.177368,-0.0213622,0.000242665,0.00216378,-0.072613,0.2,0.2,0,1.28,0,0,0,0.2,-0.2,0,1.28,0,0,0,-1.36688,-0.00402541,-0.00784762,1.48737,-0.171157,-0.0212848,-1.37599,-0.00408726,-0.00788759,1.50271,-0.177368,-0.0213622,0.000242665,0.00216378,-0.072613,0.2,0.2,0,1.28,0,0,0,0.2,-0.2,0,1.28,0,0,0
gen_000101_tz+0.07_tx-0.03_ty+0.00_p-0.05_fx+0.00_fy+0.00,-0.277767,2.9898913,0.5311,0.999827,0.00682244,0.0171437,0.00242132,-1.35427,-0.00401692,-0.0078898,1.46685,-0.146826,-0.0212798,-1.36347,-0.00408009,-0.00792939,1.48221,-0.152972,-0.0213572,0.000242944,0.00223129,-0.0562079,0.2,0.2,0,1.28,0,0,0,0.2,-0.2,0,1.28,0,0,0,-1.35427,-0.00401692,-0.0078898,1.46685,-0.146826,-0.0212798,-1.36347,-0.00408009,-0.00792939,1.48221,-0.152972,-0.0213572,0.000242944,0.00223129,-0.0562079,0.2,0.2,0,1.28,0,0,0,0.2,-0.2,0,1.28,0,0,0
gen_000102_tz+0.07_tx-0.03_ty+0.00_p-0.05_fx+0.01_fy+0.00,-0.277006,2.9898918,0.531118,0.999934,0.00681164,0.00895128,0.00234488,-1.34105,-0.00399762,-0.00792933,1.44555,-0.12238,-0.021274,-1.35034,-0.00406205,-0.00796868,1.46095,-0.128466,-0.0213513,0.000247503,0.00229516,-0.0398435,0.2,0.2,0,1.28,0,0,0,0.2,-0.2,0,1.28,0,0,0,-1.34105,-0.00399762,-0.00792933,1.44555,-0.12238,-0.021274,-1.35034,-0.00406205,-0.00796868,1.46095,-0.128466,-0.0213513,0.000247503,0.00229516,-0.0398435,0.2,0.2,0,1.28,0,0,0,0.2,-0.2,0,1.28,0,0,0
gen_000103_tz+0.07_tx-0.03_ty+0.00_p-0.05_fx+0.02_fy+0.00,-0.276244,2.989892,0.531147,0.999974,0.00679988,0.000771577,0.002267,-1.3272,-0.00396966,-0.00797203,1.42349,-0.0978159,-0.0212685,-1.33658,-0.00403533,-0.00801123,1.43892,-0.103849,-0.0213458,0.000253793,0.00236,-0.0235066,0.2,0.2,0,1.28,0,0,0,0.2,-0.2,0,1.28,0,0,0,-1.3272,-0.00396966,-0.00797203,1.42349,-0.0978159,-0.0212685,-1.33658,-0.00403533,-0.00801123,1.43892,-0.103849,-0.0213458,0.000253793,0.00236,-0.0235066,0.2,0.2,0,1.28,0,0,0,0.2,-0.2,0,1.28,0,0,0
gen_000104_tz+0.07_tx-0.03_ty+0.00_p-0.05_fx+0.03_fy+0.00,-0.275482,2.989892,0.531186,0.999947,0.00678679,-0.00740581,0.00218763,-1.3127,-0.00393283,-0.00801888,1.40065,-0.0731325,-0.0212637,-1.32217,-0.00399972,-0.00805802,1.41613,-0.0791187,-0.0213409,0.000261723,0.00242668,-0.00717546,0.2,0.2,0,1.28,0,0,0,0.2,-0.2,0,1.28,0,0,0,-1.3127,-0.00393283,-0.00801888,1.40065,-0.0731325,-0.0212637,-1.32217,-0.00399972,-0.00805802,1.41613,-0.0791187,-0.0213409,0.000261723,0.00242668,-0.00717546,0.2,0.2,0,1.28,0,0,0,0.2,-0.2,0,1.28,0,0,0
gen_000105_tz+0.07_tx-0.02_ty+0.00_p-0.05_fx-0.03_fy+0.00,-0.270824,2.9898869,0.531135,0.998713,0.00685207,0.0501714,0.00272197,-1.40132,-0.00402609,-0.00777311,1.54446,-0.243452,-0.0213078,-1.41012,-0.00408396,-0.00781439,1.55974,-0.249912,-0.0213855,0.000226775,0.00199252,-0.122223,0.2,0.2,0,1.28,0,0,0,0.2,-0.2,0,1.28,0,0,0,-1.40132,-0.00402609,-0.00777311,1.54446,-0.243452,-0.0213078,-1.41012,-0.00408396,-0.00781439,1.55974,-0.249912,-0.0213855,0.000226775,0.00199252,-0.122223,0.2,0.2,0,1.28,0,0,0,0.2,-0.2,0,1.28,0,0,0
gen_000106_tz+0.07_tx-0.02_ty+0.00_p-0.05_fx-0.02_fy+0.00,-0.270056,2.9898884,0.53111,0.999097,0.00684634,0.0418524,0.00264729,-1.39037,-0.00403344,-0.00779719,1.52619,-0.21948,-0.0213004,-1.39928,-0.00409269,-0.00783796,1.54148,-0.22585,-0.021378,0.000230634,0.0020506,-0.105587,0.2,0.2,0,1.28,0,0,0,0.2,-0.2,0,1.28,0,0,0,-1.39037,-0.00403344,-0.00779719,1.52619,-0.21948,-0.0213004,-1.39928,-0.00409269,-0.00783796,1.54148,-0.22585,-0.021378,0.000230634,0.0020506,-0.105587,0.2,0.2,0,1.28,0,0,0,0.2,-0.2,0,1.28,0,0,0
gen_000107_tz+0.07_tx-0.02_ty+0.00_p-0.05_fx-0.01_fy+0.00,-0.269291,2.9898897,0.531095,0.999409,0.00684041,0.0335759,0.00257169,-1.37888,-0.00403334,-0.00782224,1.50717,-0.195387,-0.0212927,-1.38789,-0.00409391,-0.00786257,1.52248,-0.201675,-0.0213703,0.000235794,0.00210787,-0.0890417,0.2,0.2,0,1.28,0,0,0,0.2,-0.2,0,1.28,0,0,0,-1.37888,-0.00403334,-0.00782224,1.50717,-0.195387,-0.0212927,-1.38789,-0.00409391,-0.00786257,1.52248,-0.201675,-0.0213703,0.000235794,0.00210787,-0.0890417,0.2,0.2,0,1.28,0,0,0,0.2,-0.2,0,1.28,0,0,0
gen_000108_tz+0.07_tx-0.02_ty+0.00_p-0.05_fx+0.00_fy+0.00,-0.268529,2.9898908,0.531092,0.999652,0.00683416,0.0253548,0.00249531,-1.36688,-0.00402583,-0.00784856,1.48738,-0.171157,-0.021285,-1.37599,-0.00408769,-0.00788852,1.50271,-0.177369,-0.0213624,0.000242207,0.00216451,-0.0726127,0.2,0.2,0,1.28,0,0,0,0.2,-0.2,0,1.28,0,0,0,-1.36688,-0.00402583,-0.00784856,1.48738,-0.171157,-0.021285,-1.37599,-0.00408769,-0.00788852,1.50271,-0.177369,-0.0213624,0.000242207,0.00216451,-0.0726127,0.2,0.2,0,1.28,0,0,0,0.2,-0.2,0,1.28,0,0,0
gen_000109_tz+0.07_tx-0.02_ty+0.00_p-0.05_fx+0.01_fy+0.00,-0.267767,2.9898913,0.5311,0.999827,0.00682235,0.0171429,0.0024214,-1.35427,-0.00401707,-0.00789005,1.46685,-0.146826,-0.0212799,-1.36347,-0.00408023,-0.00792965,1.48221,-0.152973,-0.0213572,0.000242785,0.00223149,-0.0562062,0.2,0.2,0,1.28,0,0,0,0.2,-0.2,0,1.28,0,0,0,-1.35427,-0.00401707,-0.00789005,1.46685,-0.146826,-0.0212799,-1.36347,-0.00408023,-0.00792965,1.48221,-0.152973,-0.0213572,0.000242785,0.00223149,-0.0562062,0.2,0.2,0,1.28,0,0,0,0.2,-0.2,0,1.28,0,0,0
gen_000110_tz+0.07_tx-0.02_ty+0.00_p-0.05_fx+0.02_fy+0.00,-0.267006,2.9898918,0.531118,0.999934,0.00681164,0.00895138,0.00234488,-1.34105,-0.00399762,-0.00792933,1.44555,-0.12238,-0.021274,-1.35034,-0.00406205,-0.00796867,1.46095,-0.128466,-0.0213513,0.000247505,0.00229516,-0.0398437,0.2,0.2,0,1.28,0,0,0,0.2,-0.2,0,1.28,0,0,0,-1.34105,-0.00399762,-0.00792933,1.44555,-0.12238,-0.021274,-1.35034,-0.00406205,-0.00796867,1.46095,-0.128466,-0.0213513,0.000247505,0.00229516,-0.0398437,0.2,0.2,0,1.28,0,0,0,0.2,-0.2,0,1.28,0,0,0
gen_000111_tz+0.07_tx-0.02_ty+0.00_p-0.05_fx+0.03_fy+0.00,-0.266244,2.989892,0.531147,0.999974,0.00679988,0.000771655,0.002267,-1.3272,-0.00396966,-0.00797203,1.42349,-0.0978158,-0.0212685,-1.33658,-0.00403533,-0.00801123,1.43892,-0.103849,-0.0213458,0.000253796,0.00236,-0.0235068,0.2,0.2,0,1.28,0,0,0,0.2,-0.2,0,1.28,0,0,0,-1.3272,-0.00396966,-0.00797203,1.42349,-0.0978158,-0.0212685,-1.33658,-0.00403533,-0.00801123,1.43892,-0.103849,-0.0213458,0.000253796,0.00236,-0.0235068,0.2,0.2,0,1.28,0,0,0,0.2,-0.2,0,1.28,0,0,0
gen_000112_tz+0.07_tx-0.01_ty+0.00_p-0.05_fx-0.03_fy+0.00,-0.261595,2.9898853,0.531172,0.998258,0.00685705,0.0585373,0.00279631,-1.41174,-0.00401241,-0.00775129,1.56199,-0.267303,-0.0213153,-1.42045,-0.00406887,-0.00779316,1.57727,-0.273859,-0.0213931,0.000223137,0.00193467,-0.138962,0.2,0.2,0,1.28,0,0,0,0.2,-0.2,0,1.28,0,0,0,-1.41174,-0.00401241,-0.00775129,1.56199,-0.267303,-0.0213153,-1.42045,-0.00406887,-0.00779316,1.57727,-0.273859,-0.0213931,0.000223137,0.00193467,-0.138962,0.2,0.2,0,1.28,0,0,0,0.2,-0.2,0,1.28,0,0,0
gen_000113_tz+0.07_tx-0.01_ty+0.00_p-0.05_fx-0.02_fy+0.00,-0.260824,2.9898869,0.531135,0.998713,0.00685207,0.0501716,0.00272197,-1.40132,-0.00402609,-0.00777311,1.54446,-0.243452,-0.0213078,-1.41012,-0.00408396,-0.0078144,1.55974,-0.249912,-0.0213855,0.000226776,0.00199253,-0.122224,0.2,0.2,0,1.28,0,0,0,0.2,-0.2,0,1.28,0,0,0,-1.40132,-0.00402609,-0.00777311,1.54446,-0.243452,-0.0213078,-1.41012,-0.00408396,-0.0078144,1.55974,-0.249912,-0.0213855,0.000226776,0.00199253,-0.122224,0.2,0.2,0,1.28,0,0,0,0.2,-0.2,0,1.28,0,0,0
gen_000114_tz+0.07_tx-0.01_ty+0.00_p-0.05_fx-0.01_fy+0.00,-0.260056,2.9898884,0.53111,0.999097,0.00684634,0.0418526,0.00264729,-1.39037,-0.00403344,-0.0077972,1.52619,-0.21948,-0.0213004,-1.39928,-0.00409269,-0.00783797,1.54148,-0.22585,-0.021378,0.000230634,0.00205061,-0.105587,0.2,0.2,0,1.28,0,0,0,0.2,-0.2,0,1.28,0,0,0,-1.39037,-0.00403344,-0.0077972,1.52619,-0.21948,-0.0213004,-1.39928,-0.00409269,-0.00783797,1.54148,-0.22585,-0.021378,0.000230634,0.00205061,-0.105587,0.2,0.2,0,1.28,0,0,0,0.2,-0.2,0,1.28,0,0,0
gen_000115_tz+0.07_tx-0.01_ty+0.00_p-0.05_fx+0.00_fy+0.00,-0.259291,2.9898897,0.531095,0.999409,0.00684058,0.0335754,0.00257155,-1.37888,-0.00403309,-0.0078218,1.50717,-0.195388,-0.0212926,-1.38789,-0.00409366,-0.00786213,1.52248,-0.201675,-0.0213702,0.000236055,0.00210752,-0.0890406,0.2,0.2,0,1.28,0,0,0,0.2,-0.2,0,1.28,0,0,0,-1.37888,-0.00403309,-0.0078218,1.50717,-0.195388,-0.0212926,-1.38789,-0.00409366,-0.00786213,1.52248,-0.201675,-0.0213702,0.000236055,0.00210752,-0.0890406,0.2,0.2,0,1.28,0,0,0,0.2,-0.2,0,1.28,0,0,0
gen_000116_tz+0.07_tx-0.01_ty+0.00_p-0.05_fx+0.01_fy+0.00,-0.258529,2.9898908,0.531092,0.999652,0.00683416,0.0253555,0.00249531,-1.36688,-0.00402583,-0.00784857,1.48737,-0.171156,-0.021285,-1.37599,-0.00408769,-0.00788852,1.50271,-0.177368,-0.0213624,0.000242211,0.00216452,-0.072614,0.2,0.2,0,1.28,0,0,0,0.2,-0.2,0,1.28,0,0,0,-1.36688,-0.00402583,-0.00784857,1.48737,-0.171156,-0.021285,-1.37599,-0.00408769,-0.00788852,1.50271,-0.177368,-0.0213624,0.000242211,0.00216452,-0.072614,0.2,0.2,0,1.28,0,0,0,0.2,-0.2,0,1.28,0,0,0
gen_000117_tz+0.07_tx-0.01_ty+0.00_p-0.05_fx+0.02_fy+0.00,-0.257767,2.9898913,0.5311,0.999827,0.00682235,0.0171431,0.0024214,-1.35427,-0.00401706,-0.00789005,1.46685,-0.146826,-0.0212799,-1.36347,-0.00408023,-0.00792964,1.48221,-0.152972,-0.0213572,0.000242788,0.00223149,-0.0562065,0.2,0.2,0,1.28,0,0,0,0.2,-0.2,0,1.28,0,0,0,-1.35427,-0.00401706,-0.00789005,1.46685,-0.146826,-0.0212799,-1.36347,-0.00408023,-0.00792964,1.48221,-0.152972,-0.0213572,0.000242788,0.00223149,-0.0562065,0.2,0.2,0,1.28,0,0,0,0.2,-0.2,0,1.28,0,0,0
gen_000118_tz+0.07_tx-0.01_ty+0.00_p-0.05_fx+0.03_fy+0.00,-0.257006,2.9898918,0.531118,0.999934,0.00681164,0.00895149,0.00234488,-1.34105,-0.00399762,-0.00792932,1.44555,-0.12238,-0.021274,-1.35034,-0.00406205,-0.00796867,1.46095,-0.128466,-0.0213513,0.000247508,0.00229515,-0.0398439,0.2,0.2,0,1.28,0,0,0,0.2,-0.2,0,1.28,0,0,0,-1.34105,-0.00399762,-0.00792932,1.44555,-0.12238,-0.021274,-1.35034,-0.00406205,-0.00796867,1.46095,-0.128466,-0.0213513,0.000247508,0.00229515,-0.0398439,0.2,0.2,0,1.28,0,0,0,0.2,-0.2,0,1.28,0,0,0
gen_000119_tz+0.07_tx+0.00_ty+0.00_p-0.05_fx-0.03_fy+0.00,-0.252369,2.9898834,0.531221,0.997728,0.00686121,0.0669546,0.00287055,-1.42166,-0.00399292,-0.00773184,1.57878,-0.291027,-0.0213227,-1.43026,-0.00404792,-0.00777433,1.59405,-0.297686,-0.0214006,0.000219303,0.00187719,-0.155811,0.2,0.2,0,1.28,0,0,0,0.2,-0.2,0,1.28,0,0,0,-1.42166,-0.00399292,-0.00773184,1.57878,-0.291027,-0.0213227,-1.43026,-0.00404792,-0.00777433,1.59405,-0.297686,-0.0214006,0.000219303,0.00187719,-0.155811,0.2,0.2,0,1.28,0,0,0,0.2,-0.2,0,1.28,0,0,0
gen_000120_tz+0.07_tx+0.00_ty+0.00_p-0.05_fx-0.02_fy+0.00,-0.251595,2.9898853,0.531172,0.998258,0.00685705,0.0585374,0.00279631,-1.41174,-0.00401241,-0.0077513,1.56199,-0.267303,-0.0213153,-1.42045,-0.00406887,-0.00779316,1.57727,-0.273858,-0.0213931,0.000223138,0.00193468,-0.138962,0.2,0.2,0,1.28,0,0,0,0.2,-0.2,0,1.28,0,0,0,-1.41174,-0.00401241,-0.0077513,1.56199,-0.267303,-0.0213153,-1.42045,-0.00406887,-0.00779316,1.57727,-0.273858,-0.0213931,0.000223138,0.00193468,-0.138962,0.2,0.2,0,1.28,0,0,0,0.2,-0.2,0,1.28,0,0,0
gen_000121_tz+0.07_tx+0.00_ty+0.00_p-0.05_fx-0.01_fy+0.00,-0.250824,2.9898869,0.531135,0.998713,0.00685211,0.0501707,0.00272191,-1.40131,-0.004026,-0.007773,1.54446,-0.243453,-0.0213078,-1.41012,-0.00408387,-0.00781428,1.55974,-0.249913,-0.0213855,0.000226861,0.00199243,-0.122222,0.2,0.2,0,1.28,0,0,0,0.2,-0.2,0,1.28,0,0,0,-1.40131,-0.004026,-0.007773,1.54446,-0.243453,-0.0213078,-1.41012,-0.00408387,-0.00781428,1.55974,-0.249913,-0.0213855,0.000226861,0.00199243,-0.122222,0.2,0.2,0,1.28,0,0,0,0.2,-0.2,0,1.28,0,0,0
gen_000122_tz+0.07_tx+0.00_ty+0.00_p-0.05_fx+0.00_fy+0.00,-0.250056,2.9898884,0.53111,0.999097,0.00684634,0.0418528,0.00264729,-1.39037,-0.00403344,-0.0077972,1.52619,-0.21948,-0.0213004,-1.39928,-0.00409269,-0.00783797,1.54148,-0.22585,-0.021378,0.000230635,0.00205061,-0.105587,0.2,0.2,0,1.28,0,0,0,0.2,-0.2,0,1.28,0,0,0,-1.39037,-0.00403344,-0.0077972,1.52619,-0.21948,-0.0213004,-1.39928,-0.00409269,-0.00783797,1.54148,-0.22585,-0.021378,0.000230635,0.00205061,-0.105587,0.2,0.2,0,1.28,0,0,0,0.2,-0.2,0,1.28,0,0,0
gen_000123_tz+0.07_tx+0.00_ty+0.00_p-0.05_fx+0.01_fy+0.00,-0.249291,2.9898897,0.531095,0.999409,0.00684058,0.0335757,0.00257155,-1.37888,-0.00403309,-0.0078218,1.50717,-0.195387,-0.0212926,-1.38789,-0.00409366,-0.00786213,1.52248,-0.201675,-0.0213702,0.000236058,0.00210752,-0.0890413,0.2,0.2,0,1.28,0,0,0,0.2,-0.2,0,1.28,0,0,0,-1.37888,-0.00403309,-0.0078218,1.50717,-0.195387,-0.0212926,-1.38789,-0.00409366,-0.00786213,1.52248,-0.201675,-0.0213702,0.000236058,0.00210752,-0.0890413,0.2,0.2,0,1.28,0,0,0,0.2,-0.2,0,1.28,0,0,0
gen_000124_tz+0.07_tx+0.00_ty+0.00_p-0.05_fx+0.02_fy+0.00,-0.248529,2.9898908,0.531092,0.999652,0.00683386,0.0253551,0.00249553,-1.36688,-0.00402622,-0.00784936,1.48737,-0.171157,-0.0212851,-1.37599,-0.00408808,-0.00788931,1.50271,-0.177368,-0.0213626,0.000241793,0.00216514,-0.0726133,0.2,0.2,0,1.28,0,0,0,0.2,-0.2,0,1.28,0,0,0,-1.36688,-0.00402622,-0.00784936,1.48737,-0.171157,-0.0212851,-1.37599,-0.00408808,-0.00788931,1.50271,-0.177368,-0.0213626,0.000241793,0.00216514,-0.0726133,0.2,0.2,0,1.28,0,0,0,0.2,-0.2,0,1.28,0,0,0
gen_000125_tz+0.07_tx+0.00_ty+0.00_p-0.05_fx+0.03_fy+0.00,-0.247767,2.9898913,0.5311,0.999827,0.00682235,0.0171432,0.0024214,-1.35427,-0.00401706,-0.00789004,1.46685,-0.146826,-0.0212799,-1.36347,-0.00408023,-0.00792963,1.48221,-0.152972,-0.0213572,0.000242793,0.00223148,-0.0562069,0.2,0.2,0,1.28,0,0,0,0.2,-0.2,0,1.28,0,0,0,-1.35427,-0.00401706,-0.00789004,1.46685,-0.146826,-0.0212799,-1.36347,-0.00408023,-0.00792963,1.48221,-0.152972,-0.0213572,0.000242793,0.00223148,-0.0562069,0.2,0.2,0,1.28,0,0,0,0.2,-0.2,0,1.28,0,0,0
gen_000126_tz+0.07_tx+0.01_ty+0.00_p-0.05_fx-0.03_fy+0.00,-0.243147,2.9898812,0.531282,0.997123,0.00686452,0.0754274,0.00294489,-1.4311,-0.003968,-0.00771468,1.59483,-0.314622,-0.0213302,-1.43958,-0.00402149,-0.00775783,1.6101,-0.321391,-0.0214082,0.000214987,0.0018201,-0.172783,0.2,0.2,0,1.28,0,0,0,0.2,-0.2,0,1.28,0,0,0,-1.4311,-0.003968,-0.00771468,1.59483,-0.314622,-0.0213302,-1.43958,-0.00402149,-0.00775783,1.6101,-0.321391,-0.0214082,0.000214987,0.0018201,-0.172783,0.2,0.2,0,1.28,0,0,0,0.2,-0.2,0,1.28,0,0,0
gen_000127_tz+0.07_tx+0.01_ty+0.00_p-0.05_fx-0.02_fy+0.00,-0.242369,2.9898834,0.531221,0.997728,0.00686121,0.0669546,0.00287055,-1.42166,-0.00399292,-0.00773184,1.57878,-0.291027,-0.0213227,-1.43026,-0.00404792,-0.00777433,1.59405,-0.297686,-0.0214006,0.000219304,0.00187719,-0.155812,0.2,0.2,0,1.28,0,0,0,0.2,-0.2,0,1.28,0,0,0,-1.42166,-0.00399292,-0.00773184,1.57878,-0.291027,-0.0213227,-1.43026,-0.00404792,-0.00777433,1.59405,-0.297686,-0.0214006,0.000219304,0.00187719,-0.155812,0.2,0.2,0,1.28,0,0,0,0.2,-0.2,0,1.28,0,0,0
gen_000128_tz+0.07_tx+0.01_ty+0.00_p-0.05_fx-0.01_fy+0.00,-0.241595,2.9898853,0.531172,0.998258,0.00685705,0.0585375,0.00279631,-1.41174,-0.00401241,-0.0077513,1.56199,-0.267302,-0.0213153,-1.42045,-0.00406887,-0.00779316,1.57727,-0.273858,-0.0213931,0.000223139,0.00193468,-0.138962,0.2,0.2,0,1.28,0,0,0,0.2,-0.2,0,1.28,0,0,0,-1.41174,-0.00401241,-0.0077513,1.56199,-0.267302,-0.0213153,-1.42045,-0.00406887,-0.00779316,1.57727,-0.273858,-0.0213931,0.000223139,0.00193468,-0.138962,0.2,0.2,0,1.28,0,0,0,0.2,-0.2,0,1.28,0,0,0
gen_000129_tz+0.07_tx+0.01_ty+0.00_p-0.05_fx+0.00_fy+0.00,-0.240824,2.9898869,0.531135,0.998713,0.00685211,0.0501708,0.00272192,-1.40131,-0.004026,-0.007773,1.54446,-0.243453,-0.0213078,-1.41012,-0.00408387,-0.00781429,1.55974,-0.249913,-0.0213855,0.000226862,0.00199243,-0.122222,0.2,0.2,0,1.28,0,0,0,0.2,-0.2,0,1.28,0,0,0,-1.40131,-0.004026,-0.007773,1.54446,-0.243453,-0.0213078,-1.41012,-0.00408387,-0.00781429,1.55974,-0.249913,-0.0213855,0.000226862,0.00199243,-0.122222,0.2,0.2,0,1.28,0,0,0,0.2,-0.2,0,1.28,0,0,0
gen_000130_tz+0.07_tx+0.01_ty+0.00_p-0.05_fx+0.01_fy+0.00,-0.240056,2.9898884,0.53111,0.999097,0.00684642,0.0418519,0.00264722,-1.39037,-0.00403332,-0.007797,1.52619,-0.219481,-0.0213003,-1.39928,-0.00409256,-0.00783777,1.54148,-0.225851,-0.0213779,0.000230764,0.00205045,-0.105586,0.2,0.2,0,1.28,0,0,0,0.2,-0.2,0,1.28,0,0,0,-1.39037,-0.00403332,-0.007797,1.52619,-0.219481,-0.0213003,-1.39928,-0.00409256,-0.00783777,1.54148,-0.225851,-0.0213779,0.000230764,0.00205045,-0.105586,0.2,0.2,0,1.28,0,0,0,0.2,-0.2,0,1.28,0,0,0
gen_000131_tz+0.07_tx+0.01_ty+0.00_p-0.05_fx+0.02_fy+0.00,-0.239291,2.9898897,0.531095,0.999409,0.00684059,0.033576,0.00257155,-1.37888,-0.00403309,-0.00782178,1.50717,-0.195387,-0.0212926,-1.38789,-0.00409365,-0.00786211,1.52248,-0.201674,-0.0213702,0.000236063,0.0021075,-0.0890419,0.2,0.2,0,1.28,0,0,0,0.2,-0.2,0,1.28,0,0,0,-1.37888,-0.00403309,-0.00782178,1.50717,-0.195387,-0.0212926,-1.38789,-0.00409365,-0.00786211,1.52248,-0.201674,-0.0213702,0.000236063,0.0021075,-0.0890419,0.2,0.2,0,1.28,0,0,0,0.2,-0.2,0,1.28,0,0,0
gen_000132_tz+0.07_tx+0.01_ty+0.00_p-0.05_fx+0.03_fy+0.00,-0.238529,2.9898908,0.531092,0.999652,0.00683387,0.0253557,0.00249553,-1.36688,-0.00402621,-0.00784932,1.48737,-0.171156,-0.0212851,-1.37599,-0.00408807,-0.00788927,1.50271,-0.177368,-0.0213626,0.000241802,0.0021651,-0.0726145,0.2,0.2,0,1.28,0,0,0,0.2,-0.2,0,1.28,0,0,0,-1.36688,-0.00402621,-0.00784932,1.48737,-0.171156,-0.0212851,-1.37599,-0.00408807,-0.00788927,1.50271,-0.177368,-0.0213626,0.000241802,0.0021651,-0.0726145,0.2,0.2,0,1.28,0,0,0,0.2,-0.2,0,1.28,0,0,0
gen_000133_tz+0.07_tx+0.02_ty+0.00_p-0.05_fx-0.03_fy+0.00,-0.233928,2.9898789,0.531356,0.996441,0.00686701,0.0839575,0.0030194,-1.44005,-0.00393788,-0.00769957,1.61014,-0.338083,-0.0213376,-1.44842,-0.00398981,-0.00774344,1.62541,-0.344969,-0.0214157,0.000210028,0.0017633,-0.189881,0.2,0.2,0,1.28,0,0,0,0.2,-0.2,0,1.28,0,0,0,-1.44005,-0.00393788,-0.00769957,1.61014,-0.338083,-0.0213376,-1.44842,-0.00398981,-0.00774344,1.62541,-0.344969,-0.0214157,0.000210028,0.0017633,-0.189881,0.2,0.2,0,1.28,0,0,0,0.2,-0.2,0,1.28,0,0,0
gen_000134_tz+0.07_tx+0.02_ty+0.00_p-0.05_fx-0.02_fy+0.00,-0.233147,2.9898812,0.531282,0.997123,0.00686452,0.0754275,0.00294489,-1.4311,-0.003968,-0.00771468,1.59483,-0.314622,-0.0213302,-1.43958,-0.00402149,-0.00775784,1.6101,-0.321391,-0.0214082,0.000214987,0.0018201,-0.172783,0.2,0.2,0,1.28,0,0,0,0.2,-0.2,0,1.28,0,0,0,-1.4311,-0.003968,-0.00771468,1.59483,-0.314622,-0.0213302,-1.43958,-0.00402149,-0.00775784,1.6101,-0.321391,-0.0214082,0.000214987,0.0018201,-0.172783,0.2,0.2,0,1.28,0,0,0,0.2,-0.2,0,1.28,0,0,0
gen_000135_tz+0.07_tx+0.02_ty+0.00_p-0.05_fx-0.01_fy+0.00,-0.232369,2.9898834,0.531221,0.997728,0.00686121,0.0669547,0.00287055,-1.42166,-0.00399292,-0.00773185,1.57878,-0.291027,-0.0213227,-1.43026,-0.00404792,-0.00777433,1.59405,-0.297686,-0.0214006,0.000219305,0.0018772,-0.155812,0.2,0.2,0,1.28,0,0,0,0.2,-0.2,0,1.28,0,0,0,-1.42166,-0.00399292,-0.00773185,1.57878,-0.291027,-0.0213227,-1.43026,-0.00404792,-0.00777433,1.59405,-0.297686,-0.0214006,0.000219305,0.0018772,-0.155812,0.2,0.2,0,1.28,0,0,0,0.2,-0.2,0,1.28,0,0,0
gen_000136_tz+0.07_tx+0.02_ty+0.00_p-0.05_fx+0.00_fy+0.00,-0.231595,2.9898853,0.531172,0.998258,0.00685709,0.0585366,0.00279626,-1.41174,-0.00401234,-0.00775121,1.56199,-0.267303,-0.0213153,-1.42044,-0.0040688,-0.00779307,1.57727,-0.273859,-0.021393,0.000223204,0.00193461,-0.13896,0.2,0.2,0,1.28,0,0,0,0.2,-0.2,0,1.28,0,0,0,-1.41174,-0.00401234,-0.00775121,1.56199,-0.267303,-0.0213153,-1.42044,-0.0040688,-0.00779307,1.57727,-0.273859,-0.021393,0.000223204,0.00193461,-0.13896,0.2,0.2,0,1.28,0,0,0,0.2,-0.2,0,1.28,0,0,0
gen_000137_tz+0.07_tx+0.02_ty+0.00_p-0.05_fx+0.01_fy+0.00,-0.230824,2.9898869,0.531135,0.998713,0.00685212,0.0501709,0.00272192,-1.40131,-0.004026,-0.00777299,1.54446,-0.243453,-0.0213078,-1.41012,-0.00408387,-0.00781428,1.55974,-0.249913,-0.0213855,0.000226863,0.00199243,-0.122222,0.2,0.2,0,1.28,0,0,0,0.2,-0.2,0,1.28,0,0,0,-1.40131,-0.004026,-0.00777299,1.54446,-0.243453,-0.0213078,-1.41012,-0.00408387,-0.00781428,1.55974,-0.249913,-0.0213855,0.000226863,0.00199243,-0.122222,0.2,0.2,0,1.28,0,0,0,0.2,-0.2,0,1.28,0,0,0
gen_000138_tz+0.07_tx+0.02_ty+0.00_p-0.05_fx+0.02_fy+0.00,-0.230056,2.9898884,0.53111,0.999097,0.00684642,0.041852,0.00264722,-1.39037,-0.00403331,-0.00779699,1.52619,-0.21948,-0.0213003,-1.39928,-0.00409256,-0.00783776,1.54148,-0.225851,-0.0213779,0.000230766,0.00205044,-0.105586,0.2,0.2,0,1.28,0,0,0,0.2,-0.2,0,1.28,0,0,0,-1.39037,-0.00403331,-0.00779699,1.52619,-0.21948,-0.0213003,-1.39928,-0.00409256,-0.00783776,1.54148,-0.225851,-0.0213779,0.000230766,0.00205044,-0.105586,0.2,0.2,0,1.28,0,0,0,0.2,-0.2,0,1.28,0,0,0
gen_000139_tz+0.07_tx+0.02_ty+0.00_p-0.05_fx+0.03_fy+0.00,-0.229291,2.9898897,0.531095,0.999409,0.00684079,0.0335754,0.00257139,-1.37888,-0.00403281,-0.00782125,1.50717,-0.195388,-0.0212925,-1.38789,-0.00409338,-0.00786158,1.52248,-0.201675,-0.0213701,0.000236347,0.00210708,-0.0890406,0.2,0.2,0,1.28,0,0,0,0.2,-0.2,0,1.28,0,0,0,-1.37888,-0.00403281,-0.00782125,1.50717,-0.195388,-0.0212925,-1.38789,-0.00409338,-0.00786158,1.52248,-0.201675,-0.0213701,0.000236347,0.00210708,-0.0890406,0.2,0.2,0,1.28,0,0,0,0.2,-0.2,0,1.28,0,0,0
gen_000140_tz+0.07_tx+0.03_ty+0.00_p-0.05_fx-0.03_fy+0.00,-0.224713,2.9898763,0.531442,0.99568,0.00686867,0.0925476,0.00309422,-1.44853,-0.00390288,-0.00768643,1.62471,-0.361404,-0.0213449,-1.45679,-0.00395319,-0.00773104,1.63998,-0.368415,-0.0214231,0.000204193,0.00170682,-0.207112,0.2,0.2,0,1.28,0,0,0,0.2,-0.2,0,1.28,0,0,0,-1.44853,-0.00390288,-0.00768643,1.62471,-0.361404,-0.0213449,-1.45679,-0.00395319,-0.00773104,1.63998,-0.368415,-0.0214231,0.000204193,0.00170682,-0.207112,0.2,0.2,0,1.28,0,0,0,0.2,-0.2,0,1.28,0,0,0
gen_000141_tz+0.07_tx+0.03_ty+0.00_p-0.05_fx-0.02_fy+0.00,-0.223928,2.9898789,0.531356,0.996441,0.00686701,0.0839575,0.0030194,-1.44005,-0.00393788,-0.00769957,1.61014,-0.338083,-0.0213376,-1.44842,-0.00398981,-0.00774344,1.62541,-0.344969,-0.0214157,0.000210029,0.0017633,-0.189881,0.2,0.2,0,1.28,0,0,0,0.2,-0.2,0,1.28,0,0,0,-1.44005,-0.00393788,-0.00769957,1.61014,-0.338083,-0.0213376,-1.44842,-0.00398981,-0.00774344,1.62541,-0.344969,-0.0214157,0.000210029,0.0017633,-0.189881,0.2,0.2,0,1.28,0,0,0,0.2,-0.2,0,1.28,0,0,0
gen_000142_tz+0.07_tx+0.03_ty+0.00_p-0.05_fx-0.01_fy+0.00,-0.223147,2.9898812,0.531282,0.997123,0.00686452,0.0754275,0.00294489,-1.4311,-0.003968,-0.00771468,1.59483,-0.314622,-0.0213302,-1.43958,-0.00402149,-0.00775784,1.6101,-0.321391,-0.0214082,0.000214988,0.0018201,-0.172783,0.2,0.2,0,1.28,0,0,0,0.2,-0.2,0,1.28,0,0,0,-1.4311,-0.003968,-0.00771468,1.59483,-0.314622,-0.0213302,-1.43958,-0.00402149,-0.00775784,1.6101,-0.321391,-0.0214082,0.000214988,0.0018201,-0.172783,0.2,0.2,0,1.28,0,0,0,0.2,-0.2,0,1.28,0,0,0
gen_000143_tz+0.07_tx+0.03_ty+0.00_p-0.05_fx+0.00_fy+0.00,-0.222369,2.9898834,0.531221,0.997728,0.00686121,0.0669548,0.00287055,-1.42167,-0.00399292,-0.00773184,1.57878,-0.291027,-0.0213227,-1.43026,-0.00404792,-0.00777433,1.59405,-0.297686,-0.0214006,0.000219305,0.00187719,-0.155812,0.2,0.2,0,1.28,0,0,0,0.2,-0.2,0,1.28,0,0,0,-1.42167,-0.00399292,-0.00773184,1.57878,-0.291027,-0.0213227,-1.43026,-0.00404792,-0.00777433,1.59405,-0.297686,-0.0214006,0.000219305,0.00187719,-0.155812,0.2,0.2,0,1.28,0,0,0,0.2,-0.2,0,1.28,0,0,0
gen_000144_tz+0.07_tx+0.03_ty+0.00_p-0.05_fx+0.01_fy+0.00,-0.221595,2.9898853,0.531172,0.998258,0.00685709,0.0585366,0.00279626,-1.41174,-0.00401234,-0.00775121,1.56199,-0.267303,-0.0213153,-1.42044,-0.0040688,-0.00779307,1.57727,-0.273859,-0.021393,0.000223204,0.0019346,-0.13896,0.2,0.2,0,1.28,0,0,0,0.2,-0.2,0,1.28,0,0,0,-1.41174,-0.00401234,-0.00775121,1.56199,-0.267303,-0.0213153,-1.42044,-0.0040688,-0.00779307,1.57727,-0.273859,-0.021393,0.000223204,0.0019346,-0.13896,0.2,0.2,0,1.28,0,0,0,0.2,-0.2,0,1.28,0,0,0
gen_000145_tz+0.07_tx+0.03_ty+0.00_p-0.05_fx+0.02_fy+0.00,-0.220824,2.9898869,0.531135,0.998713,0.00685212,0.0501709,0.00272192,-1.40131,-0.004026,-0.00777299,1.54446,-0.243453,-0.0213078,-1.41012,-0.00408387,-0.00781427,1.55974,-0.249913,-0.0213855,0.000226863,0.00199242,-0.122222,0.2,0.2,0,1.28,0,0,0,0.2,-0.2,0,1.28,0,0,0,-1.40131,-0.004026,-0.00777299,1.54446,-0.243453,-0.0213078,-1.41012,-0.00408387,-0.00781427,1.55974,-0.249913,-0.0213855,0.000226863,0.00199242,-0.122222,0.2,0.2,0,1.28,0,0,0,0.2,-0.2,0,1.28,0,0,0
gen_000146_tz+0.07_tx+0.03_ty+0.00_p-0.05_fx+0.03_fy+0.00,-0.220056,2.9898884,0.53111,0.999097,0.00684643,0.0418521,0.00264722,-1.39037,-0.00403332,-0.00779697,1.52619,-0.21948,-0.0213003,-1.39928,-0.00409256,-0.00783774,1.54148,-0.225851,-0.0213779,0.000230766,0.00205043,-0.105586,0.2,0.2,0,1.28,0,0,0,0.2,-0.2,0,1.28,0,0,0,-1.39037,-0.00403332,-0.00779697,1.52619,-0.21948,-0.0213003,-1.39928,-0.00409256,-0.00783774,1.54148,-0.225851,-0.0213779,0.000230766,0.00205043,-0.105586,0.2,0.2,0,1.28,0,0,0,0.2,-0.2,0,1.28,0,0,0
gen_000147_tz+0.07_tx-0.03_ty+0.01_p-0.05_fx-0.03_fy+0.00,-0.280055,2.999212103,0.531106,0.99912,-0.00061948,0.0418514,0.00260132,-1.39582,-0.00498621,-0.00334414,1.53312,-0.220912,-0.00189408,-1.39436,-0.00498043,-0.00331441,1.53542,-0.224658,-0.00185738,0.000942999,0.0169494,-0.10563,0.2,0.2,0,1.28,0,0,0,0.2,-0.2,0,1.28,0,0,0,-1.39582,-0.00498621,-0.00334414,1.53312,-0.220912,-0.00189408,-1.39436,-0.00498043,-0.00331441,1.53542,-0.224658,-0.00185738,0.000942999,0.0169494,-0.10563,0.2,0.2,0,1.28,0,0,0,0.2,-0.2,0,1.28,0,0,0
gen_000148_tz+0.07_tx-0.03_ty+0.01_p-0.05_fx-0.02_fy+0.00,-0.27929,2.999213282,0.531092,0.999433,-0.0006165,0.0335772,0.00256547,-1.38436,-0.00492092,-0.0033416,1.51409,-0.196801,-0.00188354,-1.38297,-0.00491504,-0.00331182,1.51641,-0.200492,-0.0018472,0.000744839,0.0169966,-0.0890881,0.2,0.2,0,1.28,0,0,0,0.2,-0.2,0,1.28,0,0,0,-1.38436,-0.00492092,-0.0033416,1.51409,-0.196801,-0.00188354,-1.38297,-0.00491504,-0.00331182,1.51641,-0.200492,-0.0018472,0.000744839,0.0169966,-0.0890881,0.2,0.2,0,1.28,0,0,0,0.2,-0.2,0,1.28,0,0,0
gen_000149_tz+0.07_tx-0.03_ty+0.01_p-0.05_fx-0.01_fy+0.00,-0.278527,2.999214355,0.531088,0.999675,-0.000613956,0.0253466,0.00253209,-1.37236,-0.00485836,-0.00334278,1.49432,-0.172567,-0.00187329,-1.37103,-0.00485242,-0.00331296,1.49664,-0.176206,-0.00183731,0.000542142,0.0170413,-0.0726384,0.2,0.2,0,1.28,0,0,0,0.2,-0.2,0,1.28,0,0,0,-1.37236,-0.00485836,-0.00334278,1.49432,-0.172567,-0.00187329,-1.37103,-0.00485242,-0.00331296,1.49664,-0.176206,-0.00183731,0.000542142,0.0170413,-0.0726384,0.2,0.2,0,1.28,0,0,0,0.2,-0.2,0,1.28,0,0,0
gen_000150_tz+0.07_tx-0.03_ty+0.01_p-0.05_fx+0.00_fy+0.00,-0.277766,2.99921515,0.531096,0.99985,-0.000613868,0.0171399,0.00250309,-1.35978,-0.004802,-0.00335292,1.47379,-0.14822,-0.00186427,-1.3585,-0.00479598,-0.00332308,1.47613,-0.151814,-0.00182862,0.000330574,0.0170876,-0.0562408,0.2,0.2,0,1.28,0,0,0,0.2,-0.2,0,1.28,0,0,0,-1.35978,-0.004802,-0.00335292,1.47379,-0.14822,-0.00186427,-1.3585,-0.00479598,-0.00332308,1.47613,-0.151814,-0.00182862,0.000330574,0.0170876,-0.0562408,0.2,0.2,0,1.28,0,0,0,0.2,-0.2,0,1.28,0,0,0
gen_000151_tz+0.07_tx-0.03_ty+0.01_p-0.05_fx+0.01_fy+0.00,-0.277004,2.999216161,0.531114,0.999957,-0.000610774,0.00895018,0.00247326,-1.34658,-0.00474216,-0.00335785,1.45251,-0.123763,-0.00185373,-1.34537,-0.00473612,-0.00332801,1.45486,-0.127312,-0.00181844,0.000120112,0.0171243,-0.03988,0.2,0.2,0,1.28,0,0,0,0.2,-0.2,0,1.28,0,0,0,-1.34658,-0.00474216,-0.00335785,1.45251,-0.123763,-0.00185373,-1.34537,-0.00473612,-0.00332801,1.45486,-0.127312,-0.00181844,0.000120112,0.0171243,-0.03988,0.2,0.2,0,1.28,0,0,0,0.2,-0.2,0,1.28,0,0,0
gen_000152_tz+0.07_tx-0.03_ty+0.01_p-0.05_fx+0.02_fy+0.00,-0.276243,2.999217321,0.531143,0.999997,-0.000605405,0.000771472,0.00244308,-1.33275,-0.00467971,-0.00335942,1.43046,-0.0991921,-0.00184206,-1.3316,-0.00467368,-0.00332959,1.43283,-0.102698,-0.00180716,-9.01765e-05,0.0171531,-0.0235434,0.2,0.2,0,1.28,0,0,0,0.2,-0.2,0,1.28,0,0,0,-1.33275,-0.00467971,-0.00335942,1.43046,-0.0991921,-0.00184206,-1.3316,-0.00467368,-0.00332959,1.43283,-0.102698,-0.00180716,-9.01765e-05,0.0171531,-0.0235434,0.2,0.2,0,1.28,0,0,0,0.2,-0.2,0,1.28,0,0,0
gen_000153_tz+0.07_tx-0.03_ty+0.01_p-0.05_fx+0.03_fy+0.00,-0.275481,2.999218616,0.531182,0.99997,-0.000597938,-0.00740382,0.00241251,-1.31827,-0.00461458,-0.00335804,1.40763,-0.0745043,-0.00182938,-1.31719,-0.00460859,-0.00332824,1.41002,-0.0779672,-0.00179488,-0.000300328,0.0171742,-0.00721468,0.2,0.2,0,1.28,0,0,0,0.2,-0.2,0,1.28,0,0,0,-1.31827,-0.00461458,-0.00335804,1.40763,-0.0745043,-0.00182938,-1.31719,-0.00460859,-0.00332824,1.41002,-0.0779672,-0.00179488,-0.000300328,0.0171742,-0.00721468,0.2,0.2,0,1.28,0,0,0,0.2,-0.2,0,1.28,0,0,0
gen_000154_tz+0.07_tx-0.02_ty+0.01_p-0.05_fx-0.03_fy+0.00,-0.270823,2.999211182,0.531131,0.998737,-0.000618879,0.0501684,0.00263586,-1.40674,-0.00504718,-0.00334009,1.55139,-0.244906,-0.00190288,-1.40522,-0.00504153,-0.00331042,1.55368,-0.248707,-0.00186584,0.00114374,0.0168914,-0.122265,0.2,0.2,0,1.28,0,0,0,0.2,-0.2,0,1.28,0,0,0,-1.40674,-0.00504718,-0.00334009,1.55139,-0.244906,-0.00190288,-1.40522,-0.00504153,-0.00331042,1.55368,-0.248707,-0.00186584,0.00114374,0.0168914,-0.122265,0.2,0.2,0,1.28,0,0,0,0.2,-0.2,0,1.28,0,0,0
gen_000155_tz+0.07_tx-0.02_ty+0.01_p-0.05_fx-0.02_fy+0.00,-0.270055,2.999212133,0.531106,0.99912,-0.000619153,0.0418506,0.00260096,-1.39582,-0.00498552,-0.0033433,1.53312,-0.220913,-0.00189392,-1.39436,-0.00497974,-0.00331357,1.53542,-0.224659,-0.00185722,0.000943679,0.0169487,-0.105629,0.2,0.2,0,1.28,0,0,0,0.2,-0.2,0,1.28,0,0,0,-1.39582,-0.00498552,-0.0033433,1.53312,-0.220913,-0.00189392,-1.39436,-0.00497974,-0.00331357,1.53542,-0.224659,-0.00185722,0.000943679,0.0169487,-0.105629,0.2,0.2,0,1.28,0,0,0,0.2,-0.2,0,1.28,0,0,0
gen_000156_tz+0.07_tx-0.02_ty+0.01_p-0.05_fx-0.01_fy+0.00,-0.26929,2.999213278,0.531092,0.999433,-0.000616544,0.0335774,0.00256546,-1.38436,-0.00492089,-0.00334172,1.51409,-0.196801,-0.00188357,-1.38297,-0.00491501,-0.00331193,1.51641,-0.200492,-0.00184723,0.000744873,0.0169967,-0.0890886,0.2,0.2,0,1.28,0,0,0,0.2,-0.2,0,1.28,0,0,0,-1.38436,-0.00492089,-0.00334172,1.51409,-0.196801,-0.00188357,-1.38297,-0.00491501,-0.00331193,1.51641,-0.200492,-0.00184723,0.000744873,0.0169967,-0.0890886,0.2,0.2,0,1.28,0,0,0,0.2,-0.2,0,1.28,0,0,0
gen_000157_tz+0.07_tx-0.02_ty+0.01_p-0.05_fx+0.00_fy+0.00,-0.268527,2.999214352,0.531088,0.999675,-0.00061399,0.0253468,0.00253209,-1.37236,-0.00485834,-0.00334287,1.49432,-0.172566,-0.00187331,-1.37103,-0.0048524,-0.00331305,1.49664,-0.176206,-0.00183733,0.000542168,0.0170413,-0.0726389,0.2,0.2,0,1.28,0,0,0,0.2,-0.2,0,1.28,0,0,0,-1.37236,-0.00485834,-0.00334287,1.49432,-0.172566,-0.00187331,-1.37103,-0.0048524,-0.00331305,1.49664,-0.176206,-0.00183733,0.000542168,0.0170413,-0.0726389,0.2,0.2,0,1.28,0,0,0,0.2,-0.2,0,1.28,0,0,0
gen_000158_tz+0.07_tx-0.02_ty+0.01_p-0.05_fx+0.01_fy+0.00,-0.267766,2.99921515,0.531096,0.99985,-0.000613877,0.0171401,0.00250309,-1.35978,-0.00480199,-0.00335294,1.47379,-0.148219,-0.00186428,-1.35851,-0.00479598,-0.0033231,1.47613,-0.151814,-0.00182863,0.000330582,0.0170876,-0.0562411,0.2,0.2,0,1.28,0,0,0,0.2,-0.2,0,1.28,0,0,0,-1.35978,-0.00480199,-0.00335294,1.47379,-0.148219,-0.00186428,-1.35851,-0.00479598,-0.0033231,1.47613,-0.151814,-0.00182863,0.000330582,0.0170876,-0.0562411,0.2,0.2,0,1.28,0,0,0,0.2,-0.2,0,1.28,0,0,0
gen_000159_tz+0.07_tx-0.02_ty+0.01_p-0.05_fx+0.02_fy+0.00,-0.267004,2.999216161,0.531114,0.999957,-0.000610773,0.00895027,0.00247326,-1.34658,-0.00474216,-0.00335785,1.45251,-0.123763,-0.00185373,-1.34537,-0.00473612,-0.003328,1.45486,-0.127312,-0.00181844,0.000120114,0.0171243,-0.0398802,0.2,0.2,0,1.28,0,0,0,0.2,-0.2,0,1.28,0,0,0,-1.34658,-0.00474216,-0.00335785,1.45251,-0.123763,-0.00185373,-1.34537,-0.00473612,-0.003328,1.45486,-0.127312,-0.00181844,0.000120114,0.0171243,-0.0398802,0.2,0.2,0,1.28,0,0,0,0.2,-0.2,0,1.28,0,0,0
gen_000160_tz+0.07_tx-0.02_ty+0.01_p-0.05_fx+0.03_fy+0.00,-0.266243,2.999217322,0.531143,0.999997,-0.000605401,0.000771543,0.00244308,-1.33275,-0.00467971,-0.00335941,1.43046,-0.099192,-0.00184205,-1.3316,-0.00467368,-0.00332958,1.43283,-0.102698,-0.00180715,-9.01758e-05,0.0171531,-0.0235436,0.2,0.2,0,1.28,0,0,0,0.2,-0.2,0,1.28,0,0,0,-1.33275,-0.00467971,-0.00335941,1.43046,-0.099192,-0.00184205,-1.3316,-0.00467368,-0.00332958,1.43283,-0.102698,-0.00180715,-9.01758e-05,0.0171531,-0.0235436,0.2,0.2,0,1.28,0,0,0,0.2,-0.2,0,1.28,0,0,0
gen_000161_tz+0.07_tx-0.01_ty+0.01_p-0.05_fx-0.03_fy+0.00,-0.261593,2.999210367,0.531168,0.998282,-0.000616344,0.0585342,0.00267075,-1.41714,-0.00510697,-0.00333376,1.56892,-0.268778,-0.00191076,-1.41556,-0.00510147,-0.00330418,1.57121,-0.272636,-0.0018734,0.00134385,0.0168259,-0.139004,0.2,0.2,0,1.28,0,0,0,0.2,-0.2,0,1.28,0,0,0,-1.41714,-0.00510697,-0.00333376,1.56892,-0.268778,-0.00191076,-1.41556,-0.00510147,-0.00330418,1.57121,-0.272636,-0.0018734,0.00134385,0.0168259,-0.139004,0.2,0.2,0,1.28,0,0,0,0.2,-0.2,0,1.28,0,0,0
gen_000162_tz+0.07_tx-0.01_ty+0.01_p-0.05_fx-0.02_fy+0.00,-0.260823,2.99921118,0.531131,0.998737,-0.0006189,0.0501686,0.00263585,-1.40674,-0.00504717,-0.00334014,1.55139,-0.244905,-0.00190289,-1.40522,-0.00504151,-0.00331048,1.55368,-0.248707,-0.00186585,0.00114375,0.0168915,-0.122265,0.2,0.2,0,1.28,0,0,0,0.2,-0.2,0,1.28,0,0,0,-1.40674,-0.00504717,-0.00334014,1.55139,-0.244905,-0.00190289,-1.40522,-0.00504151,-0.00331048,1.55368,-0.248707,-0.00186585,0.00114375,0.0168915,-0.122265,0.2,0.2,0,1.28,0,0,0,0.2,-0.2,0,1.28,0,0,0
gen_000163_tz+0.07_tx-0.01_ty+0.01_p-0.05_fx-0.01_fy+0.00,-0.260055,2.999212131,0.531106,0.99912,-0.000619177,0.0418508,0.00260095,-1.39582,-0.00498551,-0.00334336,1.53312,-0.220913,-0.00189393,-1.39436,-0.00497972,-0.00331363,1.53542,-0.224659,-0.00185723,0.000943699,0.0169488,-0.105629,0.2,0.2,0,1.28,0,0,0,0.2,-0.2,0,1.28,0,0,0,-1.39582,-0.00498551,-0.00334336,1.53312,-0.220913,-0.00189393,-1.39436,-0.00497972,-0.00331363,1.53542,-0.224659,-0.00185723,0.000943699,0.0169488,-0.105629,0.2,0.2,0,1.28,0,0,0,0.2,-0.2,0,1.28,0,0,0
gen_000164_tz+0.07_tx-0.01_ty+0.01_p-0.05_fx+0.00_fy+0.00,-0.25929,2.999213276,0.531092,0.999433,-0.000616567,0.0335777,0.00256545,-1.38436,-0.00492087,-0.00334177,1.51409,-0.196801,-0.00188358,-1.38297,-0.004915,-0.00331199,1.51641,-0.200492,-0.00184724,0.000744893,0.0169967,-0.0890891,0.2,0.2,0,1.28,0,0,0,0.2,-0.2,0,1.28,0,0,0,-1.38436,-0.00492087,-0.00334177,1.51409,-0.196801,-0.00188358,-1.38297,-0.004915,-0.00331199,1.51641,-0.200492,-0.00184724,0.000744893,0.0169967,-0.0890891,0.2,0.2,0,1.28,0,0,0,0.2,-0.2,0,1.28,0,0,0
gen_000165_tz+0.07_tx-0.01_ty+0.01_p-0.05_fx+0.01_fy+0.00,-0.258527,2.999214352,0.531088,0.999675,-0.000613995,0.0253471,0.00253209,-1.37236,-0.00485834,-0.00334288,1.49432,-0.172566,-0.00187332,-1.37103,-0.0048524,-0.00331306,1.49664,-0.176206,-0.00183733,0.000542177,0.0170413,-0.0726394,0.2,0.2,0,1.28,0,0,0,0.2,-0.2,0,1.28,0,0,0,-1.37236,-0.00485834,-0.00334288,1.49432,-0.172566,-0.00187332,-1.37103,-0.0048524,-0.00331306,1.49664,-0.176206,-0.00183733,0.000542177,0.0170413,-0.0726394,0.2,0.2,0,1.28,0,0,0,0.2,-0.2,0,1.28,0,0,0
gen_000166_tz+0.07_tx-0.01_ty+0.01_p-0.05_fx+0.02_fy+0.00,-0.257766,2.99921515,0.531096,0.99985,-0.000613869,0.0171402,0.00250309,-1.35978,-0.004802,-0.00335292,1.47379,-0.148219,-0.00186427,-1.35851,-0.00479599,-0.00332308,1.47613,-0.151814,-0.00182862,0.000330582,0.0170876,-0.0562414,0.2,0.2,0,1.28,0,0,0,0.2,-0.2,0,1.28,0,0,0,-1.35978,-0.004802,-0.00335292,1.47379,-0.148219,-0.00186427,-1.35851,-0.00479599,-0.00332308,1.47613,-0.151814,-0.00182862,0.000330582,0.0170876,-0.0562414,0.2,0.2,0,1.28,0,0,0,0.2,-0.2,0,1.28,0,0,0
gen_000167_tz+0.07_tx-0.01_ty+0.01_p-0.05_fx+0.03_fy+0.00,-0.257004,2.999216162,0.531114,0.999957,-0.000610762,0.00895037,0.00247326,-1.34658,-0.00474216,-0.00335782,1.45251,-0.123762,-0.00185372,-1.34537,-0.00473613,-0.00332798,1.45486,-0.127312,-0.00181843,0.000120113,0.0171243,-0.0398804,0.2,0.2,0,1.28,0,0,0,0.2,-0.2,0,1.28,0,0,0,-1.34658,-0.00474216,-0.00335782,1.45251,-0.123762,-0.00185372,-1.34537,-0.00473613,-0.00332798,1.45486,-0.127312,-0.00181843,0.000120113,0.0171243,-0.0398804,0.2,0.2,0,1.28,0,0,0,0.2,-0.2,0,1.28,0,0,0
gen_000168_tz+0.07_tx+0.00_ty+0.01_p-0.05_fx-0.03_fy+0.00,-0.252368,2.999209665,0.531217,0.997752,-0.000611785,0.0669514,0.00270593,-1.42704,-0.00516547,-0.00332498,1.5857,-0.292528,-0.00191769,-1.4254,-0.00516018,-0.00329548,1.58799,-0.296443,-0.00188002,0.0015434,0.0167527,-0.155856,0.2,0.2,0,1.28,0,0,0,0.2,-0.2,0,1.28,0,0,0,-1.42704,-0.00516547,-0.00332498,1.5857,-0.292528,-0.00191769,-1.4254,-0.00516018,-0.00329548,1.58799,-0.296443,-0.00188002,0.0015434,0.0167527,-0.155856,0.2,0.2,0,1.28,0,0,0,0.2,-0.2,0,1.28,0,0,0
gen_000169_tz+0.07_tx+0.00_ty+0.01_p-0.05_fx-0.02_fy+0.00,-0.251593,2.999210366,0.531168,0.998282,-0.000616358,0.0585343,0.00267075,-1.41714,-0.00510696,-0.0033338,1.56892,-0.268778,-0.00191077,-1.41556,-0.00510146,-0.00330421,1.57121,-0.272636,-0.00187341,0.00134387,0.0168259,-0.139004,0.2,0.2,0,1.28,0,0,0,0.2,-0.2,0,1.28,0,0,0,-1.41714,-0.00510696,-0.0033338,1.56892,-0.268778,-0.00191077,-1.41556,-0.00510146,-0.00330421,1.57121,-0.272636,-0.00187341,0.00134387,0.0168259,-0.139004,0.2,0.2,0,1.28,0,0,0,0.2,-0.2,0,1.28,0,0,0
gen_000170_tz+0.07_tx+0.00_ty+0.01_p-0.05_fx-0.01_fy+0.00,-0.250823,2.999211179,0.531131,0.998737,-0.000618913,0.0501687,0.00263585,-1.40674,-0.00504716,-0.00334018,1.55139,-0.244905,-0.0019029,-1.40522,-0.0050415,-0.00331051,1.55368,-0.248707,-0.00186586,0.00114377,0.0168915,-0.122265,0.2,0.2,0,1.28,0,0,0,0.2,-0.2,0,1.28,0,0,0,-1.40674,-0.00504716,-0.00334018,1.55139,-0.244905,-0.0019029,-1.40522,-0.0050415,-0.00331051,1.55368,-0.248707,-0.00186586,0.00114377,0.0168915,-0.122265,0.2,0.2,0,1.28,0,0,0,0.2,-0.2,0,1.28,0,0,0
gen_000171_tz+0.07_tx+0.00_ty+0.01_p-0.05_fx+0.00_fy+0.00,-0.250055,2.999212131,0.531106,0.99912,-0.000619185,0.0418509,0.00260095,-1.39582,-0.0049855,-0.00334338,1.53312,-0.220913,-0.00189394,-1.39436,-0.00497972,-0.00331365,1.53542,-0.224659,-0.00185724,0.000943708,0.0169488,-0.105629,0.2,0.2,0,1.28,0,0,0,0.2,-0.2,0,1.28,0,0,0,-1.39582,-0.0049855,-0.00334338,1.53312,-0.220913,-0.00189394,-1.39436,-0.00497972,-0.00331365,1.53542,-0.224659,-0.00185724,0.000943708,0.0169488,-0.105629,0.2,0.2,0,1.28,0,0,0,0.2,-0.2,0,1.28,0,0,0
gen_000172_tz+0.07_tx+0.00_ty+0.01_p-0.05_fx+0.01_fy+0.00,-0.24929,2.999213277,0.531092,0.999433,-0.000616563,0.0335779,0.00256546,-1.38436,-0.00492088,-0.00334176,1.51409,-0.196801,-0.00188358,-1.38297,-0.00491501,-0.00331198,1.51641,-0.200492,-0.00184724,0.000744896,0.0169967,-0.0890895,0.2,0.2,0,1.28,0,0,0,0.2,-0.2,0,1.28,0,0,0,-1.38436,-0.00492088,-0.00334176,1.51409,-0.196801,-0.00188358,-1.38297,-0.00491501,-0.00331198,1.51641,-0.200492,-0.00184724,0.000744896,0.0169967,-0.0890895,0.2,0.2,0,1.28,0,0,0,0.2,-0.2,0,1.28,0,0,0
gen_000173_tz+0.07_tx+0.00_ty+0.01_p-0.05_fx+0.02_fy+0.00,-0.248527,2.999214354,0.531088,0.999675,-0.000613971,0.0253473,0.00253209,-1.37236,-0.00485835,-0.00334281,1.49432,-0.172566,-0.0018733,-1.37103,-0.00485241,-0.00331299,1.49664,-0.176205,-0.00183732,0.000542172,0.0170413,-0.0726399,0.2,0.2,0,1.28,0,0,0,0.2,-0.2,0,1.28,0,0,0,-1.37236,-0.00485835,-0.00334281,1.49432,-0.172566,-0.0018733,-1.37103,-0.00485241,-0.00331299,1.49664,-0.176205,-0.00183732,0.000542172,0.0170413,-0.0726399,0.2,0.2,0,1.28,0,0,0,0.2,-0.2,0,1.28,0,0,0
gen_000174_tz+0.07_tx+0.00_ty+0.01_p-0.05_fx+0.03_fy+0.00,-0.247766,2.999215152,0.531096,0.99985,-0.000613846,0.0171404,0.00250309,-1.35978,-0.00480201,-0.00335286,1.47379,-0.148219,-0.00186426,-1.35851,-0.004796,-0.00332302,1.47613,-0.151813,-0.00182861,0.000330576,0.0170875,-0.0562417,0.2,0.2,0,1.28,0,0,0,0.2,-0.2,0,1.28,0,0,0,-1.35978,-0.00480201,-0.00335286,1.47379,-0.148219,-0.00186426,-1.35851,-0.004796,-0.00332302,1.47613,-0.151813,-0.00182861,0.000330576,0.0170875,-0.0562417,0.2,0.2,0,1.28,0,0,0,0.2,-0.2,0,1.28,0,0,0
gen_000175_tz+0.07_tx+0.01_ty+0.01_p-0.05_fx-0.03_fy+0.00,-0.243145,2.99920905,0.531278,0.997148,-0.000605442,0.0754244,0.00274169,-1.43644,-0.00522327,-0.00331441,1.60175,-0.31615,-0.0019238,-1.43475,-0.00521822,-0.00328501,1.60404,-0.320125,-0.00188582,0.0017418,0.0166722,-0.172829,0.2,0.2,0,1.28,0,0,0,0.2,-0.2,0,1.28,0,0,0,-1.43644,-0.00522327,-0.00331441,1.60175,-0.31615,-0.0019238,-1.43475,-0.00521822,-0.00328501,1.60404,-0.320125,-0.00188582,0.0017418,0.0166722,-0.172829,0.2,0.2,0,1.28,0,0,0,0.2,-0.2,0,1.28,0,0,0
gen_000176_tz+0.07_tx+0.01_ty+0.01_p-0.05_fx-0.02_fy+0.00,-0.242368,2.999209664,0.531217,0.997752,-0.000611794,0.0669515,0.00270593,-1.42704,-0.00516546,-0.003325,1.5857,-0.292528,-0.0019177,-1.4254,-0.00516017,-0.00329551,1.58799,-0.296443,-0.00188002,0.00154341,0.0167527,-0.155856,0.2,0.2,0,1.28,0,0,0,0.2,-0.2,0,1.28,0,0,0,-1.42704,-0.00516546,-0.003325,1.5857,-0.292528,-0.0019177,-1.4254,-0.00516017,-0.00329551,1.58799,-0.296443,-0.00188002,0.00154341,0.0167527,-0.155856,0.2,0.2,0,1.28,0,0,0,0.2,-0.2,0,1.28,0,0,0
gen_000177_tz+0.07_tx+0.01_ty+0.01_p-0.05_fx-0.01_fy+0.00,-0.241593,2.999210365,0.531168,0.998282,-0.000616364,0.0585344,0.00267075,-1.41714,-0.00510695,-0.00333381,1.56892,-0.268778,-0.00191078,-1.41556,-0.00510146,-0.00330423,1.57121,-0.272636,-0.00187341,0.00134387,0.016826,-0.139005,0.2,0.2,0,1.28,0,0,0,0.2,-0.2,0,1.28,0,0,0,-1.41714,-0.00510695,-0.00333381,1.56892,-0.268778,-0.00191078,-1.41556,-0.00510146,-0.00330423,1.57121,-0.272636,-0.00187341,0.00134387,0.016826,-0.139005,0.2,0.2,0,1.28,0,0,0,0.2,-0.2,0,1.28,0,0,0
gen_000178_tz+0.07_tx+0.01_ty+0.01_p-0.05_fx+0.00_fy+0.00,-0.240823,2.999211179,0.531131,0.998737,-0.000618915,0.0501688,0.00263585,-1.40674,-0.00504716,-0.00334018,1.55139,-0.244905,-0.0019029,-1.40522,-0.0050415,-0.00331052,1.55368,-0.248707,-0.00186586,0.00114377,0.0168915,-0.122265,0.2,0.2,0,1.28,0,0,0,0.2,-0.2,0,1.28,0,0,0,-1.40674,-0.00504716,-0.00334018,1.55139,-0.244905,-0.0019029,-1.40522,-0.0050415,-0.00331052,1.55368,-0.248707,-0.00186586,0.00114377,0.0168915,-0.122265,0.2,0.2,0,1.28,0,0,0,0.2,-0.2,0,1.28,0,0,0
gen_000179_tz+0.07_tx+0.01_ty+0.01_p-0.05_fx+0.01_fy+0.00,-0.240055,2.999212131,0.531106,0.99912,-0.000619176,0.0418511,0.00260095,-1.39582,-0.00498551,-0.00334336,1.53312,-0.220913,-0.00189393,-1.39436,-0.00497972,-0.00331363,1.53542,-0.224658,-0.00185723,0.000943705,0.0169488,-0.10563,0.2,0.2,0,1.28,0,0,0,0.2,-0.2,0,1.28,0,0,0,-1.39582,-0.00498551,-0.00334336,1.53312,-0.220913,-0.00189393,-1.39436,-0.00497972,-0.00331363,1.53542,-0.224658,-0.00185723,0.000943705,0.0169488,-0.10563,0.2,0.2,0,1.28,0,0,0,0.2,-0.2,0,1.28,0,0,0
gen_000180_tz+0.07_tx+0.01_ty+0.01_p-0.05_fx+0.02_fy+0.00,-0.23929,2.999213279,0.531092,0.999433,-0.000616532,0.0335781,0.00256546,-1.38436,-0.0049209,-0.00334168,1.51409,-0.196801,-0.00188356,-1.38297,-0.00491503,-0.0033119,1.51641,-0.200491,-0.00184722,0.000744884,0.0169967,-0.0890898,0.2,0.2,0,1.28,0,0,0,0.2,-0.2,0,1.28,0,0,0,-1.38436,-0.0049209,-0.00334168,1.51409,-0.196801,-0.00188356,-1.38297,-0.00491503,-0.0033119,1.51641,-0.200491,-0.00184722,0.000744884,0.0169967,-0.0890898,0.2,0.2,0,1.28,0,0,0,0.2,-0.2,0,1.28,0,0,0
gen_000181_tz+0.07_tx+0.01_ty+0.01_p-0.05_fx+0.03_fy+0.00,-0.238527,2.999214358,0.531088,0.999675,-0.000613923,0.0253476,0.0025321,-1.37236,-0.00485839,-0.00334269,1.49432,-0.172566,-0.00187327,-1.37103,-0.00485244,-0.00331287,1.49664,-0.176205,-0.00183729,0.000542154,0.0170412,-0.0726403,0.2,0.2,0,1.28,0,0,0,0.2,-0.2,0,1.28,0,0,0,-1.37236,-0.00485839,-0.00334269,1.49432,-0.172566,-0.00187327,-1.37103,-0.00485244,-0.00331287,1.49664,-0.176205,-0.00183729,0.000542154,0.0170412,-0.0726403,0.2,0.2,0,1.28,0,0,0,0.2,-0.2,0,1.28,0,0,0
gen_000182_tz+0.07_tx+0.02_ty+0.01_p-0.05_fx-0.03_fy+0.00,-0.233927,2.99920853,0.531352,0.996466,-0.000597209,0.0839547,0.00277793,-1.44536,-0.00528025,-0.00330183,1.61706,-0.339642,-0.00192903,-1.44361,-0.00527548,-0.00327255,1.61936,-0.343678,-0.00189077,0.00193912,0.0165842,-0.189929,0.2,0.2,0,1.28,0,0,0,0.2,-0.2,0,1.28,0,0,0,-1.44536,-0.00528025,-0.00330183,1.61706,-0.339642,-0.00192903,-1.44361,-0.00527548,-0.00327255,1.61936,-0.343678,-0.00189077,0.00193912,0.0165842,-0.189929,0.2,0.2,0,1.28,0,0,0,0.2,-0.2,0,1.28,0,0,0
gen_000183_tz+0.07_tx+0.02_ty+0.01_p-0.05_fx-0.02_fy+0.00,-0.233145,2.999209049,0.531278,0.997148,-0.000605448,0.0754244,0.00274169,-1.43644,-0.00522327,-0.00331442,1.60175,-0.31615,-0.0019238,-1.43475,-0.00521822,-0.00328503,1.60404,-0.320125,-0.00188583,0.00174181,0.0166722,-0.172829,0.2,0.2,0,1.28,0,0,0,0.2,-0.2,0,1.28,0,0,0,-1.43644,-0.00522327,-0.00331442,1.60175,-0.31615,-0.0019238,-1.43475,-0.00521822,-0.00328503,1.60404,-0.320125,-0.00188583,0.00174181,0.0166722,-0.172829,0.2,0.2,0,1.28,0,0,0,0.2,-0.2,0,1.28,0,0,0
gen_000184_tz+0.07_tx+0.02_ty+0.01_p-0.05_fx-0.01_fy+0.00,-0.232368,2.999209663,0.531217,0.997752,-0.000611797,0.0669515,0.00270593,-1.42704,-0.00516546,-0.00332501,1.5857,-0.292528,-0.0019177,-1.4254,-0.00516017,-0.00329551,1.58799,-0.296443,-0.00188003,0.00154341,0.0167527,-0.155856,0.2,0.2,0,1.28,0,0,0,0.2,-0.2,0,1.28,0,0,0,-1.42704,-0.00516546,-0.00332501,1.5857,-0.292528,-0.0019177,-1.4254,-0.00516017,-0.00329551,1.58799,-0.296443,-0.00188003,0.00154341,0.0167527,-0.155856,0.2,0.2,0,1.28,0,0,0,0.2,-0.2,0,1.28,0,0,0
gen_000185_tz+0.07_tx+0.02_ty+0.01_p-0.05_fx+0.00_fy+0.00,-0.231593,2.999210365,0.531168,0.998282,-0.000616363,0.0585344,0.00267075,-1.41714,-0.00510695,-0.00333381,1.56892,-0.268778,-0.00191077,-1.41556,-0.00510146,-0.00330422,1.57121,-0.272636,-0.00187341,0.00134387,0.016826,-0.139005,0.2,0.2,0,1.28,0,0,0,0.2,-0.2,0,1.28,0,0,0,-1.41714,-0.00510695,-0.00333381,1.56892,-0.268778,-0.00191077,-1.41556,-0.00510146,-0.00330422,1.57121,-0.272636,-0.00187341,0.00134387,0.016826,-0.139005,0.2,0.2,0,1.28,0,0,0,0.2,-0.2,0,1.28,0,0,0
gen_000186_tz+0.07_tx+0.02_ty+0.01_p-0.05_fx+0.01_fy+0.00,-0.230823,2.99921118,0.531131,0.998737,-0.000618905,0.0501689,0.00263585,-1.40674,-0.00504717,-0.00334016,1.55139,-0.244905,-0.00190289,-1.40522,-0.00504151,-0.00331049,1.55368,-0.248707,-0.00186585,0.00114376,0.0168915,-0.122266,0.2,0.2,0,1.28,0,0,0,0.2,-0.2,0,1.28,0,0,0,-1.40674,-0.00504717,-0.00334016,1.55139,-0.244905,-0.00190289,-1.40522,-0.00504151,-0.00331049,1.55368,-0.248707,-0.00186585,0.00114376,0.0168915,-0.122266,0.2,0.2,0,1.28,0,0,0,0.2,-0.2,0,1.28,0,0,0
gen_000187_tz+0.07_tx+0.02_ty+0.01_p-0.05_fx+0.02_fy+0.00,-0.230055,2.999212133,0.531106,0.99912,-0.000619152,0.0418512,0.00260096,-1.39582,-0.00498553,-0.00334329,1.53312,-0.220913,-0.00189392,-1.39436,-0.00497974,-0.00331356,1.53542,-0.224658,-0.00185722,0.000943693,0.0169487,-0.10563,0.2,0.2,0,1.28,0,0,0,0.2,-0.2,0,1.28,0,0,0,-1.39582,-0.00498553,-0.00334329,1.53312,-0.220913,-0.00189392,-1.39436,-0.00497974,-0.00331356,1.53542,-0.224658,-0.00185722,0.000943693,0.0169487,-0.10563,0.2,0.2,0,1.28,0,0,0,0.2,-0.2,0,1.28,0,0,0
gen_000188_tz+0.07_tx+0.02_ty+0.01_p-0.05_fx+0.03_fy+0.00,-0.22929,2.999213283,0.531092,0.999433,-0.000616482,0.0335783,0.00256548,-1.38436,-0.00492093,-0.00334155,1.51409,-0.1968,-0.00188353,-1.38297,-0.00491506,-0.00331176,1.51641,-0.200491,-0.00184719,0.00074486,0.0169966,-0.0890902,0.2,0.2,0,1.28,0,0,0,0.2,-0.2,0,1.28,0,0,0,-1.38436,-0.00492093,-0.00334155,1.51409,-0.1968,-0.00188353,-1.38297,-0.00491506,-0.00331176,1.51641,-0.200491,-0.00184719,0.00074486,0.0169966,-0.0890902,0.2,0.2,0,1.28,0,0,0,0.2,-0.2,0,1.28,0,0,0
