meetpal644/Sit-to-Stand-Motion-Synthesis-For-Humanoids/keyframes/chair1_pose_0.1z.csv
name,qpos_0,qpos_1,qpos_2,qpos_3,qpos_4,qpos_5,qpos_6,qpos_7,qpos_8,qpos_9,qpos_10,qpos_11,qpos_12,qpos_13,qpos_14,qpos_15,qpos_16,qpos_17,qpos_18,qpos_19,qpos_20,qpos_21,qpos_22,qpos_23,qpos_24,qpos_25,qpos_26,qpos_27,qpos_28,qpos_29,qpos_30,qpos_31,qpos_32,qpos_33,qpos_34,qpos_35,ctrl_0,ctrl_1,ctrl_2,ctrl_3,ctrl_4,ctrl_5,ctrl_6,ctrl_7,ctrl_8,ctrl_9,ctrl_10,ctrl_11,ctrl_12,ctrl_13,ctrl_14,ctrl_15,ctrl_16,ctrl_17,ctrl_18,ctrl_19,ctrl_20,ctrl_21,ctrl_22,ctrl_23,ctrl_24,ctrl_25,ctrl_26,ctrl_27,ctrl_28
gen_000000_tz+0.10_tx-0.03_ty-0.02_p-0.05_fx-0.03_fy+0.00,-0.280402,3.4711304,0.555997,0.998704,0.0204694,0.046533,0.00263821,-1.31612,-0.000526893,-0.0164824,1.40982,-0.186828,-0.057266,-1.34449,-0.000879839,-0.0172199,1.45145,-0.200064,-0.0580333,-0.000927683,-0.0251686,-0.114922,0.2,0.2,0,1.28,0,0,0,0.2,-0.2,0,1.28,0,0,0,-1.31612,-0.000526893,-0.0164824,1.40982,-0.186828,-0.057266,-1.34449,-0.000879839,-0.0172199,1.45145,-0.200064,-0.0580333,-0.000927683,-0.0251686,-0.114922,0.2,0.2,0,1.28,0,0,0,0.2,-0.2,0,1.28,0,0,0
gen_000001_tz+0.10_tx-0.03_ty-0.02_p-0.05_fx-0.02_fy+0.00,-0.279629,3.4711317,0.555973,0.999058,0.0204412,0.0382118,0.00247154,-1.30398,-0.000595055,-0.0165853,1.39069,-0.163176,-0.0572723,-1.33254,-0.000957653,-0.0173203,1.43238,-0.17629,-0.0580388,-0.000512496,-0.0250809,-0.0982778,0.2,0.2,0,1.28,0,0,0,0.2,-0.2,0,1.28,0,0,0,-1.30398,-0.000595055,-0.0165853,1.39069,-0.163176,-0.0572723,-1.33254,-0.000957653,-0.0173203,1.43238,-0.17629,-0.0580388,-0.000512496,-0.0250809,-0.0982778,0.2,0.2,0,1.28,0,0,0,0.2,-0.2,0,1.28,0,0,0
gen_000002_tz+0.10_tx-0.03_ty-0.02_p-0.05_fx-0.01_fy+0.00,-0.278855,3.4711324,0.555959,0.999342,0.0204082,0.0298926,0.00229781,-1.29122,-0.000636948,-0.0166949,1.37077,-0.139374,-0.0572807,-1.31997,-0.00100891,-0.0174279,1.41254,-0.15238,-0.0580463,-8.49082e-05,-0.0249802,-0.0816431,0.2,0.2,0,1.28,0,0,0,0.2,-0.2,0,1.28,0,0,0,-1.29122,-0.000636948,-0.0166949,1.37077,-0.139374,-0.0572807,-1.31997,-0.00100891,-0.0174279,1.41254,-0.15238,-0.0580463,-8.49082e-05,-0.0249802,-0.0816431,0.2,0.2,0,1.28,0,0,0,0.2,-0.2,0,1.28,0,0,0
gen_000003_tz+0.10_tx-0.03_ty-0.02_p-0.05_fx+0.00_fy+0.00,-0.278078,3.4711322,0.555956,0.999558,0.0203681,0.0215653,0.00211944,-1.27782,-0.000656523,-0.0168179,1.35007,-0.115424,-0.0572924,-1.30675,-0.00103769,-0.0175494,1.39193,-0.128336,-0.0580569,0.000350205,-0.0248611,-0.0649972,0.2,0.2,0,1.28,0,0,0,0.2,-0.2,0,1.28,0,0,0,-1.27782,-0.000656523,-0.0168179,1.35007,-0.115424,-0.0572924,-1.30675,-0.00103769,-0.0175494,1.39193,-0.128336,-0.0580569,0.000350205,-0.0248611,-0.0649972,0.2,0.2,0,1.28,0,0,0,0.2,-0.2,0,1.28,0,0,0
gen_000004_tz+0.10_tx-0.03_ty-0.02_p-0.05_fx+0.01_fy+0.00,-0.277299,3.471131,0.555963,0.999704,0.0203197,0.0132235,0.00193718,-1.26374,-0.00065462,-0.0169573,1.32857,-0.0913215,-0.057308,-1.29285,-0.00104492,-0.0176878,1.37053,-0.104157,-0.0580714,0.000791019,-0.024721,-0.0483263,0.2,0.2,0,1.28,0,0,0,0.2,-0.2,0,1.28,0,0,0,-1.26374,-0.00065462,-0.0169573,1.32857,-0.0913215,-0.057308,-1.29285,-0.00104492,-0.0176878,1.37053,-0.104157,-0.0580714,0.000791019,-0.024721,-0.0483263,0.2,0.2,0,1.28,0,0,0,0.2,-0.2,0,1.28,0,0,0
gen_000005_tz+0.10_tx-0.03_ty-0.02_p-0.05_fx+0.02_fy+0.00,-0.276516,3.4711288,0.555981,0.999781,0.0202629,0.00485859,0.00175012,-1.24897,-0.000629033,-0.0171134,1.30626,-0.0670638,-0.0573278,-1.27824,-0.00102842,-0.0178434,1.34833,-0.0798387,-0.0580901,0.00123902,-0.0245594,-0.0316119,0.2,0.2,0,1.28,0,0,0,0.2,-0.2,0,1.28,0,0,0,-1.24897,-0.000629033,-0.0171134,1.30626,-0.0670638,-0.0573278,-1.27824,-0.00102842,-0.0178434,1.34833,-0.0798387,-0.0580901,0.00123902,-0.0245594,-0.0316119,0.2,0.2,0,1.28,0,0,0,0.2,-0.2,0,1.28,0,0,0
gen_000006_tz+0.10_tx-0.03_ty-0.02_p-0.05_fx+0.03_fy+0.00,-0.275729,3.4711256,0.55601,0.999789,0.0201975,-0.00354059,0.001557,-1.23347,-0.000576957,-0.0172862,1.28314,-0.042649,-0.0573522,-1.2629,-0.000985396,-0.0180163,1.32532,-0.0553794,-0.0581131,0.00169633,-0.0243757,-0.0148308,0.2,0.2,0,1.28,0,0,0,0.2,-0.2,0,1.28,0,0,0,-1.23347,-0.000576957,-0.0172862,1.28314,-0.042649,-0.0573522,-1.2629,-0.000985396,-0.0180163,1.32532,-0.0553794,-0.0581131,0.00169633,-0.0243757,-0.0148308,0.2,0.2,0,1.28,0,0,0,0.2,-0.2,0,1.28,0,0,0
gen_000007_tz+0.10_tx-0.02_ty-0.02_p-0.05_fx-0.03_fy+0.00,-0.271174,3.4711282,0.556033,0.998279,0.0204917,0.0548672,0.00280069,-1.32767,-0.00043773,-0.0163896,1.42819,-0.210325,-0.057262,-1.35584,-0.000780785,-0.01713,1.46975,-0.223696,-0.05803,-0.00133594,-0.0252407,-0.1316,0.2,0.2,0,1.28,0,0,0,0.2,-0.2,0,1.28,0,0,0,-1.32767,-0.00043773,-0.0163896,1.42819,-0.210325,-0.057262,-1.35584,-0.000780785,-0.01713,1.46975,-0.223696,-0.05803,-0.00133594,-0.0252407,-0.1316,0.2,0.2,0,1.28,0,0,0,0.2,-0.2,0,1.28,0,0,0
gen_000008_tz+0.10_tx-0.02_ty-0.02_p-0.05_fx-0.02_fy+0.00,-0.270402,3.4711304,0.555997,0.998704,0.0204695,0.0465331,0.00263822,-1.31612,-0.000526925,-0.0164823,1.40982,-0.186828,-0.0572659,-1.34449,-0.000879869,-0.0172198,1.45145,-0.200064,-0.0580333,-0.000927712,-0.0251687,-0.114923,0.2,0.2,0,1.28,0,0,0,0.2,-0.2,0,1.28,0,0,0,-1.31612,-0.000526925,-0.0164823,1.40982,-0.186828,-0.0572659,-1.34449,-0.000879869,-0.0172198,1.45145,-0.200064,-0.0580333,-0.000927712,-0.0251687,-0.114923,0.2,0.2,0,1.28,0,0,0,0.2,-0.2,0,1.28,0,0,0
gen_000009_tz+0.10_tx-0.02_ty-0.02_p-0.05_fx-0.01_fy+0.00,-0.269629,3.4711317,0.555973,0.999058,0.0204412,0.038212,0.00247155,-1.30398,-0.000595085,-0.0165852,1.39069,-0.163175,-0.0572723,-1.33254,-0.000957681,-0.0173202,1.43238,-0.17629,-0.0580388,-0.000512524,-0.025081,-0.0982781,0.2,0.2,0,1.28,0,0,0,0.2,-0.2,0,1.28,0,0,0,-1.30398,-0.000595085,-0.0165852,1.39069,-0.163175,-0.0572723,-1.33254,-0.000957681,-0.0173202,1.43238,-0.17629,-0.0580388,-0.000512524,-0.025081,-0.0982781,0.2,0.2,0,1.28,0,0,0,0.2,-0.2,0,1.28,0,0,0
gen_000010_tz+0.10_tx-0.02_ty-0.02_p-0.05_fx+0.00_fy+0.00,-0.268855,3.4711324,0.555959,0.999342,0.0204082,0.0298927,0.00229782,-1.29122,-0.000636961,-0.0166949,1.37077,-0.139374,-0.0572807,-1.31997,-0.00100892,-0.0174279,1.41254,-0.15238,-0.0580463,-8.49216e-05,-0.0249803,-0.0816433,0.2,0.2,0,1.28,0,0,0,0.2,-0.2,0,1.28,0,0,0,-1.29122,-0.000636961,-0.0166949,1.37077,-0.139374,-0.0572807,-1.31997,-0.00100892,-0.0174279,1.41254,-0.15238,-0.0580463,-8.49216e-05,-0.0249803,-0.0816433,0.2,0.2,0,1.28,0,0,0,0.2,-0.2,0,1.28,0,0,0
gen_000011_tz+0.10_tx-0.02_ty-0.02_p-0.05_fx+0.01_fy+0.00,-0.268078,3.4711322,0.555956,0.999558,0.0203681,0.0215654,0.00211944,-1.27782,-0.000656524,-0.0168179,1.35007,-0.115424,-0.0572924,-1.30675,-0.00103769,-0.0175494,1.39193,-0.128336,-0.0580569,0.000350202,-0.0248611,-0.0649974,0.2,0.2,0,1.28,0,0,0,0.2,-0.2,0,1.28,0,0,0,-1.27782,-0.000656524,-0.0168179,1.35007,-0.115424,-0.0572924,-1.30675,-0.00103769,-0.0175494,1.39193,-0.128336,-0.0580569,0.000350202,-0.0248611,-0.0649974,0.2,0.2,0,1.28,0,0,0,0.2,-0.2,0,1.28,0,0,0
gen_000012_tz+0.10_tx-0.02_ty-0.02_p-0.05_fx+0.02_fy+0.00,-0.267299,3.471131,0.555963,0.999704,0.0203197,0.0132236,0.00193718,-1.26374,-0.000654616,-0.0169573,1.32857,-0.0913214,-0.057308,-1.29285,-0.00104492,-0.0176878,1.37053,-0.104157,-0.0580714,0.000791019,-0.024721,-0.0483264,0.2,0.2,0,1.28,0,0,0,0.2,-0.2,0,1.28,0,0,0,-1.26374,-0.000654616,-0.0169573,1.32857,-0.0913214,-0.057308,-1.29285,-0.00104492,-0.0176878,1.37053,-0.104157,-0.0580714,0.000791019,-0.024721,-0.0483264,0.2,0.2,0,1.28,0,0,0,0.2,-0.2,0,1.28,0,0,0
gen_000013_tz+0.10_tx-0.02_ty-0.02_p-0.05_fx+0.03_fy+0.00,-0.266516,3.4711288,0.555981,0.999781,0.0202629,0.00485864,0.00175011,-1.24897,-0.000629028,-0.0171134,1.30626,-0.0670637,-0.0573278,-1.27824,-0.00102842,-0.0178434,1.34833,-0.0798387,-0.0580901,0.00123903,-0.0245594,-0.0316121,0.2,0.2,0,1.28,0,0,0,0.2,-0.2,0,1.28,0,0,0,-1.24897,-0.000629028,-0.0171134,1.30626,-0.0670637,-0.0573278,-1.27824,-0.00102842,-0.0178434,1.34833,-0.0798387,-0.0580901,0.00123903,-0.0245594,-0.0316121,0.2,0.2,0,1.28,0,0,0,0.2,-0.2,0,1.28,0,0,0
gen_000014_tz+0.10_tx-0.01_ty-0.02_p-0.05_fx-0.03_fy+0.00,-0.261946,3.4711251,0.55608,0.997785,0.020507,0.063219,0.00296109,-1.33865,-0.000331651,-0.0163096,1.44578,-0.233666,-0.0572606,-1.36661,-0.000664611,-0.0170531,1.48729,-0.247189,-0.0580294,-0.00174113,-0.0252953,-0.148321,0.2,0.2,0,1.28,0,0,0,0.2,-0.2,0,1.28,0,0,0,-1.33865,-0.000331651,-0.0163096,1.44578,-0.233666,-0.0572606,-1.36661,-0.000664611,-0.0170531,1.48729,-0.247189,-0.0580294,-0.00174113,-0.0252953,-0.148321,0.2,0.2,0,1.28,0,0,0,0.2,-0.2,0,1.28,0,0,0
gen_000015_tz+0.10_tx-0.01_ty-0.02_p-0.05_fx-0.02_fy+0.00,-0.261174,3.4711282,0.556033,0.998279,0.0204917,0.0548673,0.00280069,-1.32767,-0.000437753,-0.0163896,1.42819,-0.210325,-0.0572619,-1.35584,-0.000780806,-0.0171299,1.46975,-0.223696,-0.05803,-0.00133596,-0.0252408,-0.1316,0.2,0.2,0,1.28,0,0,0,0.2,-0.2,0,1.28,0,0,0,-1.32767,-0.000437753,-0.0163896,1.42819,-0.210325,-0.0572619,-1.35584,-0.000780806,-0.0171299,1.46975,-0.223696,-0.05803,-0.00133596,-0.0252408,-0.1316,0.2,0.2,0,1.28,0,0,0,0.2,-0.2,0,1.28,0,0,0
gen_000016_tz+0.10_tx-0.01_ty-0.02_p-0.05_fx-0.01_fy+0.00,-0.260402,3.4711304,0.555997,0.998704,0.0204695,0.0465333,0.00263823,-1.31612,-0.000526948,-0.0164823,1.40982,-0.186828,-0.0572659,-1.34449,-0.000879891,-0.0172197,1.45145,-0.200063,-0.0580332,-0.000927736,-0.0251687,-0.114923,0.2,0.2,0,1.28,0,0,0,0.2,-0.2,0,1.28,0,0,0,-1.31612,-0.000526948,-0.0164823,1.40982,-0.186828,-0.0572659,-1.34449,-0.000879891,-0.0172197,1.45145,-0.200063,-0.0580332,-0.000927736,-0.0251687,-0.114923,0.2,0.2,0,1.28,0,0,0,0.2,-0.2,0,1.28,0,0,0
gen_000017_tz+0.10_tx-0.01_ty-0.02_p-0.05_fx+0.00_fy+0.00,-0.259629,3.4711317,0.555973,0.999057,0.0204412,0.0382121,0.00247156,-1.30398,-0.000595098,-0.0165852,1.39069,-0.163175,-0.0572723,-1.33254,-0.000957694,-0.0173201,1.43238,-0.17629,-0.0580388,-0.00051254,-0.025081,-0.0982784,0.2,0.2,0,1.28,0,0,0,0.2,-0.2,0,1.28,0,0,0,-1.30398,-0.000595098,-0.0165852,1.39069,-0.163175,-0.0572723,-1.33254,-0.000957694,-0.0173201,1.43238,-0.17629,-0.0580388,-0.00051254,-0.025081,-0.0982784,0.2,0.2,0,1.28,0,0,0,0.2,-0.2,0,1.28,0,0,0
gen_000018_tz+0.10_tx-0.01_ty-0.02_p-0.05_fx+0.01_fy+0.00,-0.258855,3.4711324,0.555959,0.999342,0.0204082,0.0298928,0.00229782,-1.29122,-0.00063696,-0.0166949,1.37077,-0.139374,-0.0572807,-1.31997,-0.00100892,-0.0174279,1.41254,-0.15238,-0.0580463,-8.49253e-05,-0.0249803,-0.0816436,0.2,0.2,0,1.28,0,0,0,0.2,-0.2,0,1.28,0,0,0,-1.29122,-0.00063696,-0.0166949,1.37077,-0.139374,-0.0572807,-1.31997,-0.00100892,-0.0174279,1.41254,-0.15238,-0.0580463,-8.49253e-05,-0.0249803,-0.0816436,0.2,0.2,0,1.28,0,0,0,0.2,-0.2,0,1.28,0,0,0
gen_000019_tz+0.10_tx-0.01_ty-0.02_p-0.05_fx+0.02_fy+0.00,-0.258078,3.4711322,0.555956,0.999558,0.0203681,0.0215655,0.00211944,-1.27782,-0.000656517,-0.0168179,1.35007,-0.115424,-0.0572924,-1.30675,-0.00103769,-0.0175494,1.39193,-0.128336,-0.0580569,0.000350204,-0.0248611,-0.0649975,0.2,0.2,0,1.28,0,0,0,0.2,-0.2,0,1.28,0,0,0,-1.27782,-0.000656517,-0.0168179,1.35007,-0.115424,-0.0572924,-1.30675,-0.00103769,-0.0175494,1.39193,-0.128336,-0.0580569,0.000350204,-0.0248611,-0.0649975,0.2,0.2,0,1.28,0,0,0,0.2,-0.2,0,1.28,0,0,0
gen_000020_tz+0.10_tx-0.01_ty-0.02_p-0.05_fx+0.03_fy+0.00,-0.257299,3.471131,0.555963,0.999704,0.0203197,0.0132236,0.00193718,-1.26374,-0.000654607,-0.0169573,1.32857,-0.0913214,-0.057308,-1.29285,-0.00104491,-0.0176878,1.37053,-0.104157,-0.0580714,0.000791022,-0.024721,-0.0483266,0.2,0.2,0,1.28,0,0,0,0.2,-0.2,0,1.28,0,0,0,-1.26374,-0.000654607,-0.0169573,1.32857,-0.0913214,-0.057308,-1.29285,-0.00104491,-0.0176878,1.37053,-0.104157,-0.0580714,0.000791022,-0.024721,-0.0483266,0.2,0.2,0,1.28,0,0,0,0.2,-0.2,0,1.28,0,0,0
gen_000021_tz+0.10_tx+0.00_ty-0.02_p-0.05_fx-0.03_fy+0.00,-0.252719,3.4711211,0.556139,0.997218,0.0205154,0.0715918,0.00311999,-1.34907,-0.000209983,-0.016242,1.46262,-0.256849,-0.0572618,-1.37683,-0.000532623,-0.0169888,1.50408,-0.270542,-0.0580311,-0.00214407,-0.0253324,-0.165094,0.2,0.2,0,1.28,0,0,0,0.2,-0.2,0,1.28,0,0,0,-1.34907,-0.000209983,-0.016242,1.46262,-0.256849,-0.0572618,-1.37683,-0.000532623,-0.0169888,1.50408,-0.270542,-0.0580311,-0.00214407,-0.0253324,-0.165094,0.2,0.2,0,1.28,0,0,0,0.2,-0.2,0,1.28,0,0,0
gen_000022_tz+0.10_tx+0.00_ty-0.02_p-0.05_fx-0.02_fy+0.00,-0.251946,3.4711251,0.55608,0.997785,0.020507,0.0632191,0.0029611,-1.33865,-0.000331666,-0.0163096,1.44578,-0.233666,-0.0572606,-1.36661,-0.000664625,-0.0170531,1.48729,-0.247189,-0.0580294,-0.00174115,-0.0252953,-0.148322,0.2,0.2,0,1.28,0,0,0,0.2,-0.2,0,1.28,0,0,0,-1.33865,-0.000331666,-0.0163096,1.44578,-0.233666,-0.0572606,-1.36661,-0.000664625,-0.0170531,1.48729,-0.247189,-0.0580294,-0.00174115,-0.0252953,-0.148322,0.2,0.2,0,1.28,0,0,0,0.2,-0.2,0,1.28,0,0,0
gen_000023_tz+0.10_tx+0.00_ty-0.02_p-0.05_fx-0.01_fy+0.00,-0.251174,3.4711282,0.556033,0.998279,0.0204917,0.0548674,0.0028007,-1.32767,-0.000437766,-0.0163895,1.42819,-0.210325,-0.0572619,-1.35584,-0.000780819,-0.0171299,1.46975,-0.223696,-0.05803,-0.00133598,-0.0252408,-0.131601,0.2,0.2,0,1.28,0,0,0,0.2,-0.2,0,1.28,0,0,0,-1.32767,-0.000437766,-0.0163895,1.42819,-0.210325,-0.0572619,-1.35584,-0.000780819,-0.0171299,1.46975,-0.223696,-0.05803,-0.00133598,-0.0252408,-0.131601,0.2,0.2,0,1.28,0,0,0,0.2,-0.2,0,1.28,0,0,0
gen_000024_tz+0.10_tx+0.00_ty-0.02_p-0.05_fx+0.00_fy+0.00,-0.250402,3.4711304,0.555997,0.998704,0.0204695,0.0465334,0.00263824,-1.31612,-0.000526955,-0.0164823,1.40982,-0.186828,-0.0572659,-1.34449,-0.000879897,-0.0172197,1.45145,-0.200063,-0.0580332,-0.000927747,-0.0251687,-0.114923,0.2,0.2,0,1.28,0,0,0,0.2,-0.2,0,1.28,0,0,0,-1.31612,-0.000526955,-0.0164823,1.40982,-0.186828,-0.0572659,-1.34449,-0.000879897,-0.0172197,1.45145,-0.200063,-0.0580332,-0.000927747,-0.0251687,-0.114923,0.2,0.2,0,1.28,0,0,0,0.2,-0.2,0,1.28,0,0,0
gen_000025_tz+0.10_tx+0.00_ty-0.02_p-0.05_fx+0.01_fy+0.00,-0.249629,3.4711317,0.555973,0.999057,0.0204412,0.0382123,0.00247156,-1.30398,-0.000595091,-0.0165852,1.39069,-0.163175,-0.0572723,-1.33254,-0.000957687,-0.0173201,1.43238,-0.17629,-0.0580388,-0.000512541,-0.025081,-0.0982787,0.2,0.2,0,1.28,0,0,0,0.2,-0.2,0,1.28,0,0,0,-1.30398,-0.000595091,-0.0165852,1.39069,-0.163175,-0.0572723,-1.33254,-0.000957687,-0.0173201,1.43238,-0.17629,-0.0580388,-0.000512541,-0.025081,-0.0982787,0.2,0.2,0,1.28,0,0,0,0.2,-0.2,0,1.28,0,0,0
gen_000026_tz+0.10_tx+0.00_ty-0.02_p-0.05_fx+0.02_fy+0.00,-0.248855,3.4711324,0.555959,0.999342,0.0204082,0.0298929,0.00229782,-1.29122,-0.000636944,-0.0166949,1.37077,-0.139374,-0.0572807,-1.31997,-0.0010089,-0.0174279,1.41254,-0.152379,-0.0580463,-8.49186e-05,-0.0249802,-0.0816438,0.2,0.2,0,1.28,0,0,0,0.2,-0.2,0,1.28,0,0,0,-1.29122,-0.000636944,-0.0166949,1.37077,-0.139374,-0.0572807,-1.31997,-0.0010089,-0.0174279,1.41254,-0.152379,-0.0580463,-8.49186e-05,-0.0249802,-0.0816438,0.2,0.2,0,1.28,0,0,0,0.2,-0.2,0,1.28,0,0,0
gen_000027_tz+0.10_tx+0.00_ty-0.02_p-0.05_fx+0.03_fy+0.00,-0.248078,3.4711322,0.555956,0.999558,0.0203681,0.0215655,0.00211943,-1.27782,-0.000656502,-0.0168179,1.35007,-0.115424,-0.0572924,-1.30675,-0.00103767,-0.0175495,1.39193,-0.128336,-0.0580569,0.00035021,-0.0248611,-0.0649977,0.2,0.2,0,1.28,0,0,0,0.2,-0.2,0,1.28,0,0,0,-1.27782,-0.000656502,-0.0168179,1.35007,-0.115424,-0.0572924,-1.30675,-0.00103767,-0.0175495,1.39193,-0.128336,-0.0580569,0.00035021,-0.0248611,-0.0649977,0.2,0.2,0,1.28,0,0,0,0.2,-0.2,0,1.28,0,0,0
gen_000028_tz+0.10_tx+0.01_ty-0.02_p-0.05_fx-0.03_fy+0.00,-0.243492,3.4711162,0.556209,0.996579,0.0205174,0.0799902,0.00327718,-1.35897,-7.25878e-05,-0.016185,1.47869,-0.279872,-0.057265,-1.38649,-0.000384637,-0.0169352,1.52012,-0.29375,-0.0580348,-0.00254414,-0.0253534,-0.181929,0.2,0.2,0,1.28,0,0,0,0.2,-0.2,0,1.28,0,0,0,-1.35897,-7.25878e-05,-0.016185,1.47869,-0.279872,-0.057265,-1.38649,-0.000384637,-0.0169352,1.52012,-0.29375,-0.0580348,-0.00254414,-0.0253534,-0.181929,0.2,0.2,0,1.28,0,0,0,0.2,-0.2,0,1.28,0,0,0
gen_000029_tz+0.10_tx+0.01_ty-0.02_p-0.05_fx-0.02_fy+0.00,-0.242719,3.4711211,0.556139,0.997218,0.0205154,0.0715919,0.00311999,-1.34907,-0.000209993,-0.016242,1.46262,-0.256849,-0.0572617,-1.37683,-0.000532632,-0.0169887,1.50408,-0.270542,-0.0580311,-0.00214408,-0.0253325,-0.165094,0.2,0.2,0,1.28,0,0,0,0.2,-0.2,0,1.28,0,0,0,-1.34907,-0.000209993,-0.016242,1.46262,-0.256849,-0.0572617,-1.37683,-0.000532632,-0.0169887,1.50408,-0.270542,-0.0580311,-0.00214408,-0.0253325,-0.165094,0.2,0.2,0,1.28,0,0,0,0.2,-0.2,0,1.28,0,0,0
gen_000030_tz+0.10_tx+0.01_ty-0.02_p-0.05_fx-0.01_fy+0.00,-0.241946,3.4711251,0.55608,0.997785,0.020507,0.0632192,0.0029611,-1.33865,-0.000331672,-0.0163096,1.44578,-0.233665,-0.0572606,-1.36661,-0.000664632,-0.017053,1.48729,-0.247189,-0.0580293,-0.00174116,-0.0252953,-0.148322,0.2,0.2,0,1.28,0,0,0,0.2,-0.2,0,1.28,0,0,0,-1.33865,-0.000331672,-0.0163096,1.44578,-0.233665,-0.0572606,-1.36661,-0.000664632,-0.017053,1.48729,-0.247189,-0.0580293,-0.00174116,-0.0252953,-0.148322,0.2,0.2,0,1.28,0,0,0,0.2,-0.2,0,1.28,0,0,0
gen_000031_tz+0.10_tx+0.01_ty-0.02_p-0.05_fx+0.00_fy+0.00,-0.241174,3.4711282,0.556033,0.998279,0.0204917,0.0548675,0.0028007,-1.32767,-0.000437766,-0.0163895,1.42819,-0.210325,-0.0572619,-1.35584,-0.000780819,-0.0171299,1.46975,-0.223696,-0.05803,-0.00133598,-0.0252408,-0.131601,0.2,0.2,0,1.28,0,0,0,0.2,-0.2,0,1.28,0,0,0,-1.32767,-0.000437766,-0.0163895,1.42819,-0.210325,-0.0572619,-1.35584,-0.000780819,-0.0171299,1.46975,-0.223696,-0.05803,-0.00133598,-0.0252408,-0.131601,0.2,0.2,0,1.28,0,0,0,0.2,-0.2,0,1.28,0,0,0
gen_000032_tz+0.10_tx+0.01_ty-0.02_p-0.05_fx+0.01_fy+0.00,-0.240402,3.4711304,0.555997,0.998703,0.0204695,0.0465335,0.00263823,-1.31612,-0.000526941,-0.0164823,1.40982,-0.186827,-0.0572659,-1.34449,-0.000879884,-0.0172197,1.45145,-0.200063,-0.0580332,-0.000927742,-0.0251687,-0.114923,0.2,0.2,0,1.28,0,0,0,0.2,-0.2,0,1.28,0,0,0,-1.31612,-0.000526941,-0.0164823,1.40982,-0.186827,-0.0572659,-1.34449,-0.000879884,-0.0172197,1.45145,-0.200063,-0.0580332,-0.000927742,-0.0251687,-0.114923,0.2,0.2,0,1.28,0,0,0,0.2,-0.2,0,1.28,0,0,0
gen_000033_tz+0.10_tx+0.01_ty-0.02_p-0.05_fx+0.02_fy+0.00,-0.239629,3.4711317,0.555973,0.999057,0.0204412,0.0382124,0.00247155,-1.30398,-0.000595063,-0.0165853,1.39069,-0.163175,-0.0572723,-1.33254,-0.00095766,-0.0173202,1.43238,-0.17629,-0.0580388,-0.000512527,-0.025081,-0.0982789,0.2,0.2,0,1.28,0,0,0,0.2,-0.2,0,1.28,0,0,0,-1.30398,-0.000595063,-0.0165853,1.39069,-0.163175,-0.0572723,-1.33254,-0.00095766,-0.0173202,1.43238,-0.17629,-0.0580388,-0.000512527,-0.025081,-0.0982789,0.2,0.2,0,1.28,0,0,0,0.2,-0.2,0,1.28,0,0,0
gen_000034_tz+0.10_tx+0.01_ty-0.02_p-0.05_fx+0.03_fy+0.00,-0.238855,3.4711324,0.555959,0.999342,0.0204082,0.0298931,0.00229781,-1.29122,-0.000636918,-0.016695,1.37077,-0.139374,-0.0572807,-1.31997,-0.00100888,-0.017428,1.41254,-0.152379,-0.0580463,-8.49057e-05,-0.0249802,-0.081644,0.2,0.2,0,1.28,0,0,0,0.2,-0.2,0,1.28,0,0,0,-1.29122,-0.000636918,-0.016695,1.37077,-0.139374,-0.0572807,-1.31997,-0.00100888,-0.017428,1.41254,-0.152379,-0.0580463,-8.49057e-05,-0.0249802,-0.081644,0.2,0.2,0,1.28,0,0,0,0.2,-0.2,0,1.28,0,0,0
gen_000035_tz+0.10_tx+0.02_ty-0.02_p-0.05_fx-0.03_fy+0.00,-0.234266,3.4711105,0.556291,0.995866,0.0205131,0.0884167,0.0034332,-1.36834,7.9302e-05,-0.0161383,1.49402,-0.302733,-0.0572703,-1.39563,-0.00022187,-0.0168922,1.53541,-0.316812,-0.0580404,-0.00294215,-0.0253581,-0.198833,0.2,0.2,0,1.28,0,0,0,0.2,-0.2,0,1.28,0,0,0,-1.36834,7.9302e-05,-0.0161383,1.49402,-0.302733,-0.0572703,-1.39563,-0.00022187,-0.0168922,1.53541,-0.316812,-0.0580404,-0.00294215,-0.0253581,-0.198833,0.2,0.2,0,1.28,0,0,0,0.2,-0.2,0,1.28,0,0,0
gen_000036_tz+0.10_tx+0.02_ty-0.02_p-0.05_fx-0.02_fy+0.00,-0.233492,3.4711162,0.556209,0.996579,0.0205174,0.0799903,0.00327718,-1.35897,-7.25934e-05,-0.016185,1.47869,-0.279872,-0.057265,-1.38649,-0.000384642,-0.0169352,1.52012,-0.29375,-0.0580348,-0.00254415,-0.0253534,-0.18193,0.2,0.2,0,1.28,0,0,0,0.2,-0.2,0,1.28,0,0,0,-1.35897,-7.25934e-05,-0.016185,1.47869,-0.279872,-0.057265,-1.38649,-0.000384642,-0.0169352,1.52012,-0.29375,-0.0580348,-0.00254415,-0.0253534,-0.18193,0.2,0.2,0,1.28,0,0,0,0.2,-0.2,0,1.28,0,0,0
gen_000037_tz+0.10_tx+0.02_ty-0.02_p-0.05_fx-0.01_fy+0.00,-0.232719,3.4711211,0.556139,0.997218,0.0205154,0.0715919,0.00312,-1.34907,-0.000209995,-0.016242,1.46262,-0.256849,-0.0572617,-1.37683,-0.000532634,-0.0169887,1.50408,-0.270542,-0.0580311,-0.00214409,-0.0253325,-0.165095,0.2,0.2,0,1.28,0,0,0,0.2,-0.2,0,1.28,0,0,0,-1.34907,-0.000209995,-0.016242,1.46262,-0.256849,-0.0572617,-1.37683,-0.000532634,-0.0169887,1.50408,-0.270542,-0.0580311,-0.00214409,-0.0253325,-0.165095,0.2,0.2,0,1.28,0,0,0,0.2,-0.2,0,1.28,0,0,0
gen_000038_tz+0.10_tx+0.02_ty-0.02_p-0.05_fx+0.00_fy+0.00,-0.231946,3.4711251,0.55608,0.997785,0.020507,0.0632193,0.0029611,-1.33865,-0.000331668,-0.0163096,1.44578,-0.233665,-0.0572606,-1.36661,-0.000664628,-0.017053,1.48729,-0.247189,-0.0580293,-0.00174116,-0.0252953,-0.148322,0.2,0.2,0,1.28,0,0,0,0.2,-0.2,0,1.28,0,0,0,-1.33865,-0.000331668,-0.0163096,1.44578,-0.233665,-0.0572606,-1.36661,-0.000664628,-0.017053,1.48729,-0.247189,-0.0580293,-0.00174116,-0.0252953,-0.148322,0.2,0.2,0,1.28,0,0,0,0.2,-0.2,0,1.28,0,0,0
gen_000039_tz+0.10_tx+0.02_ty-0.02_p-0.05_fx+0.01_fy+0.00,-0.231174,3.4711282,0.556033,0.998279,0.0204917,0.0548676,0.0028007,-1.32767,-0.000437751,-0.0163896,1.42819,-0.210325,-0.0572619,-1.35584,-0.000780804,-0.0171299,1.46975,-0.223696,-0.05803,-0.00133598,-0.0252408,-0.131601,0.2,0.2,0,1.28,0,0,0,0.2,-0.2,0,1.28,0,0,0,-1.32767,-0.000437751,-0.0163896,1.42819,-0.210325,-0.0572619,-1.35584,-0.000780804,-0.0171299,1.46975,-0.223696,-0.05803,-0.00133598,-0.0252408,-0.131601,0.2,0.2,0,1.28,0,0,0,0.2,-0.2,0,1.28,0,0,0
gen_000040_tz+0.10_tx+0.02_ty-0.02_p-0.05_fx+0.02_fy+0.00,-0.230402,3.4711304,0.555997,0.998703,0.0204695,0.0465337,0.00263823,-1.31612,-0.000526911,-0.0164824,1.40982,-0.186827,-0.0572659,-1.34449,-0.000879855,-0.0172198,1.45145,-0.200063,-0.0580333,-0.000927725,-0.0251687,-0.114924,0.2,0.2,0,1.28,0,0,0,0.2,-0.2,0,1.28,0,0,0,-1.31612,-0.000526911,-0.0164824,1.40982,-0.186827,-0.0572659,-1.34449,-0.000879855,-0.0172198,1.45145,-0.200063,-0.0580333,-0.000927725,-0.0251687,-0.114924,0.2,0.2,0,1.28,0,0,0,0.2,-0.2,0,1.28,0,0,0
gen_000041_tz+0.10_tx+0.02_ty-0.02_p-0.05_fx+0.03_fy+0.00,-0.229629,3.4711317,0.555973,0.999057,0.0204412,0.0382125,0.00247155,-1.30398,-0.000595024,-0.0165854,1.39069,-0.163175,-0.0572723,-1.33254,-0.000957623,-0.0173203,1.43238,-0.17629,-0.0580388,-0.000512505,-0.0250809,-0.0982792,0.2,0.2,0,1.28,0,0,0,0.2,-0.2,0,1.28,0,0,0,-1.30398,-0.000595024,-0.0165854,1.39069,-0.163175,-0.0572723,-1.33254,-0.000957623,-0.0173203,1.43238,-0.17629,-0.0580388,-0.000512505,-0.0250809,-0.0982792,0.2,0.2,0,1.28,0,0,0,0.2,-0.2,0,1.28,0,0,0
gen_000042_tz+0.10_tx+0.03_ty-0.02_p-0.05_fx-0.03_fy+0.00,-0.225041,3.471104,0.556385,0.995079,0.0205027,0.0968748,0.00358808,-1.3772,0.000245487,-0.0161009,1.50859,-0.325426,-0.0572773,-1.40425,-4.44926e-05,-0.0168584,1.54995,-0.339722,-0.0580477,-0.00333791,-0.0253472,-0.215813,0.2,0.2,0,1.28,0,0,0,0.2,-0.2,0,1.28,0,0,0,-1.3772,0.000245487,-0.0161009,1.50859,-0.325426,-0.0572773,-1.40425,-4.44926e-05,-0.0168584,1.54995,-0.339722,-0.0580477,-0.00333791,-0.0253472,-0.215813,0.2,0.2,0,1.28,0,0,0,0.2,-0.2,0,1.28,0,0,0
gen_000043_tz+0.10_tx+0.03_ty-0.02_p-0.05_fx-0.02_fy+0.00,-0.224266,3.4711105,0.556291,0.995866,0.0205131,0.0884168,0.0034332,-1.36834,7.92992e-05,-0.0161383,1.49402,-0.302733,-0.0572703,-1.39563,-0.000221873,-0.0168922,1.53541,-0.316812,-0.0580404,-0.00294216,-0.0253581,-0.198833,0.2,0.2,0,1.28,0,0,0,0.2,-0.2,0,1.28,0,0,0,-1.36834,7.92992e-05,-0.0161383,1.49402,-0.302733,-0.0572703,-1.39563,-0.000221873,-0.0168922,1.53541,-0.316812,-0.0580404,-0.00294216,-0.0253581,-0.198833,0.2,0.2,0,1.28,0,0,0,0.2,-0.2,0,1.28,0,0,0
gen_000044_tz+0.10_tx+0.03_ty-0.02_p-0.05_fx-0.01_fy+0.00,-0.223492,3.4711162,0.556209,0.996579,0.0205174,0.0799903,0.00327718,-1.35897,-7.25928e-05,-0.016185,1.47869,-0.279872,-0.057265,-1.38649,-0.000384642,-0.0169352,1.52012,-0.29375,-0.0580348,-0.00254415,-0.0253534,-0.18193,0.2,0.2,0,1.28,0,0,0,0.2,-0.2,0,1.28,0,0,0,-1.35897,-7.25928e-05,-0.016185,1.47869,-0.279872,-0.057265,-1.38649,-0.000384642,-0.0169352,1.52012,-0.29375,-0.0580348,-0.00254415,-0.0253534,-0.18193,0.2,0.2,0,1.28,0,0,0,0.2,-0.2,0,1.28,0,0,0
gen_000045_tz+0.10_tx+0.03_ty-0.02_p-0.05_fx+0.00_fy+0.00,-0.222719,3.4711211,0.556139,0.997218,0.0205154,0.071592,0.00311999,-1.34907,-0.000209989,-0.016242,1.46262,-0.256849,-0.0572618,-1.37683,-0.000532628,-0.0169887,1.50408,-0.270542,-0.0580311,-0.00214408,-0.0253325,-0.165095,0.2,0.2,0,1.28,0,0,0,0.2,-0.2,0,1.28,0,0,0,-1.34907,-0.000209989,-0.016242,1.46262,-0.256849,-0.0572618,-1.37683,-0.000532628,-0.0169887,1.50408,-0.270542,-0.0580311,-0.00214408,-0.0253325,-0.165095,0.2,0.2,0,1.28,0,0,0,0.2,-0.2,0,1.28,0,0,0
gen_000046_tz+0.10_tx+0.03_ty-0.02_p-0.05_fx+0.01_fy+0.00,-0.221946,3.4711251,0.55608,0.997785,0.020507,0.0632193,0.0029611,-1.33865,-0.000331654,-0.0163096,1.44578,-0.233665,-0.0572606,-1.36661,-0.000664614,-0.0170531,1.48729,-0.247189,-0.0580294,-0.00174115,-0.0252953,-0.148322,0.2,0.2,0,1.28,0,0,0,0.2,-0.2,0,1.28,0,0,0,-1.33865,-0.000331654,-0.0163096,1.44578,-0.233665,-0.0572606,-1.36661,-0.000664614,-0.0170531,1.48729,-0.247189,-0.0580294,-0.00174115,-0.0252953,-0.148322,0.2,0.2,0,1.28,0,0,0,0.2,-0.2,0,1.28,0,0,0
gen_000047_tz+0.10_tx+0.03_ty-0.02_p-0.05_fx+0.02_fy+0.00,-0.221174,3.4711282,0.556033,0.998279,0.0204917,0.0548677,0.00280069,-1.32767,-0.000437725,-0.0163896,1.42819,-0.210325,-0.057262,-1.35584,-0.00078078,-0.01713,1.46975,-0.223696,-0.05803,-0.00133596,-0.0252407,-0.131601,0.2,0.2,0,1.28,0,0,0,0.2,-0.2,0,1.28,0,0,0,-1.32767,-0.000437725,-0.0163896,1.42819,-0.210325,-0.057262,-1.35584,-0.00078078,-0.01713,1.46975,-0.223696,-0.05803,-0.00133596,-0.0252407,-0.131601,0.2,0.2,0,1.28,0,0,0,0.2,-0.2,0,1.28,0,0,0
gen_000048_tz+0.10_tx+0.03_ty-0.02_p-0.05_fx+0.03_fy+0.00,-0.220402,3.4711303,0.555997,0.998703,0.0204694,0.0465338,0.00263822,-1.31612,-0.000526873,-0.0164825,1.40982,-0.186827,-0.057266,-1.34449,-0.000879819,-0.0172199,1.45145,-0.200063,-0.0580333,-0.000927702,-0.0251686,-0.114924,0.2,0.2,0,1.28,0,0,0,0.2,-0.2,0,1.28,0,0,0,-1.31612,-0.000526873,-0.0164825,1.40982,-0.186827,-0.057266,-1.34449,-0.000879819,-0.0172199,1.45145,-0.200063,-0.0580333,-0.000927702,-0.0251686,-0.114924,0.2,0.2,0,1.28,0,0,0,0.2,-0.2,0,1.28,0,0,0
gen_000049_tz+0.10_tx-0.03_ty-0.01_p-0.05_fx-0.03_fy+0.00,-0.2804,3.4804961,0.555978,0.998823,0.0135,0.046506,0.00267189,-1.32229,-0.00208784,-0.0121525,1.41825,-0.188988,-0.0388424,-1.34083,-0.00225988,-0.0124399,1.44691,-0.199098,-0.0391747,-0.000351506,-0.011256,-0.114886,0.2,0.2,0,1.28,0,0,0,0.2,-0.2,0,1.28,0,0,0,-1.32229,-0.00208784,-0.0121525,1.41825,-0.188988,-0.0388424,-1.34083,-0.00225988,-0.0124399,1.44691,-0.199098,-0.0391747,-0.000351506,-0.011256,-0.114886,0.2,0.2,0,1.28,0,0,0,0.2,-0.2,0,1.28,0,0,0
gen_000050_tz+0.10_tx-0.03_ty-0.01_p-0.05_fx-0.02_fy+0.00,-0.279627,3.4804971,0.555954,0.999176,0.0134783,0.0381901,0.00255312,-1.31021,-0.00211944,-0.0122301,1.39913,-0.165311,-0.0388448,-1.32888,-0.00229618,-0.0125163,1.42784,-0.175328,-0.0391767,-0.000148427,-0.0111738,-0.0982581,0.2,0.2,0,1.28,0,0,0,0.2,-0.2,0,1.28,0,0,0,-1.31021,-0.00211944,-0.0122301,1.39913,-0.165311,-0.0388448,-1.32888,-0.00229618,-0.0125163,1.42784,-0.175328,-0.0391767,-0.000148427,-0.0111738,-0.0982581,0.2,0.2,0,1.28,0,0,0,0.2,-0.2,0,1.28,0,0,0
gen_000051_tz+0.10_tx-0.03_ty-0.01_p-0.05_fx-0.01_fy+0.00,-0.278854,3.4804981,0.55594,0.99946,0.0134588,0.0298755,0.0024224,-1.29749,-0.00212012,-0.0122983,1.37922,-0.141493,-0.0388463,-1.31632,-0.00230125,-0.0125839,1.40799,-0.151417,-0.0391778,7.65902e-05,-0.0110953,-0.0816384,0.2,0.2,0,1.28,0,0,0,0.2,-0.2,0,1.28,0,0,0,-1.29749,-0.00212012,-0.0122983,1.37922,-0.141493,-0.0388463,-1.31632,-0.00230125,-0.0125839,1.40799,-0.151417,-0.0391778,7.65902e-05,-0.0110953,-0.0816384,0.2,0.2,0,1.28,0,0,0,0.2,-0.2,0,1.28,0,0,0
gen_000052_tz+0.10_tx-0.03_ty-0.01_p-0.05_fx+0.00_fy+0.00,-0.278078,3.4804984,0.555937,0.999675,0.0134333,0.0215486,0.00229111,-1.28412,-0.00210992,-0.0123801,1.35854,-0.117532,-0.0388506,-1.30309,-0.00229544,-0.0126653,1.38737,-0.127376,-0.0391816,0.000301248,-0.0110028,-0.0649993,0.2,0.2,0,1.28,0,0,0,0.2,-0.2,0,1.28,0,0,0,-1.28412,-0.00210992,-0.0123801,1.35854,-0.117532,-0.0388506,-1.30309,-0.00229544,-0.0126653,1.38737,-0.127376,-0.0391816,0.000301248,-0.0110028,-0.0649993,0.2,0.2,0,1.28,0,0,0,0.2,-0.2,0,1.28,0,0,0
gen_000053_tz+0.10_tx-0.03_ty-0.01_p-0.05_fx+0.01_fy+0.00,-0.277299,3.4804979,0.555945,0.999821,0.013402,0.0132101,0.00215847,-1.27008,-0.00208701,-0.0124744,1.33707,-0.0934191,-0.0388575,-1.28919,-0.00227691,-0.0127594,1.36596,-0.103197,-0.039188,0.000526779,-0.0108969,-0.0483407,0.2,0.2,0,1.28,0,0,0,0.2,-0.2,0,1.28,0,0,0,-1.27008,-0.00208701,-0.0124744,1.33707,-0.0934191,-0.0388575,-1.28919,-0.00227691,-0.0127594,1.36596,-0.103197,-0.039188,0.000526779,-0.0108969,-0.0483407,0.2,0.2,0,1.28,0,0,0,0.2,-0.2,0,1.28,0,0,0
gen_000054_tz+0.10_tx-0.03_ty-0.01_p-0.05_fx+0.02_fy+0.00,-0.276517,3.4804969,0.555963,0.999897,0.0133658,0.0048479,0.00202226,-1.25535,-0.00204713,-0.012579,1.31478,-0.0691552,-0.038867,-1.27458,-0.00224137,-0.0128639,1.34376,-0.0788783,-0.0391969,0.000757256,-0.0107793,-0.0316378,0.2,0.2,0,1.28,0,0,0,0.2,-0.2,0,1.28,0,0,0,-1.25535,-0.00204713,-0.012579,1.31478,-0.0691552,-0.038867,-1.27458,-0.00224137,-0.0128639,1.34376,-0.0788783,-0.0391969,0.000757256,-0.0107793,-0.0316378,0.2,0.2,0,1.28,0,0,0,0.2,-0.2,0,1.28,0,0,0
gen_000055_tz+0.10_tx-0.03_ty-0.01_p-0.05_fx+0.03_fy+0.00,-0.27573,3.4804951,0.555992,0.999903,0.0133243,-0.0035469,0.00188219,-1.23988,-0.00198932,-0.0126946,1.29168,-0.0447362,-0.0388792,-1.25925,-0.00218789,-0.0129799,1.32074,-0.0544156,-0.0392086,0.000992941,-0.0106488,-0.0148714,0.2,0.2,0,1.28,0,0,0,0.2,-0.2,0,1.28,0,0,0,-1.23988,-0.00198932,-0.0126946,1.29168,-0.0447362,-0.0388792,-1.25925,-0.00218789,-0.0129799,1.32074,-0.0544156,-0.0392086,0.000992941,-0.0106488,-0.0148714,0.2,0.2,0,1.28,0,0,0,0.2,-0.2,0,1.28,0,0,0
gen_000056_tz+0.10_tx-0.02_ty-0.01_p-0.05_fx-0.03_fy+0.00,-0.271172,3.4804944,0.556014,0.9984,0.0135165,0.0548414,0.00279067,-1.33381,-0.00204651,-0.0120864,1.4366,-0.212505,-0.038842,-1.35219,-0.00221382,-0.012375,1.46522,-0.222721,-0.0391747,-0.000555756,-0.0113263,-0.131561,0.2,0.2,0,1.28,0,0,0,0.2,-0.2,0,1.28,0,0,0,-1.33381,-0.00204651,-0.0120864,1.4366,-0.212505,-0.038842,-1.35219,-0.00221382,-0.012375,1.46522,-0.222721,-0.0391747,-0.000555756,-0.0113263,-0.131561,0.2,0.2,0,1.28,0,0,0,0.2,-0.2,0,1.28,0,0,0
gen_000057_tz+0.10_tx-0.02_ty-0.01_p-0.05_fx-0.02_fy+0.00,-0.2704,3.4804961,0.555978,0.998823,0.0135001,0.0465062,0.0026719,-1.3223,-0.00208786,-0.0121524,1.41825,-0.188988,-0.0388423,-1.34083,-0.0022599,-0.0124399,1.44691,-0.199097,-0.0391747,-0.000351526,-0.0112561,-0.114887,0.2,0.2,0,1.28,0,0,0,0.2,-0.2,0,1.28,0,0,0,-1.3223,-0.00208786,-0.0121524,1.41825,-0.188988,-0.0388423,-1.34083,-0.0022599,-0.0124399,1.44691,-0.199097,-0.0391747,-0.000351526,-0.0112561,-0.114887,0.2,0.2,0,1.28,0,0,0,0.2,-0.2,0,1.28,0,0,0
gen_000058_tz+0.10_tx-0.02_ty-0.01_p-0.05_fx-0.01_fy+0.00,-0.269627,3.4804971,0.555954,0.999176,0.0134783,0.0381905,0.00255313,-1.31021,-0.00211948,-0.01223,1.39913,-0.165311,-0.0388448,-1.32888,-0.00229621,-0.0125162,1.42784,-0.175327,-0.0391767,-0.000148459,-0.0111739,-0.0982589,0.2,0.2,0,1.28,0,0,0,0.2,-0.2,0,1.28,0,0,0,-1.31021,-0.00211948,-0.01223,1.39913,-0.165311,-0.0388448,-1.32888,-0.00229621,-0.0125162,1.42784,-0.175327,-0.0391767,-0.000148459,-0.0111739,-0.0982589,0.2,0.2,0,1.28,0,0,0,0.2,-0.2,0,1.28,0,0,0
gen_000059_tz+0.10_tx-0.02_ty-0.01_p-0.05_fx+0.00_fy+0.00,-0.268854,3.4804981,0.55594,0.99946,0.0134591,0.0298748,0.00242191,-1.29749,-0.00211926,-0.0122974,1.37923,-0.141494,-0.0388462,-1.31631,-0.00230038,-0.0125831,1.40799,-0.151417,-0.0391777,7.75551e-05,-0.011096,-0.081637,0.2,0.2,0,1.28,0,0,0,0.2,-0.2,0,1.28,0,0,0,-1.29749,-0.00211926,-0.0122974,1.37923,-0.141494,-0.0388462,-1.31631,-0.00230038,-0.0125831,1.40799,-0.151417,-0.0391777,7.75551e-05,-0.011096,-0.081637,0.2,0.2,0,1.28,0,0,0,0.2,-0.2,0,1.28,0,0,0
gen_000060_tz+0.10_tx-0.02_ty-0.01_p-0.05_fx+0.01_fy+0.00,-0.268078,3.4804984,0.555937,0.999675,0.0134333,0.0215487,0.00229111,-1.28412,-0.00210992,-0.01238,1.35854,-0.117532,-0.0388506,-1.30309,-0.00229544,-0.0126653,1.38737,-0.127376,-0.0391816,0.000301247,-0.0110028,-0.0649995,0.2,0.2,0,1.28,0,0,0,0.2,-0.2,0,1.28,0,0,0,-1.28412,-0.00210992,-0.01238,1.35854,-0.117532,-0.0388506,-1.30309,-0.00229544,-0.0126653,1.38737,-0.127376,-0.0391816,0.000301247,-0.0110028,-0.0649995,0.2,0.2,0,1.28,0,0,0,0.2,-0.2,0,1.28,0,0,0
gen_000061_tz+0.10_tx-0.02_ty-0.01_p-0.05_fx+0.02_fy+0.00,-0.267299,3.4804979,0.555945,0.999821,0.0134022,0.0132091,0.00215821,-1.27008,-0.00208656,-0.012474,1.33707,-0.0934201,-0.0388575,-1.28918,-0.00227645,-0.012759,1.36596,-0.103198,-0.039188,0.000527294,-0.0108972,-0.0483389,0.2,0.2,0,1.28,0,0,0,0.2,-0.2,0,1.28,0,0,0,-1.27008,-0.00208656,-0.012474,1.33707,-0.0934201,-0.0388575,-1.28918,-0.00227645,-0.012759,1.36596,-0.103198,-0.039188,0.000527294,-0.0108972,-0.0483389,0.2,0.2,0,1.28,0,0,0,0.2,-0.2,0,1.28,0,0,0
gen_000062_tz+0.10_tx-0.02_ty-0.01_p-0.05_fx+0.03_fy+0.00,-0.266517,3.4804969,0.555963,0.999897,0.0133658,0.00484795,0.00202226,-1.25535,-0.00204713,-0.012579,1.31478,-0.0691551,-0.038867,-1.27458,-0.00224137,-0.012864,1.34376,-0.0788783,-0.0391969,0.000757258,-0.0107793,-0.0316379,0.2,0.2,0,1.28,0,0,0,0.2,-0.2,0,1.28,0,0,0,-1.25535,-0.00204713,-0.012579,1.31478,-0.0691551,-0.038867,-1.27458,-0.00224137,-0.012864,1.34376,-0.0788783,-0.0391969,0.000757258,-0.0107793,-0.0316379,0.2,0.2,0,1.28,0,0,0,0.2,-0.2,0,1.28,0,0,0
gen_000063_tz+0.10_tx-0.01_ty-0.01_p-0.05_fx-0.03_fy+0.00,-0.261944,3.4804921,0.556061,0.997905,0.0135281,0.0631941,0.00290921,-1.34476,-0.00199544,-0.0120302,1.45419,-0.235869,-0.0388434,-1.36298,-0.00215794,-0.0123202,1.48277,-0.246204,-0.0391765,-0.000760505,-0.0113855,-0.148278,0.2,0.2,0,1.28,0,0,0,0.2,-0.2,0,1.28,0,0,0,-1.34476,-0.00199544,-0.0120302,1.45419,-0.235869,-0.0388434,-1.36298,-0.00215794,-0.0123202,1.48277,-0.246204,-0.0391765,-0.000760505,-0.0113855,-0.148278,0.2,0.2,0,1.28,0,0,0,0.2,-0.2,0,1.28,0,0,0
gen_000064_tz+0.10_tx-0.01_ty-0.01_p-0.05_fx-0.02_fy+0.00,-0.261172,3.4804944,0.556014,0.9984,0.0135165,0.0548416,0.00279068,-1.33381,-0.00204652,-0.0120863,1.4366,-0.212505,-0.038842,-1.3522,-0.00221383,-0.012375,1.46522,-0.222721,-0.0391747,-0.000555767,-0.0113263,-0.131561,0.2,0.2,0,1.28,0,0,0,0.2,-0.2,0,1.28,0,0,0,-1.33381,-0.00204652,-0.0120863,1.4366,-0.212505,-0.038842,-1.3522,-0.00221383,-0.012375,1.46522,-0.222721,-0.0391747,-0.000555767,-0.0113263,-0.131561,0.2,0.2,0,1.28,0,0,0,0.2,-0.2,0,1.28,0,0,0
gen_000065_tz+0.10_tx-0.01_ty-0.01_p-0.05_fx-0.01_fy+0.00,-0.2604,3.4804961,0.555978,0.998823,0.0135001,0.0465065,0.00267191,-1.3223,-0.00208788,-0.0121524,1.41825,-0.188988,-0.0388423,-1.34083,-0.00225992,-0.0124398,1.44691,-0.199097,-0.0391746,-0.000351543,-0.0112561,-0.114887,0.2,0.2,0,1.28,0,0,0,0.2,-0.2,0,1.28,0,0,0,-1.3223,-0.00208788,-0.0121524,1.41825,-0.188988,-0.0388423,-1.34083,-0.00225992,-0.0124398,1.44691,-0.199097,-0.0391746,-0.000351543,-0.0112561,-0.114887,0.2,0.2,0,1.28,0,0,0,0.2,-0.2,0,1.28,0,0,0
gen_000066_tz+0.10_tx-0.01_ty-0.01_p-0.05_fx+0.00_fy+0.00,-0.259628,3.4804971,0.555954,0.999176,0.0134783,0.0381909,0.00255314,-1.31021,-0.00211949,-0.0122299,1.39913,-0.165311,-0.0388448,-1.32888,-0.00229623,-0.0125162,1.42783,-0.175327,-0.0391766,-0.000148479,-0.0111739,-0.0982597,0.2,0.2,0,1.28,0,0,0,0.2,-0.2,0,1.28,0,0,0,-1.31021,-0.00211949,-0.0122299,1.39913,-0.165311,-0.0388448,-1.32888,-0.00229623,-0.0125162,1.42783,-0.175327,-0.0391766,-0.000148479,-0.0111739,-0.0982597,0.2,0.2,0,1.28,0,0,0,0.2,-0.2,0,1.28,0,0,0
gen_000067_tz+0.10_tx-0.01_ty-0.01_p-0.05_fx+0.01_fy+0.00,-0.258854,3.4804981,0.55594,0.99946,0.0134591,0.029875,0.00242191,-1.29749,-0.00211925,-0.0122974,1.37923,-0.141494,-0.0388462,-1.31632,-0.00230038,-0.0125831,1.40799,-0.151417,-0.0391777,7.75535e-05,-0.011096,-0.0816374,0.2,0.2,0,1.28,0,0,0,0.2,-0.2,0,1.28,0,0,0,-1.29749,-0.00211925,-0.0122974,1.37923,-0.141494,-0.0388462,-1.31632,-0.00230038,-0.0125831,1.40799,-0.151417,-0.0391777,7.75535e-05,-0.011096,-0.0816374,0.2,0.2,0,1.28,0,0,0,0.2,-0.2,0,1.28,0,0,0
gen_000068_tz+0.10_tx-0.01_ty-0.01_p-0.05_fx+0.02_fy+0.00,-0.258078,3.4804984,0.555937,0.999675,0.0134333,0.0215488,0.00229111,-1.28412,-0.00210991,-0.0123801,1.35854,-0.117532,-0.0388506,-1.30309,-0.00229543,-0.0126653,1.38737,-0.127376,-0.0391816,0.000301249,-0.0110028,-0.0649997,0.2,0.2,0,1.28,0,0,0,0.2,-0.2,0,1.28,0,0,0,-1.28412,-0.00210991,-0.0123801,1.35854,-0.117532,-0.0388506,-1.30309,-0.00229543,-0.0126653,1.38737,-0.127376,-0.0391816,0.000301249,-0.0110028,-0.0649997,0.2,0.2,0,1.28,0,0,0,0.2,-0.2,0,1.28,0,0,0
gen_000069_tz+0.10_tx-0.01_ty-0.01_p-0.05_fx+0.03_fy+0.00,-0.257299,3.4804979,0.555945,0.999821,0.0134021,0.0132092,0.00215821,-1.27008,-0.00208656,-0.012474,1.33707,-0.09342,-0.0388575,-1.28918,-0.00227645,-0.012759,1.36596,-0.103198,-0.039188,0.000527296,-0.0108972,-0.048339,0.2,0.2,0,1.28,0,0,0,0.2,-0.2,0,1.28,0,0,0,-1.27008,-0.00208656,-0.012474,1.33707,-0.09342,-0.0388575,-1.28918,-0.00227645,-0.012759,1.36596,-0.103198,-0.039188,0.000527296,-0.0108972,-0.048339,0.2,0.2,0,1.28,0,0,0,0.2,-0.2,0,1.28,0,0,0
gen_000070_tz+0.10_tx+0.00_ty-0.01_p-0.05_fx-0.03_fy+0.00,-0.252717,3.4804892,0.556119,0.997339,0.0135357,0.0715674,0.00302698,-1.35515,-0.00193391,-0.0119821,1.47101,-0.25908,-0.0388463,-1.37321,-0.00209148,-0.0122736,1.49956,-0.269545,-0.0391798,-0.000964532,-0.0114352,-0.165046,0.2,0.2,0,1.28,0,0,0,0.2,-0.2,0,1.28,0,0,0,-1.35515,-0.00193391,-0.0119821,1.47101,-0.25908,-0.0388463,-1.37321,-0.00209148,-0.0122736,1.49956,-0.269545,-0.0391798,-0.000964532,-0.0114352,-0.165046,0.2,0.2,0,1.28,0,0,0,0.2,-0.2,0,1.28,0,0,0
gen_000071_tz+0.10_tx+0.00_ty-0.01_p-0.05_fx-0.02_fy+0.00,-0.251944,3.4804921,0.556061,0.997905,0.0135281,0.0631942,0.00290922,-1.34476,-0.00199545,-0.0120302,1.45419,-0.235869,-0.0388434,-1.36298,-0.00215795,-0.0123202,1.48277,-0.246204,-0.0391765,-0.000760512,-0.0113855,-0.148278,0.2,0.2,0,1.28,0,0,0,0.2,-0.2,0,1.28,0,0,0,-1.34476,-0.00199545,-0.0120302,1.45419,-0.235869,-0.0388434,-1.36298,-0.00215795,-0.0123202,1.48277,-0.246204,-0.0391765,-0.000760512,-0.0113855,-0.148278,0.2,0.2,0,1.28,0,0,0,0.2,-0.2,0,1.28,0,0,0
gen_000072_tz+0.10_tx+0.00_ty-0.01_p-0.05_fx-0.01_fy+0.00,-0.251172,3.4804944,0.556014,0.9984,0.0135165,0.0548417,0.00279068,-1.33381,-0.00204653,-0.0120863,1.4366,-0.212505,-0.038842,-1.3522,-0.00221384,-0.012375,1.46522,-0.222721,-0.0391747,-0.000555775,-0.0113263,-0.131561,0.2,0.2,0,1.28,0,0,0,0.2,-0.2,0,1.28,0,0,0,-1.33381,-0.00204653,-0.0120863,1.4366,-0.212505,-0.038842,-1.3522,-0.00221384,-0.012375,1.46522,-0.222721,-0.0391747,-0.000555775,-0.0113263,-0.131561,0.2,0.2,0,1.28,0,0,0,0.2,-0.2,0,1.28,0,0,0
gen_000073_tz+0.10_tx+0.00_ty-0.01_p-0.05_fx+0.00_fy+0.00,-0.2504,3.4804961,0.555978,0.998823,0.0135001,0.0465067,0.00267191,-1.3223,-0.00208788,-0.0121524,1.41825,-0.188988,-0.0388423,-1.34083,-0.00225992,-0.0124398,1.44691,-0.199097,-0.0391746,-0.00035155,-0.0112561,-0.114887,0.2,0.2,0,1.28,0,0,0,0.2,-0.2,0,1.28,0,0,0,-1.3223,-0.00208788,-0.0121524,1.41825,-0.188988,-0.0388423,-1.34083,-0.00225992,-0.0124398,1.44691,-0.199097,-0.0391746,-0.00035155,-0.0112561,-0.114887,0.2,0.2,0,1.28,0,0,0,0.2,-0.2,0,1.28,0,0,0
gen_000074_tz+0.10_tx+0.00_ty-0.01_p-0.05_fx+0.01_fy+0.00,-0.249628,3.4804971,0.555954,0.999176,0.0134783,0.0381913,0.00255315,-1.31021,-0.00211949,-0.0122299,1.39913,-0.16531,-0.0388448,-1.32888,-0.00229622,-0.0125162,1.42783,-0.175327,-0.0391766,-0.00014848,-0.0111739,-0.0982604,0.2,0.2,0,1.28,0,0,0,0.2,-0.2,0,1.28,0,0,0,-1.31021,-0.00211949,-0.0122299,1.39913,-0.16531,-0.0388448,-1.32888,-0.00229622,-0.0125162,1.42783,-0.175327,-0.0391766,-0.00014848,-0.0111739,-0.0982604,0.2,0.2,0,1.28,0,0,0,0.2,-0.2,0,1.28,0,0,0
gen_000075_tz+0.10_tx+0.00_ty-0.01_p-0.05_fx+0.02_fy+0.00,-0.248854,3.4804981,0.55594,0.99946,0.0134591,0.0298752,0.00242191,-1.29749,-0.00211924,-0.0122974,1.37923,-0.141494,-0.0388462,-1.31632,-0.00230037,-0.0125831,1.40799,-0.151417,-0.0391777,7.75591e-05,-0.011096,-0.0816377,0.2,0.2,0,1.28,0,0,0,0.2,-0.2,0,1.28,0,0,0,-1.29749,-0.00211924,-0.0122974,1.37923,-0.141494,-0.0388462,-1.31632,-0.00230037,-0.0125831,1.40799,-0.151417,-0.0391777,7.75591e-05,-0.011096,-0.0816377,0.2,0.2,0,1.28,0,0,0,0.2,-0.2,0,1.28,0,0,0
gen_000076_tz+0.10_tx+0.00_ty-0.01_p-0.05_fx+0.03_fy+0.00,-0.248078,3.4804984,0.555937,0.999675,0.0134333,0.0215489,0.00229111,-1.28412,-0.0021099,-0.0123801,1.35854,-0.117532,-0.0388506,-1.30309,-0.00229543,-0.0126653,1.38737,-0.127376,-0.0391816,0.000301254,-0.0110028,-0.0649999,0.2,0.2,0,1.28,0,0,0,0.2,-0.2,0,1.28,0,0,0,-1.28412,-0.0021099,-0.0123801,1.35854,-0.117532,-0.0388506,-1.30309,-0.00229543,-0.0126653,1.38737,-0.127376,-0.0391816,0.000301254,-0.0110028,-0.0649999,0.2,0.2,0,1.28,0,0,0,0.2,-0.2,0,1.28,0,0,0
gen_000077_tz+0.10_tx+0.01_ty-0.01_p-0.05_fx-0.03_fy+0.00,-0.24349,3.4804858,0.556189,0.996701,0.0135395,0.079967,0.00314367,-1.365,-0.00186151,-0.0119406,1.48708,-0.282133,-0.0388504,-1.3829,-0.00201404,-0.0122336,1.5156,-0.29274,-0.0391841,-0.00116713,-0.0114764,-0.181878,0.2,0.2,0,1.28,0,0,0,0.2,-0.2,0,1.28,0,0,0,-1.365,-0.00186151,-0.0119406,1.48708,-0.282133,-0.0388504,-1.3829,-0.00201404,-0.0122336,1.5156,-0.29274,-0.0391841,-0.00116713,-0.0114764,-0.181878,0.2,0.2,0,1.28,0,0,0,0.2,-0.2,0,1.28,0,0,0
gen_000078_tz+0.10_tx+0.01_ty-0.01_p-0.05_fx-0.02_fy+0.00,-0.242717,3.4804892,0.556119,0.997339,0.0135357,0.0715675,0.00302698,-1.35515,-0.00193391,-0.0119821,1.47101,-0.25908,-0.0388463,-1.37321,-0.00209149,-0.0122736,1.49956,-0.269545,-0.0391798,-0.000964537,-0.0114352,-0.165046,0.2,0.2,0,1.28,0,0,0,0.2,-0.2,0,1.28,0,0,0,-1.35515,-0.00193391,-0.0119821,1.47101,-0.25908,-0.0388463,-1.37321,-0.00209149,-0.0122736,1.49956,-0.269545,-0.0391798,-0.000964537,-0.0114352,-0.165046,0.2,0.2,0,1.28,0,0,0,0.2,-0.2,0,1.28,0,0,0
gen_000079_tz+0.10_tx+0.01_ty-0.01_p-0.05_fx-0.01_fy+0.00,-0.241944,3.4804921,0.556061,0.997905,0.0135281,0.0631943,0.00290922,-1.34476,-0.00199545,-0.0120302,1.45419,-0.235869,-0.0388434,-1.36298,-0.00215795,-0.0123202,1.48276,-0.246204,-0.0391765,-0.000760516,-0.0113855,-0.148278,0.2,0.2,0,1.28,0,0,0,0.2,-0.2,0,1.28,0,0,0,-1.34476,-0.00199545,-0.0120302,1.45419,-0.235869,-0.0388434,-1.36298,-0.00215795,-0.0123202,1.48276,-0.246204,-0.0391765,-0.000760516,-0.0113855,-0.148278,0.2,0.2,0,1.28,0,0,0,0.2,-0.2,0,1.28,0,0,0
gen_000080_tz+0.10_tx+0.01_ty-0.01_p-0.05_fx+0.00_fy+0.00,-0.241172,3.4804944,0.556014,0.9984,0.0135165,0.0548418,0.00279068,-1.33381,-0.00204653,-0.0120863,1.4366,-0.212505,-0.038842,-1.3522,-0.00221384,-0.012375,1.46522,-0.222721,-0.0391747,-0.000555777,-0.0113263,-0.131561,0.2,0.2,0,1.28,0,0,0,0.2,-0.2,0,1.28,0,0,0,-1.33381,-0.00204653,-0.0120863,1.4366,-0.212505,-0.038842,-1.3522,-0.00221384,-0.012375,1.46522,-0.222721,-0.0391747,-0.000555777,-0.0113263,-0.131561,0.2,0.2,0,1.28,0,0,0,0.2,-0.2,0,1.28,0,0,0
gen_000081_tz+0.10_tx+0.01_ty-0.01_p-0.05_fx+0.01_fy+0.00,-0.2404,3.4804961,0.555978,0.998823,0.0135001,0.0465069,0.00267191,-1.3223,-0.00208787,-0.0121524,1.41825,-0.188987,-0.0388423,-1.34083,-0.00225991,-0.0124398,1.44691,-0.199097,-0.0391746,-0.000351546,-0.0112561,-0.114888,0.2,0.2,0,1.28,0,0,0,0.2,-0.2,0,1.28,0,0,0,-1.3223,-0.00208787,-0.0121524,1.41825,-0.188987,-0.0388423,-1.34083,-0.00225991,-0.0124398,1.44691,-0.199097,-0.0391746,-0.000351546,-0.0112561,-0.114888,0.2,0.2,0,1.28,0,0,0,0.2,-0.2,0,1.28,0,0,0
gen_000082_tz+0.10_tx+0.01_ty-0.01_p-0.05_fx+0.02_fy+0.00,-0.239628,3.4804971,0.555954,0.999176,0.0134783,0.0381917,0.00255314,-1.31021,-0.00211945,-0.01223,1.39913,-0.16531,-0.0388448,-1.32889,-0.00229619,-0.0125163,1.42783,-0.175326,-0.0391767,-0.000148463,-0.0111738,-0.0982612,0.2,0.2,0,1.28,0,0,0,0.2,-0.2,0,1.28,0,0,0,-1.31021,-0.00211945,-0.01223,1.39913,-0.16531,-0.0388448,-1.32889,-0.00229619,-0.0125163,1.42783,-0.175326,-0.0391767,-0.000148463,-0.0111738,-0.0982612,0.2,0.2,0,1.28,0,0,0,0.2,-0.2,0,1.28,0,0,0
gen_000083_tz+0.10_tx+0.01_ty-0.01_p-0.05_fx+0.03_fy+0.00,-0.238854,3.4804981,0.55594,0.99946,0.0134591,0.0298753,0.00242191,-1.29749,-0.00211922,-0.0122975,1.37923,-0.141494,-0.0388462,-1.31632,-0.00230035,-0.0125831,1.40799,-0.151416,-0.0391777,7.75687e-05,-0.0110959,-0.081638,0.2,0.2,0,1.28,0,0,0,0.2,-0.2,0,1.28,0,0,0,-1.29749,-0.00211922,-0.0122975,1.37923,-0.141494,-0.0388462,-1.31632,-0.00230035,-0.0125831,1.40799,-0.151416,-0.0391777,7.75687e-05,-0.0110959,-0.081638,0.2,0.2,0,1.28,0,0,0,0.2,-0.2,0,1.28,0,0,0
gen_000084_tz+0.10_tx+0.02_ty-0.01_p-0.05_fx-0.03_fy+0.00,-0.234264,3.4804818,0.556271,0.995988,0.0135398,0.0883961,0.00325954,-1.37433,-0.00177884,-0.0119053,1.50239,-0.305026,-0.0388554,-1.39206,-0.00192618,-0.0121999,1.53089,-0.315786,-0.0391894,-0.0013686,-0.0115093,-0.198781,0.2,0.2,0,1.28,0,0,0,0.2,-0.2,0,1.28,0,0,0,-1.37433,-0.00177884,-0.0119053,1.50239,-0.305026,-0.0388554,-1.39206,-0.00192618,-0.0121999,1.53089,-0.315786,-0.0391894,-0.0013686,-0.0115093,-0.198781,0.2,0.2,0,1.28,0,0,0,0.2,-0.2,0,1.28,0,0,0
gen_000085_tz+0.10_tx+0.02_ty-0.01_p-0.05_fx-0.02_fy+0.00,-0.23349,3.4804858,0.556189,0.996701,0.0135395,0.0799671,0.00314368,-1.365,-0.00186151,-0.0119406,1.48708,-0.282133,-0.0388503,-1.3829,-0.00201404,-0.0122336,1.5156,-0.29274,-0.0391841,-0.00116713,-0.0114765,-0.181878,0.2,0.2,0,1.28,0,0,0,0.2,-0.2,0,1.28,0,0,0,-1.365,-0.00186151,-0.0119406,1.48708,-0.282133,-0.0388503,-1.3829,-0.00201404,-0.0122336,1.5156,-0.29274,-0.0391841,-0.00116713,-0.0114765,-0.181878,0.2,0.2,0,1.28,0,0,0,0.2,-0.2,0,1.28,0,0,0
gen_000086_tz+0.10_tx+0.02_ty-0.01_p-0.05_fx-0.01_fy+0.00,-0.232717,3.4804892,0.556119,0.997339,0.0135357,0.0715676,0.00302698,-1.35515,-0.00193391,-0.0119821,1.47101,-0.25908,-0.0388463,-1.37321,-0.00209149,-0.0122736,1.49956,-0.269545,-0.0391797,-0.000964539,-0.0114353,-0.165046,0.2,0.2,0,1.28,0,0,0,0.2,-0.2,0,1.28,0,0,0,-1.35515,-0.00193391,-0.0119821,1.47101,-0.25908,-0.0388463,-1.37321,-0.00209149,-0.0122736,1.49956,-0.269545,-0.0391797,-0.000964539,-0.0114353,-0.165046,0.2,0.2,0,1.28,0,0,0,0.2,-0.2,0,1.28,0,0,0
gen_000087_tz+0.10_tx+0.02_ty-0.01_p-0.05_fx+0.00_fy+0.00,-0.231944,3.4804921,0.556061,0.997905,0.0135281,0.0631944,0.00290922,-1.34476,-0.00199545,-0.0120302,1.45419,-0.235869,-0.0388434,-1.36299,-0.00215795,-0.0123202,1.48276,-0.246204,-0.0391765,-0.000760516,-0.0113855,-0.148278,0.2,0.2,0,1.28,0,0,0,0.2,-0.2,0,1.28,0,0,0,-1.34476,-0.00199545,-0.0120302,1.45419,-0.235869,-0.0388434,-1.36299,-0.00215795,-0.0123202,1.48276,-0.246204,-0.0391765,-0.000760516,-0.0113855,-0.148278,0.2,0.2,0,1.28,0,0,0,0.2,-0.2,0,1.28,0,0,0
gen_000088_tz+0.10_tx+0.02_ty-0.01_p-0.05_fx+0.01_fy+0.00,-0.231172,3.4804944,0.556014,0.9984,0.0135165,0.0548419,0.00279068,-1.33381,-0.00204652,-0.0120863,1.4366,-0.212505,-0.038842,-1.3522,-0.00221383,-0.012375,1.46522,-0.22272,-0.0391747,-0.000555772,-0.0113263,-0.131562,0.2,0.2,0,1.28,0,0,0,0.2,-0.2,0,1.28,0,0,0,-1.33381,-0.00204652,-0.0120863,1.4366,-0.212505,-0.038842,-1.3522,-0.00221383,-0.012375,1.46522,-0.22272,-0.0391747,-0.000555772,-0.0113263,-0.131562,0.2,0.2,0,1.28,0,0,0,0.2,-0.2,0,1.28,0,0,0
gen_000089_tz+0.10_tx+0.02_ty-0.01_p-0.05_fx+0.02_fy+0.00,-0.2304,3.480496,0.555978,0.998823,0.0134997,0.0465062,0.00267242,-1.3223,-0.00208879,-0.0121534,1.41825,-0.188988,-0.0388425,-1.34083,-0.00226085,-0.0124408,1.44691,-0.199098,-0.0391748,-0.000352541,-0.0112553,-0.114887,0.2,0.2,0,1.28,0,0,0,0.2,-0.2,0,1.28,0,0,0,-1.3223,-0.00208879,-0.0121534,1.41825,-0.188988,-0.0388425,-1.34083,-0.00226085,-0.0124408,1.44691,-0.199098,-0.0391748,-0.000352541,-0.0112553,-0.114887,0.2,0.2,0,1.28,0,0,0,0.2,-0.2,0,1.28,0,0,0
gen_000090_tz+0.10_tx+0.02_ty-0.01_p-0.05_fx+0.03_fy+0.00,-0.229628,3.4804971,0.555954,0.999176,0.0134783,0.038192,0.00255313,-1.31021,-0.00211941,-0.0122301,1.39913,-0.16531,-0.0388448,-1.32889,-0.00229615,-0.0125164,1.42783,-0.175326,-0.0391767,-0.000148438,-0.0111737,-0.0982619,0.2,0.2,0,1.28,0,0,0,0.2,-0.2,0,1.28,0,0,0,-1.31021,-0.00211941,-0.0122301,1.39913,-0.16531,-0.0388448,-1.32889,-0.00229615,-0.0125164,1.42783,-0.175326,-0.0391767,-0.000148438,-0.0111737,-0.0982619,0.2,0.2,0,1.28,0,0,0,0.2,-0.2,0,1.28,0,0,0
gen_000091_tz+0.10_tx+0.03_ty-0.01_p-0.05_fx-0.03_fy+0.00,-0.225039,3.4804773,0.556366,0.995201,0.0135365,0.0968563,0.00337486,-1.38315,-0.00168658,-0.0118759,1.51696,-0.327754,-0.0388614,-1.4007,-0.00182859,-0.0121722,1.54544,-0.338678,-0.0391956,-0.00156937,-0.011534,-0.215759,0.2,0.2,0,1.28,0,0,0,0.2,-0.2,0,1.28,0,0,0,-1.38315,-0.00168658,-0.0118759,1.51696,-0.327754,-0.0388614,-1.4007,-0.00182859,-0.0121722,1.54544,-0.338678,-0.0391956,-0.00156937,-0.011534,-0.215759,0.2,0.2,0,1.28,0,0,0,0.2,-0.2,0,1.28,0,0,0
gen_000092_tz+0.10_tx+0.03_ty-0.01_p-0.05_fx-0.02_fy+0.00,-0.224264,3.4804818,0.556271,0.995988,0.0135398,0.0883962,0.00325954,-1.37433,-0.00177884,-0.0119053,1.50239,-0.305025,-0.0388554,-1.39206,-0.00192618,-0.0121999,1.53089,-0.315786,-0.0391894,-0.0013686,-0.0115093,-0.198781,0.2,0.2,0,1.28,0,0,0,0.2,-0.2,0,1.28,0,0,0,-1.37433,-0.00177884,-0.0119053,1.50239,-0.305025,-0.0388554,-1.39206,-0.00192618,-0.0121999,1.53089,-0.315786,-0.0391894,-0.0013686,-0.0115093,-0.198781,0.2,0.2,0,1.28,0,0,0,0.2,-0.2,0,1.28,0,0,0
gen_000093_tz+0.10_tx+0.03_ty-0.01_p-0.05_fx-0.01_fy+0.00,-0.22349,3.4804858,0.556189,0.996701,0.0135395,0.0799671,0.00314368,-1.365,-0.00186151,-0.0119406,1.48708,-0.282133,-0.0388503,-1.3829,-0.00201404,-0.0122336,1.5156,-0.29274,-0.0391841,-0.00116713,-0.0114765,-0.181878,0.2,0.2,0,1.28,0,0,0,0.2,-0.2,0,1.28,0,0,0,-1.365,-0.00186151,-0.0119406,1.48708,-0.282133,-0.0388503,-1.3829,-0.00201404,-0.0122336,1.5156,-0.29274,-0.0391841,-0.00116713,-0.0114765,-0.181878,0.2,0.2,0,1.28,0,0,0,0.2,-0.2,0,1.28,0,0,0
gen_000094_tz+0.10_tx+0.03_ty-0.01_p-0.05_fx+0.00_fy+0.00,-0.222717,3.4804892,0.556119,0.997339,0.0135357,0.0715676,0.00302698,-1.35515,-0.00193391,-0.0119821,1.47101,-0.25908,-0.0388463,-1.37321,-0.00209148,-0.0122736,1.49956,-0.269545,-0.0391798,-0.000964537,-0.0114352,-0.165047,0.2,0.2,0,1.28,0,0,0,0.2,-0.2,0,1.28,0,0,0,-1.35515,-0.00193391,-0.0119821,1.47101,-0.25908,-0.0388463,-1.37321,-0.00209148,-0.0122736,1.49956,-0.269545,-0.0391798,-0.000964537,-0.0114352,-0.165047,0.2,0.2,0,1.28,0,0,0,0.2,-0.2,0,1.28,0,0,0
gen_000095_tz+0.10_tx+0.03_ty-0.01_p-0.05_fx+0.01_fy+0.00,-0.221944,3.4804921,0.556061,0.997905,0.013528,0.0631935,0.00290942,-1.34475,-0.00199583,-0.0120306,1.45419,-0.23587,-0.0388435,-1.36298,-0.00215833,-0.0123206,1.48277,-0.246205,-0.0391766,-0.0007609,-0.0113852,-0.148277,0.2,0.2,0,1.28,0,0,0,0.2,-0.2,0,1.28,0,0,0,-1.34475,-0.00199583,-0.0120306,1.45419,-0.23587,-0.0388435,-1.36298,-0.00215833,-0.0123206,1.48277,-0.246205,-0.0391766,-0.0007609,-0.0113852,-0.148277,0.2,0.2,0,1.28,0,0,0,0.2,-0.2,0,1.28,0,0,0
gen_000096_tz+0.10_tx+0.03_ty-0.01_p-0.05_fx+0.02_fy+0.00,-0.221172,3.4804944,0.556014,0.9984,0.0135165,0.054842,0.00279068,-1.33381,-0.00204651,-0.0120863,1.4366,-0.212505,-0.038842,-1.3522,-0.00221381,-0.012375,1.46522,-0.22272,-0.0391747,-0.000555762,-0.0113263,-0.131562,0.2,0.2,0,1.28,0,0,0,0.2,-0.2,0,1.28,0,0,0,-1.33381,-0.00204651,-0.0120863,1.4366,-0.212505,-0.038842,-1.3522,-0.00221381,-0.012375,1.46522,-0.22272,-0.0391747,-0.000555762,-0.0113263,-0.131562,0.2,0.2,0,1.28,0,0,0,0.2,-0.2,0,1.28,0,0,0
gen_000097_tz+0.10_tx+0.03_ty-0.01_p-0.05_fx+0.03_fy+0.00,-0.2204,3.480496,0.555978,0.998823,0.0134997,0.0465064,0.00267242,-1.3223,-0.00208876,-0.0121535,1.41825,-0.188988,-0.0388425,-1.34083,-0.00226082,-0.0124409,1.44691,-0.199097,-0.0391748,-0.000352524,-0.0112552,-0.114887,0.2,0.2,0,1.28,0,0,0,0.2,-0.2,0,1.28,0,0,0,-1.3223,-0.00208876,-0.0121535,1.41825,-0.188988,-0.0388425,-1.34083,-0.00226082,-0.0124409,1.44691,-0.199097,-0.0391748,-0.000352524,-0.0112552,-0.114887,0.2,0.2,0,1.28,0,0,0,0.2,-0.2,0,1.28,0,0,0
gen_000098_tz+0.10_tx-0.03_ty+0.00_p-0.05_fx-0.03_fy+0.00,-0.280398,3.4898607,0.555967,0.998893,0.00651914,0.0464973,0.00269799,-1.32799,-0.00358878,-0.00772108,1.42593,-0.190907,-0.0203132,-1.33668,-0.00364203,-0.00775314,1.44162,-0.197905,-0.0203781,0.000240405,0.00267743,-0.114899,0.2,0.2,0,1.28,0,0,0,0.2,-0.2,0,1.28,0,0,0,-1.32799,-0.00358878,-0.00772108,1.42593,-0.190907,-0.0203132,-1.33668,-0.00364203,-0.00775314,1.44162,-0.197905,-0.0203781,0.000240405,0.00267743,-0.114899,0.2,0.2,0,1.28,0,0,0,0.2,-0.2,0,1.28,0,0,0
gen_000099_tz+0.10_tx-0.03_ty+0.00_p-0.05_fx-0.02_fy+0.00,-0.279627,3.4898624,0.555943,0.999246,0.00651608,0.0381853,0.00261447,-1.31593,-0.00356134,-0.00774085,1.40681,-0.167215,-0.0203061,-1.32473,-0.00361585,-0.00777283,1.42254,-0.174136,-0.020371,0.00025578,0.00272909,-0.0982807,0.2,0.2,0,1.28,0,0,0,0.2,-0.2,0,1.28,0,0,0,-1.31593,-0.00356134,-0.00774085,1.40681,-0.167215,-0.0203061,-1.32473,-0.00361585,-0.00777283,1.42254,-0.174136,-0.020371,0.00025578,0.00272909,-0.0982807,0.2,0.2,0,1.28,0,0,0,0.2,-0.2,0,1.28,0,0,0
gen_000100_tz+0.10_tx-0.03_ty+0.00_p-0.05_fx-0.01_fy+0.00,-0.278853,3.4898626,0.555929,0.999529,0.00649741,0.0298708,0.00253907,-1.30326,-0.00354021,-0.00780216,1.38692,-0.143379,-0.0203069,-1.31214,-0.00359615,-0.00783397,1.40268,-0.150236,-0.0203718,0.000254567,0.00281177,-0.0816638,0.2,0.2,0,1.28,0,0,0,0.2,-0.2,0,1.28,0,0,0,-1.30326,-0.00354021,-0.00780216,1.38692,-0.143379,-0.0203069,-1.31214,-0.00359615,-0.00783397,1.40268,-0.150236,-0.0203718,0.000254567,0.00281177,-0.0816638,0.2,0.2,0,1.28,0,0,0,0.2,-0.2,0,1.28,0,0,0
gen_000101_tz+0.10_tx-0.03_ty+0.00_p-0.05_fx+0.00_fy+0.00,-0.278077,3.4898631,0.555926,0.999744,0.00648387,0.0215456,0.00245813,-1.28992,-0.00350461,-0.00785004,1.36626,-0.119405,-0.020305,-1.2989,-0.00356188,-0.00788183,1.38205,-0.126202,-0.0203698,0.000262311,0.00288308,-0.0650302,0.2,0.2,0,1.28,0,0,0,0.2,-0.2,0,1.28,0,0,0,-1.28992,-0.00350461,-0.00785004,1.36626,-0.119405,-0.020305,-1.2989,-0.00356188,-0.00788183,1.38205,-0.126202,-0.0203698,0.000262311,0.00288308,-0.0650302,0.2,0.2,0,1.28,0,0,0,0.2,-0.2,0,1.28,0,0,0
gen_000102_tz+0.10_tx-0.03_ty+0.00_p-0.05_fx+0.01_fy+0.00,-0.277299,3.4898634,0.555934,0.999889,0.0064693,0.0132081,0.00237517,-1.27591,-0.00345949,-0.00790068,1.3448,-0.0952838,-0.0203036,-1.285,-0.00351808,-0.00793256,1.36063,-0.102026,-0.0203684,0.000272346,0.00295565,-0.0483759,0.2,0.2,0,1.28,0,0,0,0.2,-0.2,0,1.28,0,0,0,-1.27591,-0.00345949,-0.00790068,1.3448,-0.0952838,-0.0203036,-1.285,-0.00351808,-0.00793256,1.36063,-0.102026,-0.0203684,0.000272346,0.00295565,-0.0483759,0.2,0.2,0,1.28,0,0,0,0.2,-0.2,0,1.28,0,0,0
gen_000103_tz+0.10_tx-0.03_ty+0.00_p-0.05_fx+0.02_fy+0.00,-0.276517,3.4898635,0.555953,0.999965,0.00645317,0.00484836,0.00229022,-1.26121,-0.00340464,-0.00795538,1.32253,-0.0710139,-0.020303,-1.27039,-0.00346455,-0.00798746,1.33842,-0.0777072,-0.0203679,0.000284422,0.00303064,-0.03168,0.2,0.2,0,1.28,0,0,0,0.2,-0.2,0,1.28,0,0,0,-1.26121,-0.00340464,-0.00795538,1.32253,-0.0710139,-0.020303,-1.27039,-0.00346455,-0.00798746,1.33842,-0.0777072,-0.0203679,0.000284422,0.00303064,-0.03168,0.2,0.2,0,1.28,0,0,0,0.2,-0.2,0,1.28,0,0,0
gen_000104_tz+0.10_tx-0.03_ty+0.00_p-0.05_fx+0.03_fy+0.00,-0.27573,3.4898632,0.555982,0.999971,0.00643528,-0.00354359,0.00220301,-1.24577,-0.00333936,-0.00801459,1.29945,-0.0465918,-0.0203035,-1.25505,-0.00340059,-0.00804697,1.31539,-0.0532425,-0.0203684,0.000298799,0.00310861,-0.0149215,0.2,0.2,0,1.28,0,0,0,0.2,-0.2,0,1.28,0,0,0,-1.24577,-0.00333936,-0.00801459,1.29945,-0.0465918,-0.0203035,-1.25505,-0.00340059,-0.00804697,1.31539,-0.0532425,-0.0203684,0.000298799,0.00310861,-0.0149215,0.2,0.2,0,1.28,0,0,0,0.2,-0.2,0,1.28,0,0,0
gen_000105_tz+0.10_tx-0.02_ty+0.00_p-0.05_fx-0.03_fy+0.00,-0.271171,3.4898593,0.556003,0.99847,0.00652722,0.0548332,0.00277679,-1.33948,-0.00360324,-0.00768811,1.44426,-0.21444,-0.0203175,-1.34806,-0.00365514,-0.0077204,1.45993,-0.221519,-0.0203825,0.000233125,0.00261442,-0.131572,0.2,0.2,0,1.28,0,0,0,0.2,-0.2,0,1.28,0,0,0,-1.33948,-0.00360324,-0.00768811,1.44426,-0.21444,-0.0203175,-1.34806,-0.00365514,-0.0077204,1.45993,-0.221519,-0.0203825,0.000233125,0.00261442,-0.131572,0.2,0.2,0,1.28,0,0,0,0.2,-0.2,0,1.28,0,0,0
gen_000106_tz+0.10_tx-0.02_ty+0.00_p-0.05_fx-0.02_fy+0.00,-0.270398,3.4898607,0.555967,0.998893,0.00651914,0.0464976,0.00269799,-1.32799,-0.00358876,-0.0077211,1.42593,-0.190906,-0.0203132,-1.33668,-0.00364202,-0.00775316,1.44162,-0.197904,-0.0203781,0.000240418,0.00267744,-0.1149,0.2,0.2,0,1.28,0,0,0,0.2,-0.2,0,1.28,0,0,0,-1.32799,-0.00358876,-0.0077211,1.42593,-0.190906,-0.0203132,-1.33668,-0.00364202,-0.00775316,1.44162,-0.197904,-0.0203781,0.000240418,0.00267744,-0.1149,0.2,0.2,0,1.28,0,0,0,0.2,-0.2,0,1.28,0,0,0
gen_000107_tz+0.10_tx-0.02_ty+0.00_p-0.05_fx-0.01_fy+0.00,-0.269627,3.4898624,0.555943,0.999246,0.00651604,0.0381865,0.00261446,-1.31594,-0.00356129,-0.00774094,1.4068,-0.167214,-0.0203061,-1.32473,-0.0036158,-0.00777292,1.42254,-0.174134,-0.020371,0.000255826,0.00272916,-0.0982832,0.2,0.2,0,1.28,0,0,0,0.2,-0.2,0,1.28,0,0,0,-1.31594,-0.00356129,-0.00774094,1.4068,-0.167214,-0.0203061,-1.32473,-0.0036158,-0.00777292,1.42254,-0.174134,-0.020371,0.000255826,0.00272916,-0.0982832,0.2,0.2,0,1.28,0,0,0,0.2,-0.2,0,1.28,0,0,0
gen_000108_tz+0.10_tx-0.02_ty+0.00_p-0.05_fx+0.00_fy+0.00,-0.268853,3.4898626,0.555929,0.999529,0.00649741,0.029871,0.00253907,-1.30326,-0.0035402,-0.00780217,1.38692,-0.143379,-0.0203069,-1.31214,-0.00359614,-0.00783398,1.40268,-0.150236,-0.0203718,0.000254574,0.00281178,-0.0816642,0.2,0.2,0,1.28,0,0,0,0.2,-0.2,0,1.28,0,0,0,-1.30326,-0.0035402,-0.00780217,1.38692,-0.143379,-0.0203069,-1.31214,-0.00359614,-0.00783398,1.40268,-0.150236,-0.0203718,0.000254574,0.00281178,-0.0816642,0.2,0.2,0,1.28,0,0,0,0.2,-0.2,0,1.28,0,0,0
gen_000109_tz+0.10_tx-0.02_ty+0.00_p-0.05_fx+0.01_fy+0.00,-0.268077,3.4898631,0.555926,0.999744,0.00648387,0.0215457,0.00245813,-1.28992,-0.0035046,-0.00785004,1.36626,-0.119405,-0.020305,-1.2989,-0.00356188,-0.00788183,1.38205,-0.126202,-0.0203698,0.000262314,0.00288308,-0.0650304,0.2,0.2,0,1.28,0,0,0,0.2,-0.2,0,1.28,0,0,0,-1.28992,-0.0035046,-0.00785004,1.36626,-0.119405,-0.020305,-1.2989,-0.00356188,-0.00788183,1.38205,-0.126202,-0.0203698,0.000262314,0.00288308,-0.0650304,0.2,0.2,0,1.28,0,0,0,0.2,-0.2,0,1.28,0,0,0
gen_000110_tz+0.10_tx-0.02_ty+0.00_p-0.05_fx+0.02_fy+0.00,-0.267299,3.4898634,0.555934,0.999889,0.0064693,0.0132082,0.00237517,-1.27591,-0.00345949,-0.00790068,1.3448,-0.0952837,-0.0203036,-1.285,-0.00351808,-0.00793256,1.36063,-0.102026,-0.0203684,0.000272348,0.00295565,-0.048376,0.2,0.2,0,1.28,0,0,0,0.2,-0.2,0,1.28,0,0,0,-1.27591,-0.00345949,-0.00790068,1.3448,-0.0952837,-0.0203036,-1.285,-0.00351808,-0.00793256,1.36063,-0.102026,-0.0203684,0.000272348,0.00295565,-0.048376,0.2,0.2,0,1.28,0,0,0,0.2,-0.2,0,1.28,0,0,0
gen_000111_tz+0.10_tx-0.02_ty+0.00_p-0.05_fx+0.03_fy+0.00,-0.266517,3.4898635,0.555953,0.999965,0.00645317,0.00484841,0.00229022,-1.26121,-0.00340463,-0.00795538,1.32253,-0.0710138,-0.020303,-1.27039,-0.00346455,-0.00798745,1.33842,-0.0777072,-0.0203679,0.000284424,0.00303064,-0.0316801,0.2,0.2,0,1.28,0,0,0,0.2,-0.2,0,1.28,0,0,0,-1.26121,-0.00340463,-0.00795538,1.32253,-0.0710138,-0.020303,-1.27039,-0.00346455,-0.00798745,1.33842,-0.0777072,-0.0203679,0.000284424,0.00303064,-0.0316801,0.2,0.2,0,1.28,0,0,0,0.2,-0.2,0,1.28,0,0,0
gen_000112_tz+0.10_tx-0.01_ty+0.00_p-0.05_fx-0.03_fy+0.00,-0.261943,3.4898577,0.55605,0.997976,0.00653477,0.0631857,0.00285437,-1.35039,-0.0036102,-0.00765662,1.46184,-0.237825,-0.0203219,-1.35886,-0.00366071,-0.0076892,1.47749,-0.24499,-0.0203869,0.000227195,0.0025514,-0.148288,0.2,0.2,0,1.28,0,0,0,0.2,-0.2,0,1.28,0,0,0,-1.35039,-0.0036102,-0.00765662,1.46184,-0.237825,-0.0203219,-1.35886,-0.00366071,-0.0076892,1.47749,-0.24499,-0.0203869,0.000227195,0.0025514,-0.148288,0.2,0.2,0,1.28,0,0,0,0.2,-0.2,0,1.28,0,0,0
gen_000113_tz+0.10_tx-0.01_ty+0.00_p-0.05_fx-0.02_fy+0.00,-0.261171,3.4898593,0.556003,0.99847,0.00652721,0.0548333,0.00277679,-1.33948,-0.00360324,-0.00768812,1.44426,-0.21444,-0.0203176,-1.34806,-0.00365513,-0.00772041,1.45993,-0.221519,-0.0203825,0.000233132,0.00261443,-0.131573,0.2,0.2,0,1.28,0,0,0,0.2,-0.2,0,1.28,0,0,0,-1.33948,-0.00360324,-0.00768812,1.44426,-0.21444,-0.0203176,-1.34806,-0.00365513,-0.00772041,1.45993,-0.221519,-0.0203825,0.000233132,0.00261443,-0.131573,0.2,0.2,0,1.28,0,0,0,0.2,-0.2,0,1.28,0,0,0
gen_000114_tz+0.10_tx-0.01_ty+0.00_p-0.05_fx-0.01_fy+0.00,-0.260398,3.4898607,0.555967,0.998894,0.0065193,0.0464968,0.00269785,-1.32799,-0.00358854,-0.00772066,1.42593,-0.190907,-0.0203131,-1.33668,-0.00364179,-0.00775273,1.44162,-0.197905,-0.020378,0.000240677,0.00267711,-0.114898,0.2,0.2,0,1.28,0,0,0,0.2,-0.2,0,1.28,0,0,0,-1.32799,-0.00358854,-0.00772066,1.42593,-0.190907,-0.0203131,-1.33668,-0.00364179,-0.00775273,1.44162,-0.197905,-0.020378,0.000240677,0.00267711,-0.114898,0.2,0.2,0,1.28,0,0,0,0.2,-0.2,0,1.28,0,0,0
gen_000115_tz+0.10_tx-0.01_ty+0.00_p-0.05_fx+0.00_fy+0.00,-0.259627,3.4898624,0.555943,0.999246,0.00651525,0.0381873,0.0026149,-1.31594,-0.00356192,-0.00774302,1.4068,-0.167213,-0.0203065,-1.32473,-0.00361645,-0.007775,1.42254,-0.174134,-0.0203714,0.000255002,0.00273077,-0.0982847,0.2,0.2,0,1.28,0,0,0,0.2,-0.2,0,1.28,0,0,0,-1.31594,-0.00356192,-0.00774302,1.4068,-0.167213,-0.0203065,-1.32473,-0.00361645,-0.007775,1.42254,-0.174134,-0.0203714,0.000255002,0.00273077,-0.0982847,0.2,0.2,0,1.28,0,0,0,0.2,-0.2,0,1.28,0,0,0
gen_000116_tz+0.10_tx-0.01_ty+0.00_p-0.05_fx+0.01_fy+0.00,-0.258853,3.4898626,0.555929,0.999529,0.00649741,0.0298712,0.00253907,-1.30326,-0.0035402,-0.00780217,1.38692,-0.143379,-0.0203069,-1.31214,-0.00359614,-0.00783398,1.40268,-0.150236,-0.0203718,0.000254578,0.00281178,-0.0816646,0.2,0.2,0,1.28,0,0,0,0.2,-0.2,0,1.28,0,0,0,-1.30326,-0.0035402,-0.00780217,1.38692,-0.143379,-0.0203069,-1.31214,-0.00359614,-0.00783398,1.40268,-0.150236,-0.0203718,0.000254578,0.00281178,-0.0816646,0.2,0.2,0,1.28,0,0,0,0.2,-0.2,0,1.28,0,0,0
gen_000117_tz+0.10_tx-0.01_ty+0.00_p-0.05_fx+0.02_fy+0.00,-0.258077,3.4898631,0.555926,0.999744,0.00648387,0.0215458,0.00245813,-1.28992,-0.0035046,-0.00785003,1.36626,-0.119405,-0.020305,-1.2989,-0.00356188,-0.00788183,1.38205,-0.126202,-0.0203698,0.000262316,0.00288308,-0.0650306,0.2,0.2,0,1.28,0,0,0,0.2,-0.2,0,1.28,0,0,0,-1.28992,-0.0035046,-0.00785003,1.36626,-0.119405,-0.020305,-1.2989,-0.00356188,-0.00788183,1.38205,-0.126202,-0.0203698,0.000262316,0.00288308,-0.0650306,0.2,0.2,0,1.28,0,0,0,0.2,-0.2,0,1.28,0,0,0
gen_000118_tz+0.10_tx-0.01_ty+0.00_p-0.05_fx+0.03_fy+0.00,-0.257299,3.4898634,0.555934,0.999889,0.0064693,0.0132082,0.00237517,-1.27591,-0.00345949,-0.00790067,1.3448,-0.0952837,-0.0203036,-1.285,-0.00351808,-0.00793256,1.36063,-0.102026,-0.0203684,0.000272349,0.00295564,-0.0483762,0.2,0.2,0,1.28,0,0,0,0.2,-0.2,0,1.28,0,0,0,-1.27591,-0.00345949,-0.00790067,1.3448,-0.0952837,-0.0203036,-1.285,-0.00351808,-0.00793256,1.36063,-0.102026,-0.0203684,0.000272349,0.00295564,-0.0483762,0.2,0.2,0,1.28,0,0,0,0.2,-0.2,0,1.28,0,0,0
gen_000119_tz+0.10_tx+0.00_ty+0.00_p-0.05_fx-0.03_fy+0.00,-0.252716,3.489856,0.556108,0.997411,0.00654147,0.0715592,0.0029312,-1.36075,-0.00361052,-0.00762745,1.47865,-0.26106,-0.0203265,-1.36911,-0.00365962,-0.00766039,1.49429,-0.268317,-0.0203915,0.000221813,0.00248901,-0.165054,0.2,0.2,0,1.28,0,0,0,0.2,-0.2,0,1.28,0,0,0,-1.36075,-0.00361052,-0.00762745,1.47865,-0.26106,-0.0203265,-1.36911,-0.00365962,-0.00766039,1.49429,-0.268317,-0.0203915,0.000221813,0.00248901,-0.165054,0.2,0.2,0,1.28,0,0,0,0.2,-0.2,0,1.28,0,0,0
gen_000120_tz+0.10_tx+0.00_ty+0.00_p-0.05_fx-0.02_fy+0.00,-0.251943,3.4898577,0.55605,0.997976,0.00653477,0.0631858,0.00285437,-1.35039,-0.0036102,-0.00765662,1.46184,-0.237825,-0.0203219,-1.35886,-0.00366071,-0.00768921,1.47749,-0.24499,-0.0203869,0.000227199,0.00255141,-0.148288,0.2,0.2,0,1.28,0,0,0,0.2,-0.2,0,1.28,0,0,0,-1.35039,-0.0036102,-0.00765662,1.46184,-0.237825,-0.0203219,-1.35886,-0.00366071,-0.00768921,1.47749,-0.24499,-0.0203869,0.000227199,0.00255141,-0.148288,0.2,0.2,0,1.28,0,0,0,0.2,-0.2,0,1.28,0,0,0
gen_000121_tz+0.10_tx+0.00_ty+0.00_p-0.05_fx-0.01_fy+0.00,-0.251171,3.4898593,0.556003,0.99847,0.0065273,0.0548325,0.0027767,-1.33948,-0.0036031,-0.0076879,1.44426,-0.214441,-0.0203175,-1.34806,-0.003655,-0.00772019,1.45993,-0.221519,-0.0203824,0.000233276,0.00261426,-0.131571,0.2,0.2,0,1.28,0,0,0,0.2,-0.2,0,1.28,0,0,0,-1.33948,-0.0036031,-0.0076879,1.44426,-0.214441,-0.0203175,-1.34806,-0.003655,-0.00772019,1.45993,-0.221519,-0.0203824,0.000233276,0.00261426,-0.131571,0.2,0.2,0,1.28,0,0,0,0.2,-0.2,0,1.28,0,0,0
gen_000122_tz+0.10_tx+0.00_ty+0.00_p-0.05_fx+0.00_fy+0.00,-0.250398,3.4898607,0.555967,0.998894,0.0065193,0.0464971,0.00269785,-1.32799,-0.00358853,-0.00772067,1.42593,-0.190907,-0.0203131,-1.33668,-0.00364178,-0.00775274,1.44162,-0.197905,-0.020378,0.000240683,0.00267711,-0.114899,0.2,0.2,0,1.28,0,0,0,0.2,-0.2,0,1.28,0,0,0,-1.32799,-0.00358853,-0.00772067,1.42593,-0.190907,-0.0203131,-1.33668,-0.00364178,-0.00775274,1.44162,-0.197905,-0.020378,0.000240683,0.00267711,-0.114899,0.2,0.2,0,1.28,0,0,0,0.2,-0.2,0,1.28,0,0,0
gen_000123_tz+0.10_tx+0.00_ty+0.00_p-0.05_fx+0.01_fy+0.00,-0.249627,3.4898624,0.555943,0.999246,0.00651525,0.0381883,0.00261491,-1.31594,-0.00356192,-0.00774301,1.4068,-0.167212,-0.0203065,-1.32474,-0.00361644,-0.00777498,1.42253,-0.174133,-0.0203714,0.000255012,0.00273075,-0.0982869,0.2,0.2,0,1.28,0,0,0,0.2,-0.2,0,1.28,0,0,0,-1.31594,-0.00356192,-0.00774301,1.4068,-0.167212,-0.0203065,-1.32474,-0.00361644,-0.00777498,1.42253,-0.174133,-0.0203714,0.000255012,0.00273075,-0.0982869,0.2,0.2,0,1.28,0,0,0,0.2,-0.2,0,1.28,0,0,0
gen_000124_tz+0.10_tx+0.00_ty+0.00_p-0.05_fx+0.02_fy+0.00,-0.248853,3.4898626,0.555929,0.999529,0.00649741,0.0298714,0.00253907,-1.30326,-0.0035402,-0.00780216,1.38692,-0.143378,-0.0203069,-1.31215,-0.00359614,-0.00783397,1.40268,-0.150236,-0.0203718,0.00025458,0.00281177,-0.081665,0.2,0.2,0,1.28,0,0,0,0.2,-0.2,0,1.28,0,0,0,-1.30326,-0.0035402,-0.00780216,1.38692,-0.143378,-0.0203069,-1.31215,-0.00359614,-0.00783397,1.40268,-0.150236,-0.0203718,0.00025458,0.00281177,-0.081665,0.2,0.2,0,1.28,0,0,0,0.2,-0.2,0,1.28,0,0,0
gen_000125_tz+0.10_tx+0.00_ty+0.00_p-0.05_fx+0.03_fy+0.00,-0.248077,3.4898631,0.555926,0.999744,0.00648387,0.0215459,0.00245813,-1.28992,-0.0035046,-0.00785003,1.36626,-0.119405,-0.020305,-1.2989,-0.00356188,-0.00788182,1.38205,-0.126201,-0.0203698,0.000262317,0.00288307,-0.0650308,0.2,0.2,0,1.28,0,0,0,0.2,-0.2,0,1.28,0,0,0,-1.28992,-0.0035046,-0.00785003,1.36626,-0.119405,-0.020305,-1.2989,-0.00356188,-0.00788182,1.38205,-0.126201,-0.0203698,0.000262317,0.00288307,-0.0650308,0.2,0.2,0,1.28,0,0,0,0.2,-0.2,0,1.28,0,0,0
gen_000126_tz+0.10_tx+0.01_ty+0.00_p-0.05_fx-0.03_fy+0.00,-0.243489,3.4898539,0.556178,0.996772,0.0065472,0.0799593,0.00300758,-1.37057,-0.00360483,-0.00760083,1.49471,-0.28414,-0.0203313,-1.37882,-0.00365249,-0.00763417,1.51033,-0.291496,-0.0203963,0.000216496,0.00242742,-0.181885,0.2,0.2,0,1.28,0,0,0,0.2,-0.2,0,1.28,0,0,0,-1.37057,-0.00360483,-0.00760083,1.49471,-0.28414,-0.0203313,-1.37882,-0.00365249,-0.00763417,1.51033,-0.291496,-0.0203963,0.000216496,0.00242742,-0.181885,0.2,0.2,0,1.28,0,0,0,0.2,-0.2,0,1.28,0,0,0
gen_000127_tz+0.10_tx+0.01_ty+0.00_p-0.05_fx-0.02_fy+0.00,-0.242716,3.489856,0.556108,0.997411,0.00654146,0.0715593,0.0029312,-1.36075,-0.00361052,-0.00762746,1.47865,-0.26106,-0.0203265,-1.36911,-0.00365962,-0.00766039,1.49429,-0.268317,-0.0203915,0.000221816,0.00248901,-0.165054,0.2,0.2,0,1.28,0,0,0,0.2,-0.2,0,1.28,0,0,0,-1.36075,-0.00361052,-0.00762746,1.47865,-0.26106,-0.0203265,-1.36911,-0.00365962,-0.00766039,1.49429,-0.268317,-0.0203915,0.000221816,0.00248901,-0.165054,0.2,0.2,0,1.28,0,0,0,0.2,-0.2,0,1.28,0,0,0
gen_000128_tz+0.10_tx+0.01_ty+0.00_p-0.05_fx-0.01_fy+0.00,-0.241943,3.4898578,0.55605,0.997976,0.00653483,0.0631849,0.00285431,-1.35039,-0.0036101,-0.00765647,1.46184,-0.237826,-0.0203219,-1.35886,-0.00366061,-0.00768906,1.47749,-0.244991,-0.0203869,0.0002273,0.00255129,-0.148286,0.2,0.2,0,1.28,0,0,0,0.2,-0.2,0,1.28,0,0,0,-1.35039,-0.0036101,-0.00765647,1.46184,-0.237826,-0.0203219,-1.35886,-0.00366061,-0.00768906,1.47749,-0.244991,-0.0203869,0.0002273,0.00255129,-0.148286,0.2,0.2,0,1.28,0,0,0,0.2,-0.2,0,1.28,0,0,0
gen_000129_tz+0.10_tx+0.01_ty+0.00_p-0.05_fx+0.00_fy+0.00,-0.241171,3.4898593,0.556003,0.99847,0.0065273,0.0548326,0.0027767,-1.33948,-0.0036031,-0.0076879,1.44426,-0.214441,-0.0203175,-1.34806,-0.003655,-0.00772019,1.45993,-0.221519,-0.0203824,0.000233279,0.00261426,-0.131571,0.2,0.2,0,1.28,0,0,0,0.2,-0.2,0,1.28,0,0,0,-1.33948,-0.0036031,-0.0076879,1.44426,-0.214441,-0.0203175,-1.34806,-0.003655,-0.00772019,1.45993,-0.221519,-0.0203824,0.000233279,0.00261426,-0.131571,0.2,0.2,0,1.28,0,0,0,0.2,-0.2,0,1.28,0,0,0
gen_000130_tz+0.10_tx+0.01_ty+0.00_p-0.05_fx+0.01_fy+0.00,-0.240398,3.4898607,0.555967,0.998893,0.0065193,0.0464973,0.00269785,-1.32799,-0.00358853,-0.00772066,1.42593,-0.190907,-0.0203131,-1.33668,-0.00364178,-0.00775273,1.44162,-0.197905,-0.020378,0.000240684,0.0026771,-0.114899,0.2,0.2,0,1.28,0,0,0,0.2,-0.2,0,1.28,0,0,0,-1.32799,-0.00358853,-0.00772066,1.42593,-0.190907,-0.0203131,-1.33668,-0.00364178,-0.00775273,1.44162,-0.197905,-0.020378,0.000240684,0.0026771,-0.114899,0.2,0.2,0,1.28,0,0,0,0.2,-0.2,0,1.28,0,0,0
gen_000131_tz+0.10_tx+0.01_ty+0.00_p-0.05_fx+0.02_fy+0.00,-0.239627,3.4898623,0.555943,0.999246,0.00651457,0.0381888,0.00261534,-1.31594,-0.00356256,-0.00774482,1.4068,-0.167211,-0.0203069,-1.32474,-0.00361709,-0.00777679,1.42253,-0.174133,-0.0203718,0.000254213,0.00273215,-0.0982877,0.2,0.2,0,1.28,0,0,0,0.2,-0.2,0,1.28,0,0,0,-1.31594,-0.00356256,-0.00774482,1.4068,-0.167211,-0.0203069,-1.32474,-0.00361709,-0.00777679,1.42253,-0.174133,-0.0203718,0.000254213,0.00273215,-0.0982877,0.2,0.2,0,1.28,0,0,0,0.2,-0.2,0,1.28,0,0,0
gen_000132_tz+0.10_tx+0.01_ty+0.00_p-0.05_fx+0.03_fy+0.00,-0.238853,3.4898626,0.555929,0.999529,0.00649727,0.0298706,0.00253918,-1.30326,-0.00354039,-0.00780253,1.38692,-0.143379,-0.020307,-1.31214,-0.00359633,-0.00783434,1.40268,-0.150236,-0.0203719,0.000254354,0.00281206,-0.0816634,0.2,0.2,0,1.28,0,0,0,0.2,-0.2,0,1.28,0,0,0,-1.30326,-0.00354039,-0.00780253,1.38692,-0.143379,-0.020307,-1.31214,-0.00359633,-0.00783434,1.40268,-0.150236,-0.0203719,0.000254354,0.00281206,-0.0816634,0.2,0.2,0,1.28,0,0,0,0.2,-0.2,0,1.28,0,0,0
gen_000133_tz+0.10_tx+0.02_ty+0.00_p-0.05_fx-0.03_fy+0.00,-0.234263,3.4898517,0.55626,0.99606,0.00655201,0.0883893,0.00308364,-1.37986,-0.00359347,-0.00757657,1.51002,-0.307062,-0.0203362,-1.388,-0.00363967,-0.00761036,1.52563,-0.314523,-0.0204012,0.000211025,0.00236653,-0.198787,0.2,0.2,0,1.28,0,0,0,0.2,-0.2,0,1.28,0,0,0,-1.37986,-0.00359347,-0.00757657,1.51002,-0.307062,-0.0203362,-1.388,-0.00363967,-0.00761036,1.52563,-0.314523,-0.0204012,0.000211025,0.00236653,-0.198787,0.2,0.2,0,1.28,0,0,0,0.2,-0.2,0,1.28,0,0,0
gen_000134_tz+0.10_tx+0.02_ty+0.00_p-0.05_fx-0.02_fy+0.00,-0.233489,3.4898539,0.556178,0.996772,0.0065472,0.0799594,0.00300758,-1.37057,-0.00360482,-0.00760083,1.49471,-0.28414,-0.0203313,-1.37882,-0.00365249,-0.00763417,1.51033,-0.291496,-0.0203963,0.000216498,0.00242742,-0.181885,0.2,0.2,0,1.28,0,0,0,0.2,-0.2,0,1.28,0,0,0,-1.37057,-0.00360482,-0.00760083,1.49471,-0.28414,-0.0203313,-1.37882,-0.00365249,-0.00763417,1.51033,-0.291496,-0.0203963,0.000216498,0.00242742,-0.181885,0.2,0.2,0,1.28,0,0,0,0.2,-0.2,0,1.28,0,0,0
gen_000135_tz+0.10_tx+0.02_ty+0.00_p-0.05_fx-0.01_fy+0.00,-0.232716,3.489856,0.556108,0.997411,0.00654146,0.0715594,0.0029312,-1.36075,-0.00361052,-0.00762746,1.47865,-0.26106,-0.0203265,-1.36911,-0.00365962,-0.00766039,1.49429,-0.268317,-0.0203915,0.000221817,0.00248901,-0.165054,0.2,0.2,0,1.28,0,0,0,0.2,-0.2,0,1.28,0,0,0,-1.36075,-0.00361052,-0.00762746,1.47865,-0.26106,-0.0203265,-1.36911,-0.00365962,-0.00766039,1.49429,-0.268317,-0.0203915,0.000221817,0.00248901,-0.165054,0.2,0.2,0,1.28,0,0,0,0.2,-0.2,0,1.28,0,0,0
gen_000136_tz+0.10_tx+0.02_ty+0.00_p-0.05_fx+0.00_fy+0.00,-0.231943,3.4898578,0.55605,0.997976,0.00653483,0.063185,0.00285431,-1.35039,-0.0036101,-0.00765647,1.46184,-0.237826,-0.0203219,-1.35886,-0.00366061,-0.00768906,1.47749,-0.244991,-0.0203869,0.000227301,0.00255129,-0.148286,0.2,0.2,0,1.28,0,0,0,0.2,-0.2,0,1.28,0,0,0,-1.35039,-0.0036101,-0.00765647,1.46184,-0.237826,-0.0203219,-1.35886,-0.00366061,-0.00768906,1.47749,-0.244991,-0.0203869,0.000227301,0.00255129,-0.148286,0.2,0.2,0,1.28,0,0,0,0.2,-0.2,0,1.28,0,0,0
gen_000137_tz+0.10_tx+0.02_ty+0.00_p-0.05_fx+0.01_fy+0.00,-0.231171,3.4898593,0.556003,0.99847,0.0065273,0.0548327,0.00277671,-1.33948,-0.0036031,-0.00768789,1.44426,-0.214441,-0.0203175,-1.34806,-0.003655,-0.00772018,1.45993,-0.221519,-0.0203824,0.000233278,0.00261426,-0.131571,0.2,0.2,0,1.28,0,0,0,0.2,-0.2,0,1.28,0,0,0,-1.33948,-0.0036031,-0.00768789,1.44426,-0.214441,-0.0203175,-1.34806,-0.003655,-0.00772018,1.45993,-0.221519,-0.0203824,0.000233278,0.00261426,-0.131571,0.2,0.2,0,1.28,0,0,0,0.2,-0.2,0,1.28,0,0,0
gen_000138_tz+0.10_tx+0.02_ty+0.00_p-0.05_fx+0.02_fy+0.00,-0.230398,3.4898607,0.555967,0.998893,0.00651931,0.0464976,0.00269785,-1.32799,-0.00358854,-0.00772064,1.42593,-0.190906,-0.0203131,-1.33668,-0.00364179,-0.00775271,1.44162,-0.197904,-0.020378,0.000240681,0.00267709,-0.1149,0.2,0.2,0,1.28,0,0,0,0.2,-0.2,0,1.28,0,0,0,-1.32799,-0.00358854,-0.00772064,1.42593,-0.190906,-0.0203131,-1.33668,-0.00364179,-0.00775271,1.44162,-0.197904,-0.020378,0.000240681,0.00267709,-0.1149,0.2,0.2,0,1.28,0,0,0,0.2,-0.2,0,1.28,0,0,0
gen_000139_tz+0.10_tx+0.02_ty+0.00_p-0.05_fx+0.03_fy+0.00,-0.229627,3.4898622,0.555943,0.999246,0.00651396,0.0381891,0.00261574,-1.31594,-0.00356316,-0.00774645,1.4068,-0.167211,-0.0203072,-1.32474,-0.0036177,-0.00777841,1.42253,-0.174132,-0.0203721,0.00025346,0.00273341,-0.0982883,0.2,0.2,0,1.28,0,0,0,0.2,-0.2,0,1.28,0,0,0,-1.31594,-0.00356316,-0.00774645,1.4068,-0.167211,-0.0203072,-1.32474,-0.0036177,-0.00777841,1.42253,-0.174132,-0.0203721,0.00025346,0.00273341,-0.0982883,0.2,0.2,0,1.28,0,0,0,0.2,-0.2,0,1.28,0,0,0
gen_000140_tz+0.10_tx+0.03_ty+0.00_p-0.05_fx-0.03_fy+0.00,-0.225038,3.4898492,0.556354,0.995272,0.00655597,0.0968506,0.00315948,-1.38865,-0.00357673,-0.00755445,1.52458,-0.329824,-0.0203411,-1.39667,-0.00362143,-0.00758872,1.54019,-0.337394,-0.0204062,0.00020524,0.00230622,-0.215766,0.2,0.2,0,1.28,0,0,0,0.2,-0.2,0,1.28,0,0,0,-1.38865,-0.00357673,-0.00755445,1.52458,-0.329824,-0.0203411,-1.39667,-0.00362143,-0.00758872,1.54019,-0.337394,-0.0204062,0.00020524,0.00230622,-0.215766,0.2,0.2,0,1.28,0,0,0,0.2,-0.2,0,1.28,0,0,0
gen_000141_tz+0.10_tx+0.03_ty+0.00_p-0.05_fx-0.02_fy+0.00,-0.224263,3.4898517,0.55626,0.99606,0.00655201,0.0883893,0.00308364,-1.37986,-0.00359347,-0.00757658,1.51002,-0.307062,-0.0203362,-1.388,-0.00363967,-0.00761036,1.52563,-0.314522,-0.0204012,0.000211027,0.00236653,-0.198787,0.2,0.2,0,1.28,0,0,0,0.2,-0.2,0,1.28,0,0,0,-1.37986,-0.00359347,-0.00757658,1.51002,-0.307062,-0.0203362,-1.388,-0.00363967,-0.00761036,1.52563,-0.314522,-0.0204012,0.000211027,0.00236653,-0.198787,0.2,0.2,0,1.28,0,0,0,0.2,-0.2,0,1.28,0,0,0
gen_000142_tz+0.10_tx+0.03_ty+0.00_p-0.05_fx-0.01_fy+0.00,-0.223489,3.4898539,0.556178,0.996772,0.0065472,0.0799595,0.00300758,-1.37057,-0.00360482,-0.00760083,1.49471,-0.28414,-0.0203313,-1.37882,-0.00365249,-0.00763417,1.51033,-0.291496,-0.0203963,0.000216499,0.00242742,-0.181885,0.2,0.2,0,1.28,0,0,0,0.2,-0.2,0,1.28,0,0,0,-1.37057,-0.00360482,-0.00760083,1.49471,-0.28414,-0.0203313,-1.37882,-0.00365249,-0.00763417,1.51033,-0.291496,-0.0203963,0.000216499,0.00242742,-0.181885,0.2,0.2,0,1.28,0,0,0,0.2,-0.2,0,1.28,0,0,0
gen_000143_tz+0.10_tx+0.03_ty+0.00_p-0.05_fx+0.00_fy+0.00,-0.222716,3.489856,0.556108,0.997411,0.00654146,0.0715594,0.0029312,-1.36075,-0.00361052,-0.00762746,1.47865,-0.26106,-0.0203265,-1.36911,-0.00365962,-0.00766039,1.49429,-0.268317,-0.0203915,0.000221818,0.00248901,-0.165054,0.2,0.2,0,1.28,0,0,0,0.2,-0.2,0,1.28,0,0,0,-1.36075,-0.00361052,-0.00762746,1.47865,-0.26106,-0.0203265,-1.36911,-0.00365962,-0.00766039,1.49429,-0.268317,-0.0203915,0.000221818,0.00248901,-0.165054,0.2,0.2,0,1.28,0,0,0,0.2,-0.2,0,1.28,0,0,0
gen_000144_tz+0.10_tx+0.03_ty+0.00_p-0.05_fx+0.01_fy+0.00,-0.221943,3.4898578,0.55605,0.997976,0.00653483,0.0631851,0.00285431,-1.35039,-0.0036101,-0.00765647,1.46184,-0.237826,-0.0203219,-1.35886,-0.00366061,-0.00768905,1.47749,-0.244991,-0.0203869,0.0002273,0.00255129,-0.148286,0.2,0.2,0,1.28,0,0,0,0.2,-0.2,0,1.28,0,0,0,-1.35039,-0.0036101,-0.00765647,1.46184,-0.237826,-0.0203219,-1.35886,-0.00366061,-0.00768905,1.47749,-0.244991,-0.0203869,0.0002273,0.00255129,-0.148286,0.2,0.2,0,1.28,0,0,0,0.2,-0.2,0,1.28,0,0,0
gen_000145_tz+0.10_tx+0.03_ty+0.00_p-0.05_fx+0.02_fy+0.00,-0.221171,3.4898593,0.556003,0.99847,0.0065273,0.0548328,0.00277671,-1.33948,-0.00360311,-0.00768788,1.44426,-0.21444,-0.0203175,-1.34806,-0.003655,-0.00772017,1.45993,-0.221519,-0.0203824,0.000233276,0.00261425,-0.131572,0.2,0.2,0,1.28,0,0,0,0.2,-0.2,0,1.28,0,0,0,-1.33948,-0.00360311,-0.00768788,1.44426,-0.21444,-0.0203175,-1.34806,-0.003655,-0.00772017,1.45993,-0.221519,-0.0203824,0.000233276,0.00261425,-0.131572,0.2,0.2,0,1.28,0,0,0,0.2,-0.2,0,1.28,0,0,0
gen_000146_tz+0.10_tx+0.03_ty+0.00_p-0.05_fx+0.03_fy+0.00,-0.220398,3.4898608,0.555967,0.998894,0.0065195,0.0464968,0.0026977,-1.32799,-0.00358832,-0.00772012,1.42593,-0.190907,-0.020313,-1.33668,-0.00364156,-0.0077522,1.44162,-0.197905,-0.0203779,0.000240942,0.00267669,-0.114898,0.2,0.2,0,1.28,0,0,0,0.2,-0.2,0,1.28,0,0,0,-1.32799,-0.00358832,-0.00772012,1.42593,-0.190907,-0.020313,-1.33668,-0.00364156,-0.0077522,1.44162,-0.197905,-0.0203779,0.000240942,0.00267669,-0.114898,0.2,0.2,0,1.28,0,0,0,0.2,-0.2,0,1.28,0,0,0
gen_000147_tz+0.10_tx-0.03_ty+0.01_p-0.05_fx-0.03_fy+0.00,-0.280398,3.499224552,0.555964,0.998914,-0.000470718,0.0465091,0.00272532,-1.33321,-0.00505194,-0.00319941,1.43284,-0.192582,-0.00168945,-1.33203,-0.0050494,-0.00317145,1.43557,-0.196483,-0.00165585,0.000831411,0.0166281,-0.114966,0.2,0.2,0,1.28,0,0,0,0.2,-0.2,0,1.28,0,0,0,-1.33321,-0.00505194,-0.00319941,1.43284,-0.192582,-0.00168945,-1.33203,-0.0050494,-0.00317145,1.43557,-0.196483,-0.00165585,0.000831411,0.0166281,-0.114966,0.2,0.2,0,1.28,0,0,0,0.2,-0.2,0,1.28,0,0,0
gen_000148_tz+0.10_tx-0.03_ty+0.01_p-0.05_fx-0.02_fy+0.00,-0.279626,3.49922561,0.555939,0.999267,-0.00047037,0.038192,0.0026882,-1.32117,-0.00498181,-0.00320249,1.41374,-0.168881,-0.00168052,-1.32006,-0.00497917,-0.0031745,1.41648,-0.172731,-0.00164729,0.000637614,0.0166806,-0.0983361,0.2,0.2,0,1.28,0,0,0,0.2,-0.2,0,1.28,0,0,0,-1.32117,-0.00498181,-0.00320249,1.41374,-0.168881,-0.00168052,-1.32006,-0.00497917,-0.0031745,1.41648,-0.172731,-0.00164729,0.000637614,0.0166806,-0.0983361,0.2,0.2,0,1.28,0,0,0,0.2,-0.2,0,1.28,0,0,0
gen_000149_tz+0.10_tx-0.03_ty+0.01_p-0.05_fx-0.01_fy+0.00,-0.278853,3.499226373,0.555926,0.99955,-0.000472524,0.0298783,0.00265606,-1.30852,-0.00491874,-0.0032153,1.39386,-0.145034,-0.00167277,-1.30746,-0.004916,-0.00318731,1.39662,-0.148839,-0.0016399,0.00043297,0.0167352,-0.081719,0.2,0.2,0,1.28,0,0,0,0.2,-0.2,0,1.28,0,0,0,-1.30852,-0.00491874,-0.0032153,1.39386,-0.145034,-0.00167277,-1.30746,-0.004916,-0.00318731,1.39662,-0.148839,-0.0016399,0.00043297,0.0167352,-0.081719,0.2,0.2,0,1.28,0,0,0,0.2,-0.2,0,1.28,0,0,0
gen_000150_tz+0.10_tx-0.03_ty+0.01_p-0.05_fx+0.00_fy+0.00,-0.278077,3.499227233,0.555923,0.999764,-0.000472965,0.0215556,0.00262392,-1.29521,-0.00485399,-0.00322645,1.37321,-0.121048,-0.00166423,-1.2942,-0.00485118,-0.00319847,1.37598,-0.12481,-0.00163172,0.000226776,0.0167831,-0.0650889,0.2,0.2,0,1.28,0,0,0,0.2,-0.2,0,1.28,0,0,0,-1.29521,-0.00485399,-0.00322645,1.37321,-0.121048,-0.00166423,-1.2942,-0.00485118,-0.00319847,1.37598,-0.12481,-0.00163172,0.000226776,0.0167831,-0.0650889,0.2,0.2,0,1.28,0,0,0,0.2,-0.2,0,1.28,0,0,0
gen_000151_tz+0.10_tx-0.03_ty+0.01_p-0.05_fx+0.01_fy+0.00,-0.277299,3.499228247,0.555931,0.999909,-0.000471053,0.0132192,0.00259076,-1.28122,-0.00478574,-0.0032341,1.35176,-0.0969196,-0.00165464,-1.28028,-0.00478289,-0.00320614,1.35455,-0.100638,-0.00162254,2.10128e-05,0.0168228,-0.0484351,0.2,0.2,0,1.28,0,0,0,0.2,-0.2,0,1.28,0,0,0,-1.28122,-0.00478574,-0.0032341,1.35176,-0.0969196,-0.00165464,-1.28028,-0.00478289,-0.00320614,1.35455,-0.100638,-0.00162254,2.10128e-05,0.0168228,-0.0484351,0.2,0.2,0,1.28,0,0,0,0.2,-0.2,0,1.28,0,0,0
gen_000152_tz+0.10_tx-0.03_ty+0.01_p-0.05_fx+0.02_fy+0.00,-0.276517,3.499229379,0.555949,0.999985,-0.000467186,0.00486063,0.00255687,-1.26654,-0.00471446,-0.00323925,1.32951,-0.0726451,-0.00164422,-1.26566,-0.0047116,-0.00321134,1.33232,-0.0763213,-0.00161254,-0.000185026,0.0168553,-0.03174,0.2,0.2,0,1.28,0,0,0,0.2,-0.2,0,1.28,0,0,0,-1.26654,-0.00471446,-0.00323925,1.32951,-0.0726451,-0.00164422,-1.26566,-0.0047116,-0.00321134,1.33232,-0.0763213,-0.00161254,-0.000185026,0.0168553,-0.03174,0.2,0.2,0,1.28,0,0,0,0.2,-0.2,0,1.28,0,0,0
gen_000153_tz+0.10_tx-0.03_ty+0.01_p-0.05_fx+0.03_fy+0.00,-0.275731,3.499230611,0.555979,0.99999,-0.000461562,-0.00352998,0.00252235,-1.25113,-0.00464027,-0.00324236,1.30644,-0.0482212,-0.00163307,-1.25031,-0.00463742,-0.00321453,1.30927,-0.0518559,-0.00160184,-0.000391711,0.016881,-0.0149825,0.2,0.2,0,1.28,0,0,0,0.2,-0.2,0,1.28,0,0,0,-1.25113,-0.00464027,-0.00324236,1.30644,-0.0482212,-0.00163307,-1.25031,-0.00463742,-0.00321453,1.30927,-0.0518559,-0.00160184,-0.000391711,0.016881,-0.0149825,0.2,0.2,0,1.28,0,0,0,0.2,-0.2,0,1.28,0,0,0
gen_000154_tz+0.10_tx-0.02_ty+0.01_p-0.05_fx-0.03_fy+0.00,-0.27117,3.499223587,0.555999,0.998491,-0.0004693,0.0548422,0.00276238,-1.34467,-0.00512038,-0.00319454,1.45117,-0.216134,-0.00169765,-1.34343,-0.00511798,-0.00316664,1.4539,-0.220087,-0.00166368,0.00102447,0.0165688,-0.131636,0.2,0.2,0,1.28,0,0,0,0.2,-0.2,0,1.28,0,0,0,-1.34467,-0.00512038,-0.00319454,1.45117,-0.216134,-0.00169765,-1.34343,-0.00511798,-0.00316664,1.4539,-0.220087,-0.00166368,0.00102447,0.0165688,-0.131636,0.2,0.2,0,1.28,0,0,0,0.2,-0.2,0,1.28,0,0,0
gen_000155_tz+0.10_tx-0.02_ty+0.01_p-0.05_fx-0.02_fy+0.00,-0.270398,3.49922455,0.555964,0.998914,-0.000470751,0.0465093,0.00272531,-1.33321,-0.0050519,-0.00319949,1.43284,-0.192582,-0.00168948,-1.33203,-0.00504937,-0.00317154,1.43557,-0.196483,-0.00165587,0.000831445,0.0166282,-0.114967,0.2,0.2,0,1.28,0,0,0,0.2,-0.2,0,1.28,0,0,0,-1.33321,-0.0050519,-0.00319949,1.43284,-0.192582,-0.00168948,-1.33203,-0.00504937,-0.00317154,1.43557,-0.196483,-0.00165587,0.000831445,0.0166282,-0.114967,0.2,0.2,0,1.28,0,0,0,0.2,-0.2,0,1.28,0,0,0
gen_000156_tz+0.10_tx-0.02_ty+0.01_p-0.05_fx-0.01_fy+0.00,-0.269626,3.499225607,0.555939,0.999267,-0.000470404,0.0381922,0.00268818,-1.32117,-0.00498177,-0.00320257,1.41374,-0.168881,-0.00168054,-1.32006,-0.00497913,-0.00317459,1.41648,-0.17273,-0.00164732,0.000637651,0.0166807,-0.0983366,0.2,0.2,0,1.28,0,0,0,0.2,-0.2,0,1.28,0,0,0,-1.32117,-0.00498177,-0.00320257,1.41374,-0.168881,-0.00168054,-1.32006,-0.00497913,-0.00317459,1.41648,-0.17273,-0.00164732,0.000637651,0.0166807,-0.0983366,0.2,0.2,0,1.28,0,0,0,0.2,-0.2,0,1.28,0,0,0
gen_000157_tz+0.10_tx-0.02_ty+0.01_p-0.05_fx+0.00_fy+0.00,-0.268853,3.499226371,0.555926,0.99955,-0.000472539,0.0298784,0.00265605,-1.30852,-0.00491872,-0.00321534,1.39386,-0.145034,-0.00167278,-1.30746,-0.00491598,-0.00318735,1.39662,-0.148839,-0.00163991,0.000432988,0.0167353,-0.0817193,0.2,0.2,0,1.28,0,0,0,0.2,-0.2,0,1.28,0,0,0,-1.30852,-0.00491872,-0.00321534,1.39386,-0.145034,-0.00167278,-1.30746,-0.00491598,-0.00318735,1.39662,-0.148839,-0.00163991,0.000432988,0.0167353,-0.0817193,0.2,0.2,0,1.28,0,0,0,0.2,-0.2,0,1.28,0,0,0
gen_000158_tz+0.10_tx-0.02_ty+0.01_p-0.05_fx+0.01_fy+0.00,-0.268077,3.499227232,0.555923,0.999764,-0.000472969,0.0215557,0.00262392,-1.29521,-0.00485399,-0.00322646,1.37321,-0.121048,-0.00166423,-1.2942,-0.00485117,-0.00319848,1.37598,-0.12481,-0.00163173,0.000226783,0.0167831,-0.0650891,0.2,0.2,0,1.28,0,0,0,0.2,-0.2,0,1.28,0,0,0,-1.29521,-0.00485399,-0.00322646,1.37321,-0.121048,-0.00166423,-1.2942,-0.00485117,-0.00319848,1.37598,-0.12481,-0.00163173,0.000226783,0.0167831,-0.0650891,0.2,0.2,0,1.28,0,0,0,0.2,-0.2,0,1.28,0,0,0
gen_000159_tz+0.10_tx-0.02_ty+0.01_p-0.05_fx+0.02_fy+0.00,-0.267299,3.499228247,0.555931,0.999909,-0.000471052,0.0132192,0.00259075,-1.28122,-0.00478574,-0.0032341,1.35176,-0.0969195,-0.00165464,-1.28028,-0.00478289,-0.00320614,1.35455,-0.100638,-0.00162254,2.10152e-05,0.0168228,-0.0484352,0.2,0.2,0,1.28,0,0,0,0.2,-0.2,0,1.28,0,0,0,-1.28122,-0.00478574,-0.0032341,1.35176,-0.0969195,-0.00165464,-1.28028,-0.00478289,-0.00320614,1.35455,-0.100638,-0.00162254,2.10152e-05,0.0168228,-0.0484352,0.2,0.2,0,1.28,0,0,0,0.2,-0.2,0,1.28,0,0,0
gen_000160_tz+0.10_tx-0.02_ty+0.01_p-0.05_fx+0.03_fy+0.00,-0.266517,3.49922938,0.555949,0.999985,-0.000467183,0.00486069,0.00255687,-1.26654,-0.00471446,-0.00323924,1.32951,-0.072645,-0.00164421,-1.26566,-0.0047116,-0.00321133,1.33232,-0.0763213,-0.00161254,-0.000185024,0.0168553,-0.0317401,0.2,0.2,0,1.28,0,0,0,0.2,-0.2,0,1.28,0,0,0,-1.26654,-0.00471446,-0.00323924,1.32951,-0.072645,-0.00164421,-1.26566,-0.0047116,-0.00321133,1.33232,-0.0763213,-0.00161254,-0.000185024,0.0168553,-0.0317401,0.2,0.2,0,1.28,0,0,0,0.2,-0.2,0,1.28,0,0,0
gen_000161_tz+0.10_tx-0.01_ty+0.01_p-0.05_fx-0.03_fy+0.00,-0.261942,3.499222776,0.556046,0.997997,-0.000465441,0.0631935,0.00279865,-1.35555,-0.0051859,-0.00318615,1.46873,-0.239538,-0.00170478,-1.35425,-0.00518367,-0.00315831,1.47146,-0.243545,-0.00167047,0.00121809,0.0165011,-0.14835,0.2,0.2,0,1.28,0,0,0,0.2,-0.2,0,1.28,0,0,0,-1.35555,-0.0051859,-0.00318615,1.46873,-0.239538,-0.00170478,-1.35425,-0.00518367,-0.00315831,1.47146,-0.243545,-0.00167047,0.00121809,0.0165011,-0.14835,0.2,0.2,0,1.28,0,0,0,0.2,-0.2,0,1.28,0,0,0
gen_000162_tz+0.10_tx-0.01_ty+0.01_p-0.05_fx-0.02_fy+0.00,-0.26117,3.499223585,0.555999,0.998491,-0.00046932,0.0548424,0.00276237,-1.34467,-0.00512036,-0.00319459,1.45117,-0.216134,-0.00169766,-1.34343,-0.00511796,-0.00316669,1.4539,-0.220087,-0.00166369,0.00102449,0.0165688,-0.131636,0.2,0.2,0,1.28,0,0,0,0.2,-0.2,0,1.28,0,0,0,-1.34467,-0.00512036,-0.00319459,1.45117,-0.216134,-0.00169766,-1.34343,-0.00511796,-0.00316669,1.4539,-0.220087,-0.00166369,0.00102449,0.0165688,-0.131636,0.2,0.2,0,1.28,0,0,0,0.2,-0.2,0,1.28,0,0,0
gen_000163_tz+0.10_tx-0.01_ty+0.01_p-0.05_fx-0.01_fy+0.00,-0.260398,3.499224548,0.555964,0.998914,-0.000470773,0.0465095,0.0027253,-1.33321,-0.00505188,-0.00319955,1.43284,-0.192582,-0.00168949,-1.33203,-0.00504934,-0.00317159,1.43557,-0.196483,-0.00165588,0.000831471,0.0166282,-0.114967,0.2,0.2,0,1.28,0,0,0,0.2,-0.2,0,1.28,0,0,0,-1.33321,-0.00505188,-0.00319955,1.43284,-0.192582,-0.00168949,-1.33203,-0.00504934,-0.00317159,1.43557,-0.196483,-0.00165588,0.000831471,0.0166282,-0.114967,0.2,0.2,0,1.28,0,0,0,0.2,-0.2,0,1.28,0,0,0
gen_000164_tz+0.10_tx-0.01_ty+0.01_p-0.05_fx+0.00_fy+0.00,-0.259626,3.499225605,0.555939,0.999267,-0.000470421,0.0381924,0.00268818,-1.32117,-0.00498175,-0.00320262,1.41374,-0.168881,-0.00168056,-1.32006,-0.00497911,-0.00317463,1.41648,-0.17273,-0.00164733,0.000637674,0.0166807,-0.098337,0.2,0.2,0,1.28,0,0,0,0.2,-0.2,0,1.28,0,0,0,-1.32117,-0.00498175,-0.00320262,1.41374,-0.168881,-0.00168056,-1.32006,-0.00497911,-0.00317463,1.41648,-0.17273,-0.00164733,0.000637674,0.0166807,-0.098337,0.2,0.2,0,1.28,0,0,0,0.2,-0.2,0,1.28,0,0,0
gen_000165_tz+0.10_tx-0.01_ty+0.01_p-0.05_fx+0.01_fy+0.00,-0.258853,3.499226328,0.555926,0.99955,-0.000473015,0.0298779,0.00265665,-1.30852,-0.00491976,-0.00321664,1.39386,-0.145034,-0.00167299,-1.30745,-0.00491702,-0.00318864,1.39662,-0.14884,-0.00164011,0.000431807,0.0167363,-0.0817182,0.2,0.2,0,1.28,0,0,0,0.2,-0.2,0,1.28,0,0,0,-1.30852,-0.00491976,-0.00321664,1.39386,-0.145034,-0.00167299,-1.30745,-0.00491702,-0.00318864,1.39662,-0.14884,-0.00164011,0.000431807,0.0167363,-0.0817182,0.2,0.2,0,1.28,0,0,0,0.2,-0.2,0,1.28,0,0,0
gen_000166_tz+0.10_tx-0.01_ty+0.01_p-0.05_fx+0.02_fy+0.00,-0.258077,3.499227233,0.555923,0.999764,-0.000472965,0.0215558,0.00262392,-1.29521,-0.00485399,-0.00322645,1.37321,-0.121048,-0.00166423,-1.2942,-0.00485118,-0.00319847,1.37598,-0.12481,-0.00163173,0.000226784,0.0167831,-0.0650893,0.2,0.2,0,1.28,0,0,0,0.2,-0.2,0,1.28,0,0,0,-1.29521,-0.00485399,-0.00322645,1.37321,-0.121048,-0.00166423,-1.2942,-0.00485118,-0.00319847,1.37598,-0.12481,-0.00163173,0.000226784,0.0167831,-0.0650893,0.2,0.2,0,1.28,0,0,0,0.2,-0.2,0,1.28,0,0,0
gen_000167_tz+0.10_tx-0.01_ty+0.01_p-0.05_fx+0.03_fy+0.00,-0.257299,3.499228248,0.555931,0.999909,-0.000471046,0.0132193,0.00259076,-1.28123,-0.00478574,-0.00323408,1.35176,-0.0969195,-0.00165463,-1.28028,-0.00478289,-0.00320612,1.35455,-0.100638,-0.00162253,2.10154e-05,0.0168228,-0.0484353,0.2,0.2,0,1.28,0,0,0,0.2,-0.2,0,1.28,0,0,0,-1.28123,-0.00478574,-0.00323408,1.35176,-0.0969195,-0.00165463,-1.28028,-0.00478289,-0.00320612,1.35455,-0.100638,-0.00162253,2.10154e-05,0.0168228,-0.0484353,0.2,0.2,0,1.28,0,0,0,0.2,-0.2,0,1.28,0,0,0
gen_000168_tz+0.10_tx+0.00_ty+0.01_p-0.05_fx-0.03_fy+0.00,-0.252715,3.499222067,0.556105,0.997432,-0.000459696,0.0715678,0.00283485,-1.36588,-0.00524982,-0.00317579,1.48554,-0.262794,-0.0017111,-1.36453,-0.00524779,-0.00314802,1.48826,-0.266854,-0.00167646,0.00141088,0.0164263,-0.165119,0.2,0.2,0,1.28,0,0,0,0.2,-0.2,0,1.28,0,0,0,-1.36588,-0.00524982,-0.00317579,1.48554,-0.262794,-0.0017111,-1.36453,-0.00524779,-0.00314802,1.48826,-0.266854,-0.00167646,0.00141088,0.0164263,-0.165119,0.2,0.2,0,1.28,0,0,0,0.2,-0.2,0,1.28,0,0,0
gen_000169_tz+0.10_tx+0.00_ty+0.01_p-0.05_fx-0.02_fy+0.00,-0.251942,3.499222775,0.556046,0.997997,-0.000465454,0.0631936,0.00279864,-1.35555,-0.00518589,-0.00318618,1.46873,-0.239538,-0.00170479,-1.35425,-0.00518366,-0.00315834,1.47146,-0.243545,-0.00167048,0.00121811,0.0165011,-0.14835,0.2,0.2,0,1.28,0,0,0,0.2,-0.2,0,1.28,0,0,0,-1.35555,-0.00518589,-0.00318618,1.46873,-0.239538,-0.00170479,-1.35425,-0.00518366,-0.00315834,1.47146,-0.243545,-0.00167048,0.00121811,0.0165011,-0.14835,0.2,0.2,0,1.28,0,0,0,0.2,-0.2,0,1.28,0,0,0
gen_000170_tz+0.10_tx+0.00_ty+0.01_p-0.05_fx-0.01_fy+0.00,-0.25117,3.499223584,0.555999,0.998491,-0.000469332,0.0548425,0.00276237,-1.34467,-0.00512034,-0.00319462,1.45117,-0.216134,-0.00169767,-1.34343,-0.00511794,-0.00316672,1.4539,-0.220087,-0.0016637,0.00102451,0.0165688,-0.131636,0.2,0.2,0,1.28,0,0,0,0.2,-0.2,0,1.28,0,0,0,-1.34467,-0.00512034,-0.00319462,1.45117,-0.216134,-0.00169767,-1.34343,-0.00511794,-0.00316672,1.4539,-0.220087,-0.0016637,0.00102451,0.0165688,-0.131636,0.2,0.2,0,1.28,0,0,0,0.2,-0.2,0,1.28,0,0,0
gen_000171_tz+0.10_tx+0.00_ty+0.01_p-0.05_fx+0.00_fy+0.00,-0.250398,3.499224594,0.555964,0.998914,-0.000470274,0.046509,0.00272468,-1.33321,-0.00505078,-0.0031982,1.43284,-0.192583,-0.00168926,-1.33203,-0.00504825,-0.00317024,1.43557,-0.196483,-0.00165566,0.000832655,0.0166272,-0.114966,0.2,0.2,0,1.28,0,0,0,0.2,-0.2,0,1.28,0,0,0,-1.33321,-0.00505078,-0.0031982,1.43284,-0.192583,-0.00168926,-1.33203,-0.00504825,-0.00317024,1.43557,-0.196483,-0.00165566,0.000832655,0.0166272,-0.114966,0.2,0.2,0,1.28,0,0,0,0.2,-0.2,0,1.28,0,0,0
gen_000172_tz+0.10_tx+0.00_ty+0.01_p-0.05_fx+0.01_fy+0.00,-0.249626,3.499225606,0.555939,0.999267,-0.000470417,0.0381926,0.00268818,-1.32117,-0.00498175,-0.0032026,1.41374,-0.16888,-0.00168055,-1.32006,-0.00497912,-0.00317462,1.41648,-0.17273,-0.00164733,0.00063768,0.0166807,-0.0983374,0.2,0.2,0,1.28,0,0,0,0.2,-0.2,0,1.28,0,0,0,-1.32117,-0.00498175,-0.0032026,1.41374,-0.16888,-0.00168055,-1.32006,-0.00497912,-0.00317462,1.41648,-0.17273,-0.00164733,0.00063768,0.0166807,-0.0983374,0.2,0.2,0,1.28,0,0,0,0.2,-0.2,0,1.28,0,0,0
gen_000173_tz+0.10_tx+0.00_ty+0.01_p-0.05_fx+0.02_fy+0.00,-0.248853,3.499226329,0.555926,0.99955,-0.000473004,0.029878,0.00265665,-1.30852,-0.00491977,-0.00321661,1.39386,-0.145034,-0.00167298,-1.30745,-0.00491703,-0.00318862,1.39662,-0.148839,-0.00164011,0.000431804,0.0167362,-0.0817184,0.2,0.2,0,1.28,0,0,0,0.2,-0.2,0,1.28,0,0,0,-1.30852,-0.00491977,-0.00321661,1.39386,-0.145034,-0.00167298,-1.30745,-0.00491703,-0.00318862,1.39662,-0.148839,-0.00164011,0.000431804,0.0167362,-0.0817184,0.2,0.2,0,1.28,0,0,0,0.2,-0.2,0,1.28,0,0,0
gen_000174_tz+0.10_tx+0.00_ty+0.01_p-0.05_fx+0.03_fy+0.00,-0.248077,3.499227205,0.555923,0.999764,-0.000473273,0.021555,0.00262435,-1.29521,-0.00485475,-0.0032273,1.37321,-0.121048,-0.00166435,-1.2942,-0.00485194,-0.00319931,1.37598,-0.124811,-0.00163185,0.000225909,0.0167837,-0.0650877,0.2,0.2,0,1.28,0,0,0,0.2,-0.2,0,1.28,0,0,0,-1.29521,-0.00485475,-0.0032273,1.37321,-0.121048,-0.00166435,-1.2942,-0.00485194,-0.00319931,1.37598,-0.124811,-0.00163185,0.000225909,0.0167837,-0.0650877,0.2,0.2,0,1.28,0,0,0,0.2,-0.2,0,1.28,0,0,0
gen_000175_tz+0.10_tx+0.01_ty+0.01_p-0.05_fx-0.03_fy+0.00,-0.243488,3.499221465,0.556175,0.996793,-0.000451992,0.0799678,0.00287092,-1.37566,-0.00531205,-0.00316332,1.50159,-0.285898,-0.00171657,-1.37426,-0.00531025,-0.00313564,1.50432,-0.290013,-0.00168161,0.0016029,0.0163441,-0.181951,0.2,0.2,0,1.28,0,0,0,0.2,-0.2,0,1.28,0,0,0,-1.37566,-0.00531205,-0.00316332,1.50159,-0.285898,-0.00171657,-1.37426,-0.00531025,-0.00313564,1.50432,-0.290013,-0.00168161,0.0016029,0.0163441,-0.181951,0.2,0.2,0,1.28,0,0,0,0.2,-0.2,0,1.28,0,0,0
gen_000176_tz+0.10_tx+0.01_ty+0.01_p-0.05_fx-0.02_fy+0.00,-0.242715,3.499222066,0.556105,0.997432,-0.000459703,0.0715679,0.00283485,-1.36588,-0.00524981,-0.00317581,1.48554,-0.262794,-0.0017111,-1.36453,-0.00524778,-0.00314804,1.48826,-0.266854,-0.00167646,0.00141089,0.0164263,-0.165119,0.2,0.2,0,1.28,0,0,0,0.2,-0.2,0,1.28,0,0,0,-1.36588,-0.00524981,-0.00317581,1.48554,-0.262794,-0.0017111,-1.36453,-0.00524778,-0.00314804,1.48826,-0.266854,-0.00167646,0.00141089,0.0164263,-0.165119,0.2,0.2,0,1.28,0,0,0,0.2,-0.2,0,1.28,0,0,0
gen_000177_tz+0.10_tx+0.01_ty+0.01_p-0.05_fx-0.01_fy+0.00,-0.241942,3.499222774,0.556046,0.997997,-0.00046546,0.0631937,0.00279864,-1.35555,-0.00518588,-0.0031862,1.46873,-0.239538,-0.00170479,-1.35425,-0.00518365,-0.00315835,1.47146,-0.243545,-0.00167048,0.00121812,0.0165011,-0.14835,0.2,0.2,0,1.28,0,0,0,0.2,-0.2,0,1.28,0,0,0,-1.35555,-0.00518588,-0.0031862,1.46873,-0.239538,-0.00170479,-1.35425,-0.00518365,-0.00315835,1.47146,-0.243545,-0.00167048,0.00121812,0.0165011,-0.14835,0.2,0.2,0,1.28,0,0,0,0.2,-0.2,0,1.28,0,0,0
gen_000178_tz+0.10_tx+0.01_ty+0.01_p-0.05_fx+0.00_fy+0.00,-0.24117,3.499223584,0.555999,0.998491,-0.000469333,0.0548426,0.00276237,-1.34467,-0.00512034,-0.00319463,1.45117,-0.216133,-0.00169767,-1.34343,-0.00511794,-0.00316672,1.4539,-0.220087,-0.0016637,0.00102451,0.0165688,-0.131636,0.2,0.2,0,1.28,0,0,0,0.2,-0.2,0,1.28,0,0,0,-1.34467,-0.00512034,-0.00319463,1.45117,-0.216133,-0.00169767,-1.34343,-0.00511794,-0.00316672,1.4539,-0.220087,-0.0016637,0.00102451,0.0165688,-0.131636,0.2,0.2,0,1.28,0,0,0,0.2,-0.2,0,1.28,0,0,0
gen_000179_tz+0.10_tx+0.01_ty+0.01_p-0.05_fx+0.01_fy+0.00,-0.240398,3.499224595,0.555964,0.998914,-0.000470265,0.0465092,0.00272468,-1.33321,-0.00505079,-0.00319817,1.43284,-0.192582,-0.00168926,-1.33203,-0.00504826,-0.00317022,1.43557,-0.196483,-0.00165565,0.000832654,0.0166272,-0.114966,0.2,0.2,0,1.28,0,0,0,0.2,-0.2,0,1.28,0,0,0,-1.33321,-0.00505079,-0.00319817,1.43284,-0.192582,-0.00168926,-1.33203,-0.00504826,-0.00317022,1.43557,-0.196483,-0.00165565,0.000832654,0.0166272,-0.114966,0.2,0.2,0,1.28,0,0,0,0.2,-0.2,0,1.28,0,0,0
gen_000180_tz+0.10_tx+0.01_ty+0.01_p-0.05_fx+0.02_fy+0.00,-0.239626,3.499225608,0.555939,0.999267,-0.000470393,0.0381928,0.00268819,-1.32117,-0.00498178,-0.00320254,1.41374,-0.16888,-0.00168054,-1.32006,-0.00497914,-0.00317456,1.41648,-0.17273,-0.00164731,0.000637669,0.0166807,-0.0983378,0.2,0.2,0,1.28,0,0,0,0.2,-0.2,0,1.28,0,0,0,-1.32117,-0.00498178,-0.00320254,1.41374,-0.16888,-0.00168054,-1.32006,-0.00497914,-0.00317456,1.41648,-0.17273,-0.00164731,0.000637669,0.0166807,-0.0983378,0.2,0.2,0,1.28,0,0,0,0.2,-0.2,0,1.28,0,0,0
gen_000181_tz+0.10_tx+0.01_ty+0.01_p-0.05_fx+0.03_fy+0.00,-0.238853,3.499226331,0.555926,0.99955,-0.000472982,0.0298782,0.00265666,-1.30852,-0.00491979,-0.00321655,1.39386,-0.145034,-0.00167297,-1.30745,-0.00491705,-0.00318856,1.39662,-0.148839,-0.00164009,0.000431795,0.0167362,-0.0817187,0.2,0.2,0,1.28,0,0,0,0.2,-0.2,0,1.28,0,0,0,-1.30852,-0.00491979,-0.00321655,1.39386,-0.145034,-0.00167297,-1.30745,-0.00491705,-0.00318856,1.39662,-0.148839,-0.00164009,0.000431795,0.0167362,-0.0817187,0.2,0.2,0,1.28,0,0,0,0.2,-0.2,0,1.28,0,0,0
gen_000182_tz+0.10_tx+0.02_ty+0.01_p-0.05_fx-0.03_fy+0.00,-0.234262,3.499220959,0.556257,0.996081,-0.000442447,0.0883968,0.00290704,-1.38492,-0.00537297,-0.00314912,1.51689,-0.308848,-0.00172124,-1.38347,-0.00537143,-0.00312155,1.51962,-0.313019,-0.00168599,0.00179376,0.0162548,-0.198853,0.2,0.2,0,1.28,0,0,0,0.2,-0.2,0,1.28,0,0,0,-1.38492,-0.00537297,-0.00314912,1.51689,-0.308848,-0.00172124,-1.38347,-0.00537143,-0.00312155,1.51962,-0.313019,-0.00168599,0.00179376,0.0162548,-0.198853,0.2,0.2,0,1.28,0,0,0,0.2,-0.2,0,1.28,0,0,0
gen_000183_tz+0.10_tx+0.02_ty+0.01_p-0.05_fx-0.02_fy+0.00,-0.233488,3.499221465,0.556175,0.996793,-0.000451997,0.0799679,0.00287092,-1.37566,-0.00531205,-0.00316333,1.50159,-0.285898,-0.00171657,-1.37426,-0.00531024,-0.00313565,1.50432,-0.290013,-0.00168162,0.0016029,0.0163441,-0.181951,0.2,0.2,0,1.28,0,0,0,0.2,-0.2,0,1.28,0,0,0,-1.37566,-0.00531205,-0.00316333,1.50159,-0.285898,-0.00171657,-1.37426,-0.00531024,-0.00313565,1.50432,-0.290013,-0.00168162,0.0016029,0.0163441,-0.181951,0.2,0.2,0,1.28,0,0,0,0.2,-0.2,0,1.28,0,0,0
gen_000184_tz+0.10_tx+0.02_ty+0.01_p-0.05_fx-0.01_fy+0.00,-0.232715,3.499222066,0.556105,0.997432,-0.000459706,0.0715679,0.00283485,-1.36588,-0.00524981,-0.00317581,1.48554,-0.262794,-0.0017111,-1.36453,-0.00524778,-0.00314805,1.48826,-0.266854,-0.00167646,0.00141089,0.0164263,-0.165119,0.2,0.2,0,1.28,0,0,0,0.2,-0.2,0,1.28,0,0,0,-1.36588,-0.00524981,-0.00317581,1.48554,-0.262794,-0.0017111,-1.36453,-0.00524778,-0.00314805,1.48826,-0.266854,-0.00167646,0.00141089,0.0164263,-0.165119,0.2,0.2,0,1.28,0,0,0,0.2,-0.2,0,1.28,0,0,0
gen_000185_tz+0.10_tx+0.02_ty+0.01_p-0.05_fx+0.00_fy+0.00,-0.231942,3.499222774,0.556046,0.997997,-0.000465458,0.0631938,0.00279864,-1.35555,-0.00518588,-0.00318619,1.46873,-0.239538,-0.00170479,-1.35425,-0.00518365,-0.00315835,1.47146,-0.243545,-0.00167048,0.00121812,0.0165011,-0.14835,0.2,0.2,0,1.28,0,0,0,0.2,-0.2,0,1.28,0,0,0,-1.35555,-0.00518588,-0.00318619,1.46873,-0.239538,-0.00170479,-1.35425,-0.00518365,-0.00315835,1.47146,-0.243545,-0.00167048,0.00121812,0.0165011,-0.14835,0.2,0.2,0,1.28,0,0,0,0.2,-0.2,0,1.28,0,0,0
gen_000186_tz+0.10_tx+0.02_ty+0.01_p-0.05_fx+0.01_fy+0.00,-0.23117,3.499223585,0.555999,0.998491,-0.000469324,0.0548427,0.00276237,-1.34467,-0.00512035,-0.0031946,1.45117,-0.216133,-0.00169767,-1.34343,-0.00511795,-0.0031667,1.4539,-0.220087,-0.0016637,0.00102451,0.0165688,-0.131636,0.2,0.2,0,1.28,0,0,0,0.2,-0.2,0,1.28,0,0,0,-1.34467,-0.00512035,-0.0031946,1.45117,-0.216133,-0.00169767,-1.34343,-0.00511795,-0.0031667,1.4539,-0.220087,-0.0016637,0.00102451,0.0165688,-0.131636,0.2,0.2,0,1.28,0,0,0,0.2,-0.2,0,1.28,0,0,0
gen_000187_tz+0.10_tx+0.02_ty+0.01_p-0.05_fx+0.02_fy+0.00,-0.230398,3.499224597,0.555964,0.998914,-0.000470239,0.0465093,0.00272469,-1.33321,-0.00505081,-0.00319811,1.43284,-0.192582,-0.00168924,-1.33203,-0.00504828,-0.00317015,1.43557,-0.196483,-0.00165564,0.000832639,0.0166271,-0.114967,0.2,0.2,0,1.28,0,0,0,0.2,-0.2,0,1.28,0,0,0,-1.33321,-0.00505081,-0.00319811,1.43284,-0.192582,-0.00168924,-1.33203,-0.00504828,-0.00317015,1.43557,-0.196483,-0.00165564,0.000832639,0.0166271,-0.114967,0.2,0.2,0,1.28,0,0,0,0.2,-0.2,0,1.28,0,0,0
gen_000188_tz+0.10_tx+0.02_ty+0.01_p-0.05_fx+0.03_fy+0.00,-0.229626,3.499225611,0.555939,0.999267,-0.000470352,0.038193,0.0026882,-1.32117,-0.00498181,-0.00320244,1.41374,-0.16888,-0.00168051,-1.32006,-0.00497918,-0.00317445,1.41648,-0.17273,-0.00164729,0.000637647,0.0166806,-0.0983383,0.2,0.2,0,1.28,0,0,0,0.2,-0.2,0,1.28,0,0,0,-1.32117,-0.00498181,-0.00320244,1.41374,-0.16888,-0.00168051,-1.32006,-0.00497918,-0.00317445,1.41648,-0.17273,-0.00164729,0.000637647,0.0166806,-0.0983383,0.2,0.2,0,1.28,0,0,0,0.2,-0.2,0,1.28,0,0,0
