meetpal644/Sit-to-Stand-Motion-Synthesis-For-Humanoids/keyframes/chair1_pose_0.04z.csv
name,qpos_0,qpos_1,qpos_2,qpos_3,qpos_4,qpos_5,qpos_6,qpos_7,qpos_8,qpos_9,qpos_10,qpos_11,qpos_12,qpos_13,qpos_14,qpos_15,qpos_16,qpos_17,qpos_18,qpos_19,qpos_20,qpos_21,qpos_22,qpos_23,qpos_24,qpos_25,qpos_26,qpos_27,qpos_28,qpos_29,qpos_30,qpos_31,qpos_32,qpos_33,qpos_34,qpos_35,ctrl_0,ctrl_1,ctrl_2,ctrl_3,ctrl_4,ctrl_5,ctrl_6,ctrl_7,ctrl_8,ctrl_9,ctrl_10,ctrl_11,ctrl_12,ctrl_13,ctrl_14,ctrl_15,ctrl_16,ctrl_17,ctrl_18,ctrl_19,ctrl_20,ctrl_21,ctrl_22,ctrl_23,ctrl_24,ctrl_25,ctrl_26,ctrl_27,ctrl_28
gen_000000_tz+0.04_tx-0.03_ty-0.02_p-0.05_fx-0.03_fy+0.00,-0.279264,1.9714048,0.496327,0.999206,0.023682,0.0319273,0.002757,-1.45553,-0.00391638,-0.0162429,1.64251,-0.250836,-0.0637209,-1.48746,-0.00445988,-0.0172295,1.68365,-0.260026,-0.0648407,-0.00122999,-0.0315067,-0.0856602,0.2,0.2,0,1.28,0,0,0,0.2,-0.2,0,1.28,0,0,0,-1.45553,-0.00391638,-0.0162429,1.64251,-0.250836,-0.0637209,-1.48746,-0.00445988,-0.0172295,1.68365,-0.260026,-0.0648407,-0.00122999,-0.0315067,-0.0856602,0.2,0.2,0,1.28,0,0,0,0.2,-0.2,0,1.28,0,0,0
gen_000001_tz+0.04_tx-0.03_ty-0.02_p-0.05_fx-0.02_fy+0.00,-0.2785,1.971406,0.496331,0.999437,0.0236598,0.0236405,0.00260933,-1.44457,-0.00410703,-0.0162952,1.62343,-0.226142,-0.0637094,-1.47664,-0.00466066,-0.0172733,1.66455,-0.235173,-0.0648277,-0.000802927,-0.0314317,-0.069089,0.2,0.2,0,1.28,0,0,0,0.2,-0.2,0,1.28,0,0,0,-1.44457,-0.00410703,-0.0162952,1.62343,-0.226142,-0.0637094,-1.47664,-0.00466066,-0.0172733,1.66455,-0.235173,-0.0648277,-0.000802927,-0.0314317,-0.069089,0.2,0.2,0,1.28,0,0,0,0.2,-0.2,0,1.28,0,0,0
gen_000002_tz+0.04_tx-0.03_ty-0.02_p-0.05_fx-0.01_fy+0.00,-0.277744,1.9714067,0.496346,0.999598,0.0236344,0.0154367,0.00245904,-1.43314,-0.00427759,-0.0163533,1.60362,-0.201358,-0.063698,-1.46534,-0.00484069,-0.0173235,1.64473,-0.210249,-0.0648147,-0.000373549,-0.0313469,-0.0526877,0.2,0.2,0,1.28,0,0,0,0.2,-0.2,0,1.28,0,0,0,-1.43314,-0.00427759,-0.0163533,1.60362,-0.201358,-0.063698,-1.46534,-0.00484069,-0.0173235,1.64473,-0.210249,-0.0648147,-0.000373549,-0.0313469,-0.0526877,0.2,0.2,0,1.28,0,0,0,0.2,-0.2,0,1.28,0,0,0
gen_000003_tz+0.04_tx-0.03_ty-0.02_p-0.05_fx+0.00_fy+0.00,-0.276993,1.9714068,0.496371,0.999692,0.0236055,0.0073034,0.0023057,-1.4212,-0.00442762,-0.0164186,1.58307,-0.176492,-0.0636873,-1.45353,-0.00499957,-0.0173814,1.62419,-0.185261,-0.0648022,5.90719e-05,-0.0312518,-0.0364299,0.2,0.2,0,1.28,0,0,0,0.2,-0.2,0,1.28,0,0,0,-1.4212,-0.00442762,-0.0164186,1.58307,-0.176492,-0.0636873,-1.45353,-0.00499957,-0.0173814,1.62419,-0.185261,-0.0648022,5.90719e-05,-0.0312518,-0.0364299,0.2,0.2,0,1.28,0,0,0,0.2,-0.2,0,1.28,0,0,0
gen_000004_tz+0.04_tx-0.03_ty-0.02_p-0.05_fx+0.01_fy+0.00,-0.276247,1.9714061,0.496407,0.99972,0.0235715,-0.000769388,0.0021496,-1.40874,-0.00455804,-0.0164961,1.5618,-0.151546,-0.0636783,-1.44118,-0.00513836,-0.017452,1.60293,-0.160214,-0.0647913,0.000494359,-0.0311426,-0.0202949,0.2,0.2,0,1.28,0,0,0,0.2,-0.2,0,1.28,0,0,0,-1.40874,-0.00455804,-0.0164961,1.5618,-0.151546,-0.0636783,-1.44118,-0.00513836,-0.017452,1.60293,-0.160214,-0.0647913,0.000494359,-0.0311426,-0.0202949,0.2,0.2,0,1.28,0,0,0,0.2,-0.2,0,1.28,0,0,0
gen_000005_tz+0.04_tx-0.03_ty-0.02_p-0.05_fx+0.02_fy+0.00,-0.275505,1.9714044,0.496453,0.999683,0.02353,-0.00878592,0.00199163,-1.39573,-0.00467067,-0.0165917,1.53979,-0.126516,-0.0636724,-1.42828,-0.00525903,-0.0175412,1.58094,-0.135105,-0.0647835,0.000930311,-0.031015,-0.00427306,0.2,0.2,0,1.28,0,0,0,0.2,-0.2,0,1.28,0,0,0,-1.39573,-0.00467067,-0.0165917,1.53979,-0.126516,-0.0636724,-1.42828,-0.00525903,-0.0175412,1.58094,-0.135105,-0.0647835,0.000930311,-0.031015,-0.00427306,0.2,0.2,0,1.28,0,0,0,0.2,-0.2,0,1.28,0,0,0
gen_000006_tz+0.04_tx-0.03_ty-0.02_p-0.05_fx+0.03_fy+0.00,-0.274767,1.9714019,0.496509,0.999582,0.0234823,-0.0167561,0.00183055,-1.38215,-0.00476303,-0.0167031,1.51703,-0.101404,-0.0636693,-1.4148,-0.00535908,-0.0176468,1.55823,-0.109932,-0.0647783,0.00136929,-0.030871,0.0116564,0.2,0.2,0,1.28,0,0,0,0.2,-0.2,0,1.28,0,0,0,-1.38215,-0.00476303,-0.0167031,1.51703,-0.101404,-0.0636693,-1.4148,-0.00535908,-0.0176468,1.55823,-0.109932,-0.0647783,0.00136929,-0.030871,0.0116564,0.2,0.2,0,1.28,0,0,0,0.2,-0.2,0,1.28,0,0,0
gen_000007_tz+0.04_tx-0.02_ty-0.02_p-0.05_fx-0.03_fy+0.00,-0.270033,1.9714026,0.496334,0.998902,0.0236972,0.0403006,0.00290443,-1.46603,-0.00371068,-0.0162055,1.66086,-0.275438,-0.0637346,-1.4978,-0.00424355,-0.0172009,1.70202,-0.284809,-0.0648558,-0.00165917,-0.0315644,-0.10241,0.2,0.2,0,1.28,0,0,0,0.2,-0.2,0,1.28,0,0,0,-1.46603,-0.00371068,-0.0162055,1.66086,-0.275438,-0.0637346,-1.4978,-0.00424355,-0.0172009,1.70202,-0.284809,-0.0648558,-0.00165917,-0.0315644,-0.10241,0.2,0.2,0,1.28,0,0,0,0.2,-0.2,0,1.28,0,0,0
gen_000008_tz+0.04_tx-0.02_ty-0.02_p-0.05_fx-0.02_fy+0.00,-0.269264,1.9714048,0.496327,0.999206,0.023682,0.0319275,0.00275701,-1.45553,-0.0039164,-0.0162427,1.64251,-0.250836,-0.0637208,-1.48746,-0.00445989,-0.0172293,1.68365,-0.260026,-0.0648407,-0.00123002,-0.0315068,-0.0856606,0.2,0.2,0,1.28,0,0,0,0.2,-0.2,0,1.28,0,0,0,-1.45553,-0.0039164,-0.0162427,1.64251,-0.250836,-0.0637208,-1.48746,-0.00445989,-0.0172293,1.68365,-0.260026,-0.0648407,-0.00123002,-0.0315068,-0.0856606,0.2,0.2,0,1.28,0,0,0,0.2,-0.2,0,1.28,0,0,0
gen_000009_tz+0.04_tx-0.02_ty-0.02_p-0.05_fx-0.01_fy+0.00,-0.2685,1.9714061,0.496331,0.999437,0.0236599,0.0236407,0.00260934,-1.44457,-0.00410704,-0.016295,1.62343,-0.226142,-0.0637093,-1.47664,-0.00466067,-0.0172731,1.66455,-0.235173,-0.0648276,-0.000802961,-0.0314318,-0.0690895,0.2,0.2,0,1.28,0,0,0,0.2,-0.2,0,1.28,0,0,0,-1.44457,-0.00410704,-0.016295,1.62343,-0.226142,-0.0637093,-1.47664,-0.00466067,-0.0172731,1.66455,-0.235173,-0.0648276,-0.000802961,-0.0314318,-0.0690895,0.2,0.2,0,1.28,0,0,0,0.2,-0.2,0,1.28,0,0,0
gen_000010_tz+0.04_tx-0.02_ty-0.02_p-0.05_fx+0.00_fy+0.00,-0.267744,1.9714066,0.496346,0.999598,0.0236336,0.0154371,0.00245952,-1.43314,-0.00427857,-0.0163553,1.60362,-0.201358,-0.0636985,-1.46534,-0.00484172,-0.0173254,1.64473,-0.210249,-0.0648152,-0.000374487,-0.0313453,-0.0526885,0.2,0.2,0,1.28,0,0,0,0.2,-0.2,0,1.28,0,0,0,-1.43314,-0.00427857,-0.0163553,1.60362,-0.201358,-0.0636985,-1.46534,-0.00484172,-0.0173254,1.64473,-0.210249,-0.0648152,-0.000374487,-0.0313453,-0.0526885,0.2,0.2,0,1.28,0,0,0,0.2,-0.2,0,1.28,0,0,0
gen_000011_tz+0.04_tx-0.02_ty-0.02_p-0.05_fx+0.01_fy+0.00,-0.266993,1.9714068,0.496371,0.999692,0.0236056,0.00730354,0.0023057,-1.4212,-0.00442762,-0.0164185,1.58307,-0.176491,-0.0636873,-1.45353,-0.00499957,-0.0173813,1.62419,-0.185261,-0.0648022,5.90636e-05,-0.0312518,-0.0364302,0.2,0.2,0,1.28,0,0,0,0.2,-0.2,0,1.28,0,0,0,-1.4212,-0.00442762,-0.0164185,1.58307,-0.176491,-0.0636873,-1.45353,-0.00499957,-0.0173813,1.62419,-0.185261,-0.0648022,5.90636e-05,-0.0312518,-0.0364302,0.2,0.2,0,1.28,0,0,0,0.2,-0.2,0,1.28,0,0,0
gen_000012_tz+0.04_tx-0.02_ty-0.02_p-0.05_fx+0.02_fy+0.00,-0.266247,1.9714061,0.496407,0.99972,0.0235715,-0.00076929,0.0021496,-1.40874,-0.00455804,-0.0164961,1.5618,-0.151545,-0.0636783,-1.44118,-0.00513835,-0.017452,1.60293,-0.160214,-0.0647913,0.000494358,-0.0311426,-0.0202951,0.2,0.2,0,1.28,0,0,0,0.2,-0.2,0,1.28,0,0,0,-1.40874,-0.00455804,-0.0164961,1.5618,-0.151545,-0.0636783,-1.44118,-0.00513835,-0.017452,1.60293,-0.160214,-0.0647913,0.000494358,-0.0311426,-0.0202951,0.2,0.2,0,1.28,0,0,0,0.2,-0.2,0,1.28,0,0,0
gen_000013_tz+0.04_tx-0.02_ty-0.02_p-0.05_fx+0.03_fy+0.00,-0.265505,1.9714044,0.496453,0.999683,0.02353,-0.00878583,0.00199163,-1.39573,-0.00467066,-0.0165917,1.53979,-0.126516,-0.0636724,-1.42828,-0.00525902,-0.0175412,1.58094,-0.135105,-0.0647835,0.000930312,-0.031015,-0.00427324,0.2,0.2,0,1.28,0,0,0,0.2,-0.2,0,1.28,0,0,0,-1.39573,-0.00467066,-0.0165917,1.53979,-0.126516,-0.0636724,-1.42828,-0.00525902,-0.0175412,1.58094,-0.135105,-0.0647835,0.000930312,-0.031015,-0.00427324,0.2,0.2,0,1.28,0,0,0,0.2,-0.2,0,1.28,0,0,0
gen_000014_tz+0.04_tx-0.01_ty-0.02_p-0.05_fx-0.03_fy+0.00,-0.260811,1.9713994,0.496354,0.998524,0.0237063,0.0487646,0.00305146,-1.47608,-0.00348947,-0.0161805,1.67848,-0.299945,-0.06375,-1.50768,-0.00401113,-0.0171849,1.71967,-0.309518,-0.0648724,-0.00208993,-0.0316063,-0.119347,0.2,0.2,0,1.28,0,0,0,0.2,-0.2,0,1.28,0,0,0,-1.47608,-0.00348947,-0.0161805,1.67848,-0.299945,-0.06375,-1.50768,-0.00401113,-0.0171849,1.71967,-0.309518,-0.0648724,-0.00208993,-0.0316063,-0.119347,0.2,0.2,0,1.28,0,0,0,0.2,-0.2,0,1.28,0,0,0
gen_000015_tz+0.04_tx-0.01_ty-0.02_p-0.05_fx-0.02_fy+0.00,-0.260033,1.9714026,0.496334,0.998902,0.0236973,0.0403008,0.00290444,-1.46603,-0.00371069,-0.0162054,1.66086,-0.275438,-0.0637346,-1.4978,-0.00424355,-0.0172008,1.70202,-0.284809,-0.0648558,-0.00165919,-0.0315645,-0.10241,0.2,0.2,0,1.28,0,0,0,0.2,-0.2,0,1.28,0,0,0,-1.46603,-0.00371069,-0.0162054,1.66086,-0.275438,-0.0637346,-1.4978,-0.00424355,-0.0172008,1.70202,-0.284809,-0.0648558,-0.00165919,-0.0315645,-0.10241,0.2,0.2,0,1.28,0,0,0,0.2,-0.2,0,1.28,0,0,0
gen_000016_tz+0.04_tx-0.01_ty-0.02_p-0.05_fx-0.01_fy+0.00,-0.259263,1.9714047,0.496327,0.999206,0.0236815,0.0319269,0.00275731,-1.45553,-0.00391706,-0.016244,1.64251,-0.250836,-0.0637211,-1.48746,-0.00446058,-0.0172306,1.68365,-0.260027,-0.0648409,-0.00123058,-0.0315058,-0.0856594,0.2,0.2,0,1.28,0,0,0,0.2,-0.2,0,1.28,0,0,0,-1.45553,-0.00391706,-0.016244,1.64251,-0.250836,-0.0637211,-1.48746,-0.00446058,-0.0172306,1.68365,-0.260027,-0.0648409,-0.00123058,-0.0315058,-0.0856594,0.2,0.2,0,1.28,0,0,0,0.2,-0.2,0,1.28,0,0,0
gen_000017_tz+0.04_tx-0.01_ty-0.02_p-0.05_fx+0.00_fy+0.00,-0.2585,1.9714061,0.496331,0.999437,0.0236599,0.0236409,0.00260935,-1.44458,-0.00410704,-0.0162948,1.62343,-0.226142,-0.0637093,-1.47664,-0.00466067,-0.017273,1.66455,-0.235173,-0.0648276,-0.000802977,-0.0314319,-0.0690899,0.2,0.2,0,1.28,0,0,0,0.2,-0.2,0,1.28,0,0,0,-1.44458,-0.00410704,-0.0162948,1.62343,-0.226142,-0.0637093,-1.47664,-0.00466067,-0.017273,1.66455,-0.235173,-0.0648276,-0.000802977,-0.0314319,-0.0690899,0.2,0.2,0,1.28,0,0,0,0.2,-0.2,0,1.28,0,0,0
gen_000018_tz+0.04_tx-0.01_ty-0.02_p-0.05_fx+0.01_fy+0.00,-0.257744,1.9714067,0.496346,0.999598,0.0236345,0.0154371,0.00245905,-1.43314,-0.00427759,-0.0163531,1.60362,-0.201358,-0.063698,-1.46534,-0.00484068,-0.0173233,1.64473,-0.210249,-0.0648147,-0.000373578,-0.0313471,-0.0526884,0.2,0.2,0,1.28,0,0,0,0.2,-0.2,0,1.28,0,0,0,-1.43314,-0.00427759,-0.0163531,1.60362,-0.201358,-0.063698,-1.46534,-0.00484068,-0.0173233,1.64473,-0.210249,-0.0648147,-0.000373578,-0.0313471,-0.0526884,0.2,0.2,0,1.28,0,0,0,0.2,-0.2,0,1.28,0,0,0
gen_000019_tz+0.04_tx-0.01_ty-0.02_p-0.05_fx+0.02_fy+0.00,-0.256993,1.9714068,0.496371,0.999692,0.0236055,0.00730369,0.0023057,-1.4212,-0.00442761,-0.0164186,1.58307,-0.176491,-0.0636873,-1.45353,-0.00499956,-0.0173814,1.62419,-0.185261,-0.0648022,5.90649e-05,-0.0312518,-0.0364305,0.2,0.2,0,1.28,0,0,0,0.2,-0.2,0,1.28,0,0,0,-1.4212,-0.00442761,-0.0164186,1.58307,-0.176491,-0.0636873,-1.45353,-0.00499956,-0.0173814,1.62419,-0.185261,-0.0648022,5.90649e-05,-0.0312518,-0.0364305,0.2,0.2,0,1.28,0,0,0,0.2,-0.2,0,1.28,0,0,0
gen_000020_tz+0.04_tx-0.01_ty-0.02_p-0.05_fx+0.03_fy+0.00,-0.256247,1.9714061,0.496407,0.99972,0.0235715,-0.000769174,0.00214959,-1.40874,-0.00455803,-0.0164961,1.5618,-0.151545,-0.0636783,-1.44118,-0.00513834,-0.0174521,1.60293,-0.160214,-0.0647914,0.000494362,-0.0311426,-0.0202953,0.2,0.2,0,1.28,0,0,0,0.2,-0.2,0,1.28,0,0,0,-1.40874,-0.00455803,-0.0164961,1.5618,-0.151545,-0.0636783,-1.44118,-0.00513834,-0.0174521,1.60293,-0.160214,-0.0647914,0.000494362,-0.0311426,-0.0202953,0.2,0.2,0,1.28,0,0,0,0.2,-0.2,0,1.28,0,0,0
gen_000021_tz+0.04_tx+0.00_ty-0.02_p-0.05_fx-0.03_fy+0.00,-0.251595,1.9713954,0.496386,0.998069,0.023709,0.0573218,0.00319846,-1.48569,-0.00325349,-0.0161675,1.69537,-0.324355,-0.063767,-1.51711,-0.00376334,-0.0171811,1.7366,-0.334152,-0.0648904,-0.00252277,-0.0316318,-0.136478,0.2,0.2,0,1.28,0,0,0,0.2,-0.2,0,1.28,0,0,0,-1.48569,-0.00325349,-0.0161675,1.69537,-0.324355,-0.063767,-1.51711,-0.00376334,-0.0171811,1.7366,-0.334152,-0.0648904,-0.00252277,-0.0316318,-0.136478,0.2,0.2,0,1.28,0,0,0,0.2,-0.2,0,1.28,0,0,0
gen_000022_tz+0.04_tx+0.00_ty-0.02_p-0.05_fx-0.02_fy+0.00,-0.250811,1.9713994,0.496354,0.998524,0.0237063,0.0487648,0.00305146,-1.47608,-0.00348947,-0.0161804,1.67848,-0.299945,-0.06375,-1.50768,-0.00401113,-0.0171848,1.71967,-0.309518,-0.0648724,-0.00208995,-0.0316063,-0.119347,0.2,0.2,0,1.28,0,0,0,0.2,-0.2,0,1.28,0,0,0,-1.47608,-0.00348947,-0.0161804,1.67848,-0.299945,-0.06375,-1.50768,-0.00401113,-0.0171848,1.71967,-0.309518,-0.0648724,-0.00208995,-0.0316063,-0.119347,0.2,0.2,0,1.28,0,0,0,0.2,-0.2,0,1.28,0,0,0
gen_000023_tz+0.04_tx+0.00_ty-0.02_p-0.05_fx-0.01_fy+0.00,-0.250033,1.9714026,0.496334,0.998902,0.0236973,0.0403009,0.00290444,-1.46603,-0.00371069,-0.0162054,1.66086,-0.275438,-0.0637346,-1.4978,-0.00424355,-0.0172007,1.70202,-0.284808,-0.0648558,-0.0016592,-0.0315646,-0.10241,0.2,0.2,0,1.28,0,0,0,0.2,-0.2,0,1.28,0,0,0,-1.46603,-0.00371069,-0.0162054,1.66086,-0.275438,-0.0637346,-1.4978,-0.00424355,-0.0172007,1.70202,-0.284808,-0.0648558,-0.0016592,-0.0315646,-0.10241,0.2,0.2,0,1.28,0,0,0,0.2,-0.2,0,1.28,0,0,0
gen_000024_tz+0.04_tx+0.00_ty-0.02_p-0.05_fx+0.00_fy+0.00,-0.249263,1.9714047,0.496327,0.999206,0.0236816,0.031927,0.00275731,-1.45553,-0.00391705,-0.016244,1.64251,-0.250836,-0.0637211,-1.48746,-0.00446057,-0.0172305,1.68365,-0.260026,-0.0648409,-0.00123059,-0.0315059,-0.0856597,0.2,0.2,0,1.28,0,0,0,0.2,-0.2,0,1.28,0,0,0,-1.45553,-0.00391705,-0.016244,1.64251,-0.250836,-0.0637211,-1.48746,-0.00446057,-0.0172305,1.68365,-0.260026,-0.0648409,-0.00123059,-0.0315059,-0.0856597,0.2,0.2,0,1.28,0,0,0,0.2,-0.2,0,1.28,0,0,0
gen_000025_tz+0.04_tx+0.00_ty-0.02_p-0.05_fx+0.01_fy+0.00,-0.248501,1.9714061,0.496331,0.999437,0.0236599,0.0236411,0.00260935,-1.44458,-0.00410703,-0.0162949,1.62343,-0.226142,-0.0637093,-1.47665,-0.00466066,-0.017273,1.66455,-0.235172,-0.0648276,-0.000802979,-0.0314319,-0.0690902,0.2,0.2,0,1.28,0,0,0,0.2,-0.2,0,1.28,0,0,0,-1.44458,-0.00410703,-0.0162949,1.62343,-0.226142,-0.0637093,-1.47665,-0.00466066,-0.017273,1.66455,-0.235172,-0.0648276,-0.000802979,-0.0314319,-0.0690902,0.2,0.2,0,1.28,0,0,0,0.2,-0.2,0,1.28,0,0,0
gen_000026_tz+0.04_tx+0.00_ty-0.02_p-0.05_fx+0.02_fy+0.00,-0.247744,1.9714067,0.496346,0.999598,0.0236344,0.0154373,0.00245905,-1.43314,-0.00427758,-0.0163532,1.60362,-0.201358,-0.063698,-1.46535,-0.00484067,-0.0173234,1.64473,-0.210248,-0.0648147,-0.000373572,-0.031347,-0.0526888,0.2,0.2,0,1.28,0,0,0,0.2,-0.2,0,1.28,0,0,0,-1.43314,-0.00427758,-0.0163532,1.60362,-0.201358,-0.063698,-1.46535,-0.00484067,-0.0173234,1.64473,-0.210248,-0.0648147,-0.000373572,-0.031347,-0.0526888,0.2,0.2,0,1.28,0,0,0,0.2,-0.2,0,1.28,0,0,0
gen_000027_tz+0.04_tx+0.00_ty-0.02_p-0.05_fx+0.03_fy+0.00,-0.246993,1.9714068,0.496371,0.999692,0.0236061,0.00730318,0.00230531,-1.4212,-0.00442682,-0.0164171,1.58307,-0.176492,-0.0636869,-1.45353,-0.00499874,-0.0173799,1.62419,-0.185261,-0.0648019,5.98426e-05,-0.0312529,-0.0364295,0.2,0.2,0,1.28,0,0,0,0.2,-0.2,0,1.28,0,0,0,-1.4212,-0.00442682,-0.0164171,1.58307,-0.176492,-0.0636869,-1.45353,-0.00499874,-0.0173799,1.62419,-0.185261,-0.0648019,5.98426e-05,-0.0312529,-0.0364295,0.2,0.2,0,1.28,0,0,0,0.2,-0.2,0,1.28,0,0,0
gen_000028_tz+0.04_tx+0.01_ty-0.02_p-0.05_fx-0.03_fy+0.00,-0.242387,1.9713905,0.496431,0.997534,0.0237056,0.0659758,0.0033455,-1.49487,-0.00300277,-0.0161651,1.71153,-0.348662,-0.0637851,-1.52609,-0.00350016,-0.0171882,1.7528,-0.358705,-0.0649094,-0.00295763,-0.0316417,-0.153813,0.2,0.2,0,1.28,0,0,0,0.2,-0.2,0,1.28,0,0,0,-1.49487,-0.00300277,-0.0161651,1.71153,-0.348662,-0.0637851,-1.52609,-0.00350016,-0.0171882,1.7528,-0.358705,-0.0649094,-0.00295763,-0.0316417,-0.153813,0.2,0.2,0,1.28,0,0,0,0.2,-0.2,0,1.28,0,0,0
gen_000029_tz+0.04_tx+0.01_ty-0.02_p-0.05_fx-0.02_fy+0.00,-0.241595,1.9713954,0.496386,0.998069,0.023709,0.0573219,0.00319846,-1.48569,-0.00325349,-0.0161675,1.69537,-0.324355,-0.0637669,-1.51711,-0.00376334,-0.0171811,1.7366,-0.334152,-0.0648904,-0.00252278,-0.0316319,-0.136478,0.2,0.2,0,1.28,0,0,0,0.2,-0.2,0,1.28,0,0,0,-1.48569,-0.00325349,-0.0161675,1.69537,-0.324355,-0.0637669,-1.51711,-0.00376334,-0.0171811,1.7366,-0.334152,-0.0648904,-0.00252278,-0.0316319,-0.136478,0.2,0.2,0,1.28,0,0,0,0.2,-0.2,0,1.28,0,0,0
gen_000030_tz+0.04_tx+0.01_ty-0.02_p-0.05_fx-0.01_fy+0.00,-0.240811,1.9713994,0.496354,0.998524,0.0237061,0.0487639,0.00305163,-1.47608,-0.00348986,-0.0161811,1.67848,-0.299946,-0.0637502,-1.50768,-0.00401153,-0.0171855,1.71967,-0.309519,-0.0648725,-0.00209024,-0.0316057,-0.119345,0.2,0.2,0,1.28,0,0,0,0.2,-0.2,0,1.28,0,0,0,-1.47608,-0.00348986,-0.0161811,1.67848,-0.299946,-0.0637502,-1.50768,-0.00401153,-0.0171855,1.71967,-0.309519,-0.0648725,-0.00209024,-0.0316057,-0.119345,0.2,0.2,0,1.28,0,0,0,0.2,-0.2,0,1.28,0,0,0
gen_000031_tz+0.04_tx+0.01_ty-0.02_p-0.05_fx+0.00_fy+0.00,-0.240033,1.9714026,0.496334,0.998902,0.0236973,0.040301,0.00290444,-1.46603,-0.00371068,-0.0162053,1.66086,-0.275438,-0.0637346,-1.4978,-0.00424354,-0.0172007,1.70202,-0.284808,-0.0648558,-0.0016592,-0.0315646,-0.10241,0.2,0.2,0,1.28,0,0,0,0.2,-0.2,0,1.28,0,0,0,-1.46603,-0.00371068,-0.0162053,1.66086,-0.275438,-0.0637346,-1.4978,-0.00424354,-0.0172007,1.70202,-0.284808,-0.0648558,-0.0016592,-0.0315646,-0.10241,0.2,0.2,0,1.28,0,0,0,0.2,-0.2,0,1.28,0,0,0
gen_000032_tz+0.04_tx+0.01_ty-0.02_p-0.05_fx+0.01_fy+0.00,-0.239263,1.9714047,0.496327,0.999206,0.0236815,0.0319272,0.00275731,-1.45553,-0.00391705,-0.016244,1.64251,-0.250836,-0.0637211,-1.48746,-0.00446057,-0.0172306,1.68365,-0.260026,-0.0648409,-0.00123059,-0.0315058,-0.0856599,0.2,0.2,0,1.28,0,0,0,0.2,-0.2,0,1.28,0,0,0,-1.45553,-0.00391705,-0.016244,1.64251,-0.250836,-0.0637211,-1.48746,-0.00446057,-0.0172306,1.68365,-0.260026,-0.0648409,-0.00123059,-0.0315058,-0.0856599,0.2,0.2,0,1.28,0,0,0,0.2,-0.2,0,1.28,0,0,0
gen_000033_tz+0.04_tx+0.01_ty-0.02_p-0.05_fx+0.02_fy+0.00,-0.238501,1.9714061,0.496331,0.999437,0.0236598,0.0236413,0.00260934,-1.44458,-0.00410702,-0.016295,1.62343,-0.226142,-0.0637093,-1.47665,-0.00466065,-0.0172732,1.66455,-0.235172,-0.0648276,-0.000802968,-0.0314318,-0.0690905,0.2,0.2,0,1.28,0,0,0,0.2,-0.2,0,1.28,0,0,0,-1.44458,-0.00410702,-0.016295,1.62343,-0.226142,-0.0637093,-1.47665,-0.00466065,-0.0172732,1.66455,-0.235172,-0.0648276,-0.000802968,-0.0314318,-0.0690905,0.2,0.2,0,1.28,0,0,0,0.2,-0.2,0,1.28,0,0,0
gen_000034_tz+0.04_tx+0.01_ty-0.02_p-0.05_fx+0.03_fy+0.00,-0.237744,1.9714067,0.496346,0.999598,0.0236344,0.0154375,0.00245904,-1.43314,-0.00427755,-0.0163534,1.60362,-0.201358,-0.0636981,-1.46535,-0.00484065,-0.0173236,1.64473,-0.210248,-0.0648147,-0.000373551,-0.0313468,-0.0526892,0.2,0.2,0,1.28,0,0,0,0.2,-0.2,0,1.28,0,0,0,-1.43314,-0.00427755,-0.0163534,1.60362,-0.201358,-0.0636981,-1.46535,-0.00484065,-0.0173236,1.64473,-0.210248,-0.0648147,-0.000373551,-0.0313468,-0.0526892,0.2,0.2,0,1.28,0,0,0,0.2,-0.2,0,1.28,0,0,0
gen_000035_tz+0.04_tx+0.02_ty-0.02_p-0.05_fx-0.03_fy+0.00,-0.233186,1.9713846,0.496489,0.996916,0.0236958,0.0747277,0.00349292,-1.50364,-0.00273802,-0.0161732,1.72695,-0.372862,-0.0638045,-1.53464,-0.00322227,-0.0172058,1.76828,-0.383172,-0.0649295,-0.0033949,-0.0316351,-0.171354,0.2,0.2,0,1.28,0,0,0,0.2,-0.2,0,1.28,0,0,0,-1.50364,-0.00273802,-0.0161732,1.72695,-0.372862,-0.0638045,-1.53464,-0.00322227,-0.0172058,1.76828,-0.383172,-0.0649295,-0.0033949,-0.0316351,-0.171354,0.2,0.2,0,1.28,0,0,0,0.2,-0.2,0,1.28,0,0,0
gen_000036_tz+0.04_tx+0.02_ty-0.02_p-0.05_fx-0.02_fy+0.00,-0.232387,1.9713905,0.496431,0.997534,0.0237054,0.0659749,0.0033456,-1.49487,-0.00300303,-0.0161656,1.71153,-0.348663,-0.0637852,-1.52609,-0.00350043,-0.0171886,1.7528,-0.358706,-0.0649095,-0.00295781,-0.0316413,-0.153811,0.2,0.2,0,1.28,0,0,0,0.2,-0.2,0,1.28,0,0,0,-1.49487,-0.00300303,-0.0161656,1.71153,-0.348663,-0.0637852,-1.52609,-0.00350043,-0.0171886,1.7528,-0.358706,-0.0649095,-0.00295781,-0.0316413,-0.153811,0.2,0.2,0,1.28,0,0,0,0.2,-0.2,0,1.28,0,0,0
gen_000037_tz+0.04_tx+0.02_ty-0.02_p-0.05_fx-0.01_fy+0.00,-0.231595,1.9713954,0.496386,0.998069,0.023709,0.057322,0.00319846,-1.48569,-0.00325348,-0.0161674,1.69537,-0.324355,-0.0637669,-1.51711,-0.00376334,-0.0171811,1.7366,-0.334152,-0.0648904,-0.00252278,-0.0316319,-0.136479,0.2,0.2,0,1.28,0,0,0,0.2,-0.2,0,1.28,0,0,0,-1.48569,-0.00325348,-0.0161674,1.69537,-0.324355,-0.0637669,-1.51711,-0.00376334,-0.0171811,1.7366,-0.334152,-0.0648904,-0.00252278,-0.0316319,-0.136479,0.2,0.2,0,1.28,0,0,0,0.2,-0.2,0,1.28,0,0,0
gen_000038_tz+0.04_tx+0.02_ty-0.02_p-0.05_fx+0.00_fy+0.00,-0.230811,1.9713994,0.496354,0.998524,0.023706,0.048764,0.00305163,-1.47608,-0.00348985,-0.0161811,1.67848,-0.299946,-0.0637502,-1.50768,-0.00401153,-0.0171855,1.71967,-0.309519,-0.0648725,-0.00209024,-0.0316057,-0.119346,0.2,0.2,0,1.28,0,0,0,0.2,-0.2,0,1.28,0,0,0,-1.47608,-0.00348985,-0.0161811,1.67848,-0.299946,-0.0637502,-1.50768,-0.00401153,-0.0171855,1.71967,-0.309519,-0.0648725,-0.00209024,-0.0316057,-0.119346,0.2,0.2,0,1.28,0,0,0,0.2,-0.2,0,1.28,0,0,0
gen_000039_tz+0.04_tx+0.02_ty-0.02_p-0.05_fx+0.01_fy+0.00,-0.230033,1.9714026,0.496334,0.998902,0.0236973,0.0403011,0.00290444,-1.46603,-0.00371068,-0.0162054,1.66086,-0.275437,-0.0637346,-1.4978,-0.00424354,-0.0172007,1.70202,-0.284808,-0.0648558,-0.0016592,-0.0315645,-0.102411,0.2,0.2,0,1.28,0,0,0,0.2,-0.2,0,1.28,0,0,0,-1.46603,-0.00371068,-0.0162054,1.66086,-0.275437,-0.0637346,-1.4978,-0.00424354,-0.0172007,1.70202,-0.284808,-0.0648558,-0.0016592,-0.0315645,-0.102411,0.2,0.2,0,1.28,0,0,0,0.2,-0.2,0,1.28,0,0,0
gen_000040_tz+0.04_tx+0.02_ty-0.02_p-0.05_fx+0.02_fy+0.00,-0.229264,1.9714047,0.496327,0.999206,0.0236815,0.0319273,0.0027573,-1.45553,-0.00391703,-0.0162441,1.64251,-0.250836,-0.0637212,-1.48746,-0.00446056,-0.0172307,1.68365,-0.260026,-0.064841,-0.00123058,-0.0315057,-0.0856601,0.2,0.2,0,1.28,0,0,0,0.2,-0.2,0,1.28,0,0,0,-1.45553,-0.00391703,-0.0162441,1.64251,-0.250836,-0.0637212,-1.48746,-0.00446056,-0.0172307,1.68365,-0.260026,-0.064841,-0.00123058,-0.0315057,-0.0856601,0.2,0.2,0,1.28,0,0,0,0.2,-0.2,0,1.28,0,0,0
gen_000041_tz+0.04_tx+0.02_ty-0.02_p-0.05_fx+0.03_fy+0.00,-0.228501,1.971406,0.496331,0.999437,0.0236598,0.0236414,0.00260933,-1.44458,-0.00410699,-0.0162952,1.62343,-0.226141,-0.0637094,-1.47665,-0.00466062,-0.0172734,1.66455,-0.235172,-0.0648277,-0.000802941,-0.0314316,-0.0690908,0.2,0.2,0,1.28,0,0,0,0.2,-0.2,0,1.28,0,0,0,-1.44458,-0.00410699,-0.0162952,1.62343,-0.226141,-0.0637094,-1.47665,-0.00466062,-0.0172734,1.66455,-0.235172,-0.0648277,-0.000802941,-0.0314316,-0.0690908,0.2,0.2,0,1.28,0,0,0,0.2,-0.2,0,1.28,0,0,0
gen_000042_tz+0.04_tx+0.03_ty-0.02_p-0.05_fx-0.03_fy+0.00,-0.223993,1.9713777,0.496561,0.996213,0.0236798,0.0835794,0.00364086,-1.512,-0.00245944,-0.0161908,1.74164,-0.396949,-0.0638249,-1.54276,-0.00292984,-0.017233,1.78302,-0.407547,-0.0649504,-0.00383459,-0.0316123,-0.189108,0.2,0.2,0,1.28,0,0,0,0.2,-0.2,0,1.28,0,0,0,-1.512,-0.00245944,-0.0161908,1.74164,-0.396949,-0.0638249,-1.54276,-0.00292984,-0.017233,1.78302,-0.407547,-0.0649504,-0.00383459,-0.0316123,-0.189108,0.2,0.2,0,1.28,0,0,0,0.2,-0.2,0,1.28,0,0,0
gen_000043_tz+0.04_tx+0.03_ty-0.02_p-0.05_fx-0.02_fy+0.00,-0.223186,1.9713846,0.496489,0.996916,0.0236959,0.0747277,0.00349292,-1.50364,-0.00273801,-0.0161732,1.72695,-0.372862,-0.0638045,-1.53464,-0.00322227,-0.0172058,1.76828,-0.383172,-0.0649295,-0.00339491,-0.0316351,-0.171354,0.2,0.2,0,1.28,0,0,0,0.2,-0.2,0,1.28,0,0,0,-1.50364,-0.00273801,-0.0161732,1.72695,-0.372862,-0.0638045,-1.53464,-0.00322227,-0.0172058,1.76828,-0.383172,-0.0649295,-0.00339491,-0.0316351,-0.171354,0.2,0.2,0,1.28,0,0,0,0.2,-0.2,0,1.28,0,0,0
gen_000044_tz+0.04_tx+0.03_ty-0.02_p-0.05_fx-0.01_fy+0.00,-0.222387,1.9713905,0.496431,0.997534,0.0237054,0.065975,0.0033456,-1.49487,-0.00300303,-0.0161656,1.71153,-0.348663,-0.0637852,-1.52609,-0.00350043,-0.0171886,1.7528,-0.358706,-0.0649095,-0.00295781,-0.0316413,-0.153811,0.2,0.2,0,1.28,0,0,0,0.2,-0.2,0,1.28,0,0,0,-1.49487,-0.00300303,-0.0161656,1.71153,-0.348663,-0.0637852,-1.52609,-0.00350043,-0.0171886,1.7528,-0.358706,-0.0649095,-0.00295781,-0.0316413,-0.153811,0.2,0.2,0,1.28,0,0,0,0.2,-0.2,0,1.28,0,0,0
gen_000045_tz+0.04_tx+0.03_ty-0.02_p-0.05_fx+0.00_fy+0.00,-0.221595,1.9713954,0.496386,0.998069,0.023709,0.057322,0.00319846,-1.48569,-0.00325348,-0.0161675,1.69537,-0.324355,-0.0637669,-1.51711,-0.00376333,-0.0171811,1.7366,-0.334152,-0.0648904,-0.00252278,-0.0316319,-0.136479,0.2,0.2,0,1.28,0,0,0,0.2,-0.2,0,1.28,0,0,0,-1.48569,-0.00325348,-0.0161675,1.69537,-0.324355,-0.0637669,-1.51711,-0.00376333,-0.0171811,1.7366,-0.334152,-0.0648904,-0.00252278,-0.0316319,-0.136479,0.2,0.2,0,1.28,0,0,0,0.2,-0.2,0,1.28,0,0,0
gen_000046_tz+0.04_tx+0.03_ty-0.02_p-0.05_fx+0.01_fy+0.00,-0.220811,1.9713994,0.496354,0.998524,0.023706,0.048764,0.00305163,-1.47608,-0.00348985,-0.0161812,1.67848,-0.299946,-0.0637502,-1.50768,-0.00401152,-0.0171856,1.71967,-0.309519,-0.0648725,-0.00209023,-0.0316057,-0.119346,0.2,0.2,0,1.28,0,0,0,0.2,-0.2,0,1.28,0,0,0,-1.47608,-0.00348985,-0.0161812,1.67848,-0.299946,-0.0637502,-1.50768,-0.00401152,-0.0171856,1.71967,-0.309519,-0.0648725,-0.00209023,-0.0316057,-0.119346,0.2,0.2,0,1.28,0,0,0,0.2,-0.2,0,1.28,0,0,0
gen_000047_tz+0.04_tx+0.03_ty-0.02_p-0.05_fx+0.02_fy+0.00,-0.220033,1.9714026,0.496334,0.998902,0.0236973,0.0403011,0.00290443,-1.46603,-0.00371067,-0.0162055,1.66086,-0.275437,-0.0637346,-1.4978,-0.00424353,-0.0172009,1.70202,-0.284808,-0.0648558,-0.00165918,-0.0315644,-0.102411,0.2,0.2,0,1.28,0,0,0,0.2,-0.2,0,1.28,0,0,0,-1.46603,-0.00371067,-0.0162055,1.66086,-0.275437,-0.0637346,-1.4978,-0.00424353,-0.0172009,1.70202,-0.284808,-0.0648558,-0.00165918,-0.0315644,-0.102411,0.2,0.2,0,1.28,0,0,0,0.2,-0.2,0,1.28,0,0,0
gen_000048_tz+0.04_tx+0.03_ty-0.02_p-0.05_fx+0.03_fy+0.00,-0.219264,1.9714047,0.496327,0.999206,0.0236814,0.0319274,0.00275729,-1.45553,-0.00391701,-0.0162443,1.64251,-0.250836,-0.0637212,-1.48746,-0.00446054,-0.0172309,1.68365,-0.260026,-0.064841,-0.00123055,-0.0315056,-0.0856603,0.2,0.2,0,1.28,0,0,0,0.2,-0.2,0,1.28,0,0,0,-1.45553,-0.00391701,-0.0162443,1.64251,-0.250836,-0.0637212,-1.48746,-0.00446054,-0.0172309,1.68365,-0.260026,-0.064841,-0.00123055,-0.0315056,-0.0856603,0.2,0.2,0,1.28,0,0,0,0.2,-0.2,0,1.28,0,0,0
gen_000049_tz+0.04_tx-0.03_ty-0.01_p-0.05_fx-0.03_fy+0.00,-0.279251,1.9806695,0.4963,0.99937,0.0155256,0.0317959,0.00262828,-1.46228,-0.0042914,-0.01217,1.65102,-0.252295,-0.0433683,-1.48298,-0.00455013,-0.0125678,1.67901,-0.259564,-0.0438575,-0.000455874,-0.0152225,-0.0854119,0.2,0.2,0,1.28,0,0,0,0.2,-0.2,0,1.28,0,0,0,-1.46228,-0.0042914,-0.01217,1.65102,-0.252295,-0.0433683,-1.48298,-0.00455013,-0.0125678,1.67901,-0.259564,-0.0438575,-0.000455874,-0.0152225,-0.0854119,0.2,0.2,0,1.28,0,0,0,0.2,-0.2,0,1.28,0,0,0
gen_000050_tz+0.04_tx-0.03_ty-0.01_p-0.05_fx-0.02_fy+0.00,-0.278488,1.9806706,0.496304,0.9996,0.0155105,0.0235064,0.00251973,-1.45134,-0.00440269,-0.0122065,1.63194,-0.227577,-0.0433578,-1.47216,-0.00466622,-0.0126007,1.65992,-0.23472,-0.0438462,-0.000242439,-0.0151541,-0.0688427,0.2,0.2,0,1.28,0,0,0,0.2,-0.2,0,1.28,0,0,0,-1.45134,-0.00440269,-0.0122065,1.63194,-0.227577,-0.0433578,-1.47216,-0.00466622,-0.0126007,1.65992,-0.23472,-0.0438462,-0.000242439,-0.0151541,-0.0688427,0.2,0.2,0,1.28,0,0,0,0.2,-0.2,0,1.28,0,0,0
gen_000051_tz+0.04_tx-0.03_ty-0.01_p-0.05_fx-0.01_fy+0.00,-0.277732,1.9806711,0.496319,0.99976,0.0154921,0.0153072,0.00241078,-1.43994,-0.00450227,-0.0122507,1.61212,-0.202764,-0.043348,-1.46086,-0.00477035,-0.0126413,1.64009,-0.209796,-0.0438356,-2.95855e-05,-0.0150783,-0.0524578,0.2,0.2,0,1.28,0,0,0,0.2,-0.2,0,1.28,0,0,0,-1.43994,-0.00450227,-0.0122507,1.61212,-0.202764,-0.043348,-1.46086,-0.00477035,-0.0126413,1.64009,-0.209796,-0.0438356,-2.95855e-05,-0.0150783,-0.0524578,0.2,0.2,0,1.28,0,0,0,0.2,-0.2,0,1.28,0,0,0
gen_000052_tz+0.04_tx-0.03_ty-0.01_p-0.05_fx+0.00_fy+0.00,-0.276982,1.9806718,0.496345,0.999852,0.0154785,0.00717374,0.00229697,-1.42801,-0.00458127,-0.012282,1.59157,-0.177879,-0.0433344,-1.44905,-0.00485337,-0.0126695,1.61955,-0.184811,-0.0438211,0.000191355,-0.0150112,-0.036207,0.2,0.2,0,1.28,0,0,0,0.2,-0.2,0,1.28,0,0,0,-1.42801,-0.00458127,-0.012282,1.59157,-0.177879,-0.0433344,-1.44905,-0.00485337,-0.0126695,1.61955,-0.184811,-0.0438211,0.000191355,-0.0150112,-0.036207,0.2,0.2,0,1.28,0,0,0,0.2,-0.2,0,1.28,0,0,0
gen_000053_tz+0.04_tx-0.03_ty-0.01_p-0.05_fx+0.01_fy+0.00,-0.276236,1.9806718,0.496381,0.999878,0.0154583,-0.000899108,0.00218341,-1.41556,-0.00465078,-0.0123303,1.57029,-0.152918,-0.0433238,-1.4367,-0.0049268,-0.0127148,1.59829,-0.159765,-0.0438095,0.000410402,-0.0149298,-0.0200791,0.2,0.2,0,1.28,0,0,0,0.2,-0.2,0,1.28,0,0,0,-1.41556,-0.00465078,-0.0123303,1.57029,-0.152918,-0.0433238,-1.4367,-0.0049268,-0.0127148,1.59829,-0.159765,-0.0438095,0.000410402,-0.0149298,-0.0200791,0.2,0.2,0,1.28,0,0,0,0.2,-0.2,0,1.28,0,0,0
gen_000054_tz+0.04_tx-0.03_ty-0.01_p-0.05_fx+0.02_fy+0.00,-0.275494,1.9806711,0.496428,0.999839,0.0154338,-0.0089153,0.0020689,-1.40257,-0.00470814,-0.0123901,1.54828,-0.127877,-0.043315,-1.4238,-0.00498793,-0.012772,1.57631,-0.134654,-0.0437997,0.000629724,-0.0148382,-0.00406512,0.2,0.2,0,1.28,0,0,0,0.2,-0.2,0,1.28,0,0,0,-1.40257,-0.00470814,-0.0123901,1.54828,-0.127877,-0.043315,-1.4238,-0.00498793,-0.012772,1.57631,-0.134654,-0.0437997,0.000629724,-0.0148382,-0.00406512,0.2,0.2,0,1.28,0,0,0,0.2,-0.2,0,1.28,0,0,0
gen_000055_tz+0.04_tx-0.03_ty-0.01_p-0.05_fx+0.03_fy+0.00,-0.274756,1.9806699,0.496484,0.999737,0.0154055,-0.0168847,0.00195264,-1.38901,-0.00475181,-0.0124601,1.52554,-0.102756,-0.0433077,-1.41033,-0.0050352,-0.0128395,1.55359,-0.109477,-0.0437915,0.000850743,-0.0147378,0.0118556,0.2,0.2,0,1.28,0,0,0,0.2,-0.2,0,1.28,0,0,0,-1.38901,-0.00475181,-0.0124601,1.52554,-0.102756,-0.0433077,-1.41033,-0.0050352,-0.0128395,1.55359,-0.109477,-0.0437915,0.000850743,-0.0147378,0.0118556,0.2,0.2,0,1.28,0,0,0,0.2,-0.2,0,1.28,0,0,0
gen_000056_tz+0.04_tx-0.02_ty-0.01_p-0.05_fx-0.03_fy+0.00,-0.270022,1.9806678,0.496307,0.999068,0.0155356,0.040172,0.00273756,-1.47275,-0.00417105,-0.0121456,1.66937,-0.276926,-0.0433807,-1.49334,-0.00442478,-0.0125473,1.69738,-0.284336,-0.0438707,-0.000671888,-0.0152795,-0.102159,0.2,0.2,0,1.28,0,0,0,0.2,-0.2,0,1.28,0,0,0,-1.47275,-0.00417105,-0.0121456,1.66937,-0.276926,-0.0433807,-1.49334,-0.00442478,-0.0125473,1.69738,-0.284336,-0.0438707,-0.000671888,-0.0152795,-0.102159,0.2,0.2,0,1.28,0,0,0,0.2,-0.2,0,1.28,0,0,0
gen_000057_tz+0.04_tx-0.02_ty-0.01_p-0.05_fx-0.02_fy+0.00,-0.269251,1.9806695,0.4963,0.99937,0.0155254,0.0317952,0.00262843,-1.46227,-0.00429175,-0.0121706,1.65102,-0.252296,-0.0433685,-1.48298,-0.00455049,-0.0125685,1.67901,-0.259565,-0.0438577,-0.000456166,-0.0152219,-0.0854104,0.2,0.2,0,1.28,0,0,0,0.2,-0.2,0,1.28,0,0,0,-1.46227,-0.00429175,-0.0121706,1.65102,-0.252296,-0.0433685,-1.48298,-0.00455049,-0.0125685,1.67901,-0.259565,-0.0438577,-0.000456166,-0.0152219,-0.0854104,0.2,0.2,0,1.28,0,0,0,0.2,-0.2,0,1.28,0,0,0
gen_000058_tz+0.04_tx-0.02_ty-0.01_p-0.05_fx-0.01_fy+0.00,-0.268488,1.9806705,0.496304,0.9996,0.0155099,0.023506,0.00252001,-1.45134,-0.0044033,-0.0122079,1.63194,-0.227577,-0.0433581,-1.47216,-0.00466685,-0.012602,1.65992,-0.23472,-0.0438465,-0.000242981,-0.015153,-0.0688419,0.2,0.2,0,1.28,0,0,0,0.2,-0.2,0,1.28,0,0,0,-1.45134,-0.0044033,-0.0122079,1.63194,-0.227577,-0.0433581,-1.47216,-0.00466685,-0.012602,1.65992,-0.23472,-0.0438465,-0.000242981,-0.015153,-0.0688419,0.2,0.2,0,1.28,0,0,0,0.2,-0.2,0,1.28,0,0,0
gen_000059_tz+0.04_tx-0.02_ty-0.01_p-0.05_fx+0.00_fy+0.00,-0.267732,1.9806711,0.496319,0.99976,0.0154921,0.0153076,0.00241079,-1.43994,-0.00450228,-0.0122505,1.61212,-0.202764,-0.043348,-1.46087,-0.00477036,-0.0126411,1.64009,-0.209796,-0.0438355,-2.96182e-05,-0.0150784,-0.0524587,0.2,0.2,0,1.28,0,0,0,0.2,-0.2,0,1.28,0,0,0,-1.43994,-0.00450228,-0.0122505,1.61212,-0.202764,-0.043348,-1.46087,-0.00477036,-0.0126411,1.64009,-0.209796,-0.0438355,-2.96182e-05,-0.0150784,-0.0524587,0.2,0.2,0,1.28,0,0,0,0.2,-0.2,0,1.28,0,0,0
gen_000060_tz+0.04_tx-0.02_ty-0.01_p-0.05_fx+0.01_fy+0.00,-0.266982,1.9806718,0.496345,0.999852,0.0154785,0.00717392,0.00229697,-1.42801,-0.00458127,-0.012282,1.59157,-0.177879,-0.0433344,-1.44905,-0.00485337,-0.0126695,1.61955,-0.184811,-0.0438211,0.000191348,-0.0150112,-0.0362074,0.2,0.2,0,1.28,0,0,0,0.2,-0.2,0,1.28,0,0,0,-1.42801,-0.00458127,-0.012282,1.59157,-0.177879,-0.0433344,-1.44905,-0.00485337,-0.0126695,1.61955,-0.184811,-0.0438211,0.000191348,-0.0150112,-0.0362074,0.2,0.2,0,1.28,0,0,0,0.2,-0.2,0,1.28,0,0,0
gen_000061_tz+0.04_tx-0.02_ty-0.01_p-0.05_fx+0.02_fy+0.00,-0.266236,1.9806718,0.496381,0.999878,0.0154583,-0.000898992,0.00218341,-1.41556,-0.00465077,-0.0123303,1.57029,-0.152918,-0.0433238,-1.4367,-0.0049268,-0.0127148,1.59829,-0.159764,-0.0438095,0.000410402,-0.0149297,-0.0200793,0.2,0.2,0,1.28,0,0,0,0.2,-0.2,0,1.28,0,0,0,-1.41556,-0.00465077,-0.0123303,1.57029,-0.152918,-0.0433238,-1.4367,-0.0049268,-0.0127148,1.59829,-0.159764,-0.0438095,0.000410402,-0.0149297,-0.0200793,0.2,0.2,0,1.28,0,0,0,0.2,-0.2,0,1.28,0,0,0
gen_000062_tz+0.04_tx-0.02_ty-0.01_p-0.05_fx+0.03_fy+0.00,-0.265494,1.9806711,0.496428,0.999839,0.0154338,-0.00891521,0.0020689,-1.40257,-0.00470814,-0.0123902,1.54828,-0.127877,-0.043315,-1.4238,-0.00498793,-0.012772,1.57631,-0.134653,-0.0437998,0.000629727,-0.0148382,-0.00406532,0.2,0.2,0,1.28,0,0,0,0.2,-0.2,0,1.28,0,0,0,-1.40257,-0.00470814,-0.0123902,1.54828,-0.127877,-0.043315,-1.4238,-0.00498793,-0.012772,1.57631,-0.134653,-0.0437998,0.000629727,-0.0148382,-0.00406532,0.2,0.2,0,1.28,0,0,0,0.2,-0.2,0,1.28,0,0,0
gen_000063_tz+0.04_tx-0.01_ty-0.01_p-0.05_fx-0.03_fy+0.00,-0.260799,1.9806654,0.496327,0.998691,0.0155418,0.0486386,0.00284706,-1.48278,-0.00404047,-0.0121293,1.687,-0.301466,-0.043394,-1.50323,-0.00428893,-0.012535,1.71503,-0.309033,-0.0438847,-0.000889384,-0.0153279,-0.119094,0.2,0.2,0,1.28,0,0,0,0.2,-0.2,0,1.28,0,0,0,-1.48278,-0.00404047,-0.0121293,1.687,-0.301466,-0.043394,-1.50323,-0.00428893,-0.012535,1.71503,-0.309033,-0.0438847,-0.000889384,-0.0153279,-0.119094,0.2,0.2,0,1.28,0,0,0,0.2,-0.2,0,1.28,0,0,0
gen_000064_tz+0.04_tx-0.01_ty-0.01_p-0.05_fx-0.02_fy+0.00,-0.260022,1.9806678,0.496307,0.999068,0.0155356,0.0401721,0.00273757,-1.47275,-0.00417105,-0.0121455,1.66937,-0.276926,-0.0433807,-1.49334,-0.00442478,-0.0125472,1.69738,-0.284336,-0.0438707,-0.000671901,-0.0152795,-0.10216,0.2,0.2,0,1.28,0,0,0,0.2,-0.2,0,1.28,0,0,0,-1.47275,-0.00417105,-0.0121455,1.66937,-0.276926,-0.0433807,-1.49334,-0.00442478,-0.0125472,1.69738,-0.284336,-0.0438707,-0.000671901,-0.0152795,-0.10216,0.2,0.2,0,1.28,0,0,0,0.2,-0.2,0,1.28,0,0,0
gen_000065_tz+0.04_tx-0.01_ty-0.01_p-0.05_fx-0.01_fy+0.00,-0.259251,1.9806695,0.4963,0.99937,0.0155254,0.0317954,0.00262844,-1.46227,-0.00429175,-0.0121706,1.65102,-0.252296,-0.0433685,-1.48298,-0.00455049,-0.0125684,1.67901,-0.259564,-0.0438577,-0.000456181,-0.015222,-0.0854109,0.2,0.2,0,1.28,0,0,0,0.2,-0.2,0,1.28,0,0,0,-1.46227,-0.00429175,-0.0121706,1.65102,-0.252296,-0.0433685,-1.48298,-0.00455049,-0.0125684,1.67901,-0.259564,-0.0438577,-0.000456181,-0.015222,-0.0854109,0.2,0.2,0,1.28,0,0,0,0.2,-0.2,0,1.28,0,0,0
gen_000066_tz+0.04_tx-0.01_ty-0.01_p-0.05_fx+0.00_fy+0.00,-0.258488,1.9806705,0.496304,0.9996,0.01551,0.0235064,0.00252002,-1.45134,-0.00440331,-0.0122078,1.63194,-0.227576,-0.0433581,-1.47216,-0.00466685,-0.0126019,1.65992,-0.23472,-0.0438464,-0.000242999,-0.0151531,-0.0688426,0.2,0.2,0,1.28,0,0,0,0.2,-0.2,0,1.28,0,0,0,-1.45134,-0.00440331,-0.0122078,1.63194,-0.227576,-0.0433581,-1.47216,-0.00466685,-0.0126019,1.65992,-0.23472,-0.0438464,-0.000242999,-0.0151531,-0.0688426,0.2,0.2,0,1.28,0,0,0,0.2,-0.2,0,1.28,0,0,0
gen_000067_tz+0.04_tx-0.01_ty-0.01_p-0.05_fx+0.01_fy+0.00,-0.257732,1.9806711,0.496319,0.99976,0.0154921,0.015308,0.0024108,-1.43994,-0.00450228,-0.0122504,1.61212,-0.202763,-0.043348,-1.46087,-0.00477036,-0.012641,1.64009,-0.209795,-0.0438355,-2.96283e-05,-0.0150785,-0.0524595,0.2,0.2,0,1.28,0,0,0,0.2,-0.2,0,1.28,0,0,0,-1.43994,-0.00450228,-0.0122504,1.61212,-0.202763,-0.043348,-1.46087,-0.00477036,-0.012641,1.64009,-0.209795,-0.0438355,-2.96283e-05,-0.0150785,-0.0524595,0.2,0.2,0,1.28,0,0,0,0.2,-0.2,0,1.28,0,0,0
gen_000068_tz+0.04_tx-0.01_ty-0.01_p-0.05_fx+0.02_fy+0.00,-0.256982,1.9806718,0.496345,0.999852,0.0154785,0.00717411,0.00229697,-1.42802,-0.00458126,-0.012282,1.59157,-0.177879,-0.0433344,-1.44905,-0.00485337,-0.0126695,1.61955,-0.18481,-0.0438211,0.000191351,-0.0150112,-0.0362077,0.2,0.2,0,1.28,0,0,0,0.2,-0.2,0,1.28,0,0,0,-1.42802,-0.00458126,-0.012282,1.59157,-0.177879,-0.0433344,-1.44905,-0.00485337,-0.0126695,1.61955,-0.18481,-0.0438211,0.000191351,-0.0150112,-0.0362077,0.2,0.2,0,1.28,0,0,0,0.2,-0.2,0,1.28,0,0,0
gen_000069_tz+0.04_tx-0.01_ty-0.01_p-0.05_fx+0.03_fy+0.00,-0.256236,1.9806718,0.496381,0.999878,0.0154583,-0.000898855,0.00218341,-1.41557,-0.00465077,-0.0123303,1.57029,-0.152917,-0.0433238,-1.4367,-0.00492679,-0.0127149,1.59829,-0.159764,-0.0438095,0.000410407,-0.0149297,-0.0200796,0.2,0.2,0,1.28,0,0,0,0.2,-0.2,0,1.28,0,0,0,-1.41557,-0.00465077,-0.0123303,1.57029,-0.152917,-0.0433238,-1.4367,-0.00492679,-0.0127149,1.59829,-0.159764,-0.0438095,0.000410407,-0.0149297,-0.0200796,0.2,0.2,0,1.28,0,0,0,0.2,-0.2,0,1.28,0,0,0
gen_000070_tz+0.04_tx+0.00_ty-0.01_p-0.05_fx-0.03_fy+0.00,-0.251583,1.9806625,0.496358,0.998237,0.0155444,0.057199,0.00295687,-1.49236,-0.0038998,-0.0121202,1.70389,-0.325913,-0.043408,-1.51267,-0.00414269,-0.01253,1.73195,-0.333651,-0.0438993,-0.00110843,-0.0153682,-0.136225,0.2,0.2,0,1.28,0,0,0,0.2,-0.2,0,1.28,0,0,0,-1.49236,-0.0038998,-0.0121202,1.70389,-0.325913,-0.043408,-1.51267,-0.00414269,-0.01253,1.73195,-0.333651,-0.0438993,-0.00110843,-0.0153682,-0.136225,0.2,0.2,0,1.28,0,0,0,0.2,-0.2,0,1.28,0,0,0
gen_000071_tz+0.04_tx+0.00_ty-0.01_p-0.05_fx-0.02_fy+0.00,-0.250799,1.9806654,0.496327,0.998691,0.0155418,0.0486387,0.00284706,-1.48278,-0.00404047,-0.0121293,1.687,-0.301466,-0.043394,-1.50323,-0.00428893,-0.0125349,1.71503,-0.309033,-0.0438847,-0.000889392,-0.0153279,-0.119095,0.2,0.2,0,1.28,0,0,0,0.2,-0.2,0,1.28,0,0,0,-1.48278,-0.00404047,-0.0121293,1.687,-0.301466,-0.043394,-1.50323,-0.00428893,-0.0125349,1.71503,-0.309033,-0.0438847,-0.000889392,-0.0153279,-0.119095,0.2,0.2,0,1.28,0,0,0,0.2,-0.2,0,1.28,0,0,0
gen_000072_tz+0.04_tx+0.00_ty-0.01_p-0.05_fx-0.01_fy+0.00,-0.250022,1.9806678,0.496307,0.999068,0.0155356,0.0401723,0.00273757,-1.47275,-0.00417105,-0.0121455,1.66937,-0.276926,-0.0433807,-1.49334,-0.00442478,-0.0125471,1.69738,-0.284336,-0.0438707,-0.000671907,-0.0152795,-0.10216,0.2,0.2,0,1.28,0,0,0,0.2,-0.2,0,1.28,0,0,0,-1.47275,-0.00417105,-0.0121455,1.66937,-0.276926,-0.0433807,-1.49334,-0.00442478,-0.0125471,1.69738,-0.284336,-0.0438707,-0.000671907,-0.0152795,-0.10216,0.2,0.2,0,1.28,0,0,0,0.2,-0.2,0,1.28,0,0,0
gen_000073_tz+0.04_tx+0.00_ty-0.01_p-0.05_fx+0.00_fy+0.00,-0.249251,1.9806695,0.4963,0.99937,0.0155254,0.0317956,0.00262844,-1.46228,-0.00429175,-0.0121705,1.65102,-0.252295,-0.0433685,-1.48298,-0.00455049,-0.0125683,1.67901,-0.259564,-0.0438577,-0.000456186,-0.015222,-0.0854113,0.2,0.2,0,1.28,0,0,0,0.2,-0.2,0,1.28,0,0,0,-1.46228,-0.00429175,-0.0121705,1.65102,-0.252295,-0.0433685,-1.48298,-0.00455049,-0.0125683,1.67901,-0.259564,-0.0438577,-0.000456186,-0.015222,-0.0854113,0.2,0.2,0,1.28,0,0,0,0.2,-0.2,0,1.28,0,0,0
gen_000074_tz+0.04_tx+0.00_ty-0.01_p-0.05_fx+0.01_fy+0.00,-0.248488,1.9806705,0.496304,0.9996,0.01551,0.0235067,0.00252002,-1.45134,-0.0044033,-0.0122078,1.63194,-0.227576,-0.0433581,-1.47216,-0.00466685,-0.0126019,1.65991,-0.23472,-0.0438464,-0.000243,-0.0151531,-0.0688432,0.2,0.2,0,1.28,0,0,0,0.2,-0.2,0,1.28,0,0,0,-1.45134,-0.0044033,-0.0122078,1.63194,-0.227576,-0.0433581,-1.47216,-0.00466685,-0.0126019,1.65991,-0.23472,-0.0438464,-0.000243,-0.0151531,-0.0688432,0.2,0.2,0,1.28,0,0,0,0.2,-0.2,0,1.28,0,0,0
gen_000075_tz+0.04_tx+0.00_ty-0.01_p-0.05_fx+0.02_fy+0.00,-0.247732,1.9806712,0.496319,0.99976,0.0154929,0.015308,0.00241041,-1.43994,-0.00450146,-0.0122486,1.61211,-0.202763,-0.0433476,-1.46087,-0.00476951,-0.0126392,1.64009,-0.209795,-0.0438351,-2.88862e-05,-0.0150799,-0.0524593,0.2,0.2,0,1.28,0,0,0,0.2,-0.2,0,1.28,0,0,0,-1.43994,-0.00450146,-0.0122486,1.61211,-0.202763,-0.0433476,-1.46087,-0.00476951,-0.0126392,1.64009,-0.209795,-0.0438351,-2.88862e-05,-0.0150799,-0.0524593,0.2,0.2,0,1.28,0,0,0,0.2,-0.2,0,1.28,0,0,0
gen_000076_tz+0.04_tx+0.00_ty-0.01_p-0.05_fx+0.03_fy+0.00,-0.246982,1.9806718,0.496345,0.999852,0.0154785,0.00717432,0.00229696,-1.42802,-0.00458125,-0.0122821,1.59157,-0.177879,-0.0433344,-1.44905,-0.00485335,-0.0126696,1.61955,-0.18481,-0.0438211,0.000191362,-0.0150111,-0.0362082,0.2,0.2,0,1.28,0,0,0,0.2,-0.2,0,1.28,0,0,0,-1.42802,-0.00458125,-0.0122821,1.59157,-0.177879,-0.0433344,-1.44905,-0.00485335,-0.0126696,1.61955,-0.18481,-0.0438211,0.000191362,-0.0150111,-0.0362082,0.2,0.2,0,1.28,0,0,0,0.2,-0.2,0,1.28,0,0,0
gen_000077_tz+0.04_tx+0.01_ty-0.01_p-0.05_fx-0.03_fy+0.00,-0.242376,1.980659,0.496403,0.997703,0.0155435,0.0658568,0.00306708,-1.50152,-0.00374916,-0.0121175,1.72006,-0.350261,-0.0434225,-1.52167,-0.00398616,-0.0125314,1.74815,-0.358186,-0.0439143,-0.0013291,-0.0154006,-0.153559,0.2,0.2,0,1.28,0,0,0,0.2,-0.2,0,1.28,0,0,0,-1.50152,-0.00374916,-0.0121175,1.72006,-0.350261,-0.0434225,-1.52167,-0.00398616,-0.0125314,1.74815,-0.358186,-0.0439143,-0.0013291,-0.0154006,-0.153559,0.2,0.2,0,1.28,0,0,0,0.2,-0.2,0,1.28,0,0,0
gen_000078_tz+0.04_tx+0.01_ty-0.01_p-0.05_fx-0.02_fy+0.00,-0.241583,1.9806625,0.496358,0.998237,0.0155444,0.0571991,0.00295687,-1.49236,-0.0038998,-0.0121202,1.70389,-0.325913,-0.043408,-1.51267,-0.00414269,-0.0125299,1.73195,-0.333651,-0.0438993,-0.00110844,-0.0153682,-0.136225,0.2,0.2,0,1.28,0,0,0,0.2,-0.2,0,1.28,0,0,0,-1.49236,-0.0038998,-0.0121202,1.70389,-0.325913,-0.043408,-1.51267,-0.00414269,-0.0125299,1.73195,-0.333651,-0.0438993,-0.00110844,-0.0153682,-0.136225,0.2,0.2,0,1.28,0,0,0,0.2,-0.2,0,1.28,0,0,0
gen_000079_tz+0.04_tx+0.01_ty-0.01_p-0.05_fx-0.01_fy+0.00,-0.240799,1.9806654,0.496327,0.998691,0.0155418,0.0486388,0.00284706,-1.48278,-0.00404047,-0.0121293,1.687,-0.301466,-0.043394,-1.50323,-0.00428892,-0.0125349,1.71503,-0.309033,-0.0438846,-0.000889395,-0.015328,-0.119095,0.2,0.2,0,1.28,0,0,0,0.2,-0.2,0,1.28,0,0,0,-1.48278,-0.00404047,-0.0121293,1.687,-0.301466,-0.043394,-1.50323,-0.00428892,-0.0125349,1.71503,-0.309033,-0.0438846,-0.000889395,-0.015328,-0.119095,0.2,0.2,0,1.28,0,0,0,0.2,-0.2,0,1.28,0,0,0
gen_000080_tz+0.04_tx+0.01_ty-0.01_p-0.05_fx+0.00_fy+0.00,-0.240022,1.9806678,0.496307,0.999068,0.0155356,0.0401724,0.00273757,-1.47275,-0.00417105,-0.0121455,1.66937,-0.276926,-0.0433807,-1.49334,-0.00442478,-0.0125471,1.69738,-0.284335,-0.0438707,-0.000671909,-0.0152796,-0.10216,0.2,0.2,0,1.28,0,0,0,0.2,-0.2,0,1.28,0,0,0,-1.47275,-0.00417105,-0.0121455,1.66937,-0.276926,-0.0433807,-1.49334,-0.00442478,-0.0125471,1.69738,-0.284335,-0.0438707,-0.000671909,-0.0152796,-0.10216,0.2,0.2,0,1.28,0,0,0,0.2,-0.2,0,1.28,0,0,0
gen_000081_tz+0.04_tx+0.01_ty-0.01_p-0.05_fx+0.01_fy+0.00,-0.239251,1.9806695,0.4963,0.99937,0.0155254,0.0317957,0.00262844,-1.46228,-0.00429175,-0.0121706,1.65102,-0.252295,-0.0433685,-1.48298,-0.00455049,-0.0125684,1.67901,-0.259564,-0.0438577,-0.000456184,-0.015222,-0.0854115,0.2,0.2,0,1.28,0,0,0,0.2,-0.2,0,1.28,0,0,0,-1.46228,-0.00429175,-0.0121706,1.65102,-0.252295,-0.0433685,-1.48298,-0.00455049,-0.0125684,1.67901,-0.259564,-0.0438577,-0.000456184,-0.015222,-0.0854115,0.2,0.2,0,1.28,0,0,0,0.2,-0.2,0,1.28,0,0,0
gen_000082_tz+0.04_tx+0.01_ty-0.01_p-0.05_fx+0.02_fy+0.00,-0.238488,1.9806705,0.496304,0.9996,0.0155099,0.0235069,0.00252002,-1.45134,-0.00440329,-0.0122079,1.63194,-0.227576,-0.0433581,-1.47216,-0.00466683,-0.012602,1.65991,-0.234719,-0.0438465,-0.000242986,-0.015153,-0.0688437,0.2,0.2,0,1.28,0,0,0,0.2,-0.2,0,1.28,0,0,0,-1.45134,-0.00440329,-0.0122079,1.63194,-0.227576,-0.0433581,-1.47216,-0.00466683,-0.012602,1.65991,-0.234719,-0.0438465,-0.000242986,-0.015153,-0.0688437,0.2,0.2,0,1.28,0,0,0,0.2,-0.2,0,1.28,0,0,0
gen_000083_tz+0.04_tx+0.01_ty-0.01_p-0.05_fx+0.03_fy+0.00,-0.237732,1.9806712,0.496319,0.99976,0.0154928,0.0153083,0.0024104,-1.43994,-0.00450143,-0.0122488,1.61211,-0.202763,-0.0433476,-1.46087,-0.00476948,-0.0126394,1.64009,-0.209795,-0.0438351,-2.88578e-05,-0.0150798,-0.05246,0.2,0.2,0,1.28,0,0,0,0.2,-0.2,0,1.28,0,0,0,-1.43994,-0.00450143,-0.0122488,1.61211,-0.202763,-0.0433476,-1.46087,-0.00476948,-0.0126394,1.64009,-0.209795,-0.0438351,-2.88578e-05,-0.0150798,-0.05246,0.2,0.2,0,1.28,0,0,0,0.2,-0.2,0,1.28,0,0,0
gen_000084_tz+0.04_tx+0.02_ty-0.01_p-0.05_fx-0.03_fy+0.00,-0.233176,1.9806549,0.496461,0.997086,0.0155392,0.074614,0.00317787,-1.51026,-0.00358888,-0.0121206,1.73549,-0.374505,-0.0434373,-1.53025,-0.00381966,-0.0125388,1.76362,-0.382632,-0.0439296,-0.0015516,-0.015425,-0.171104,0.2,0.2,0,1.28,0,0,0,0.2,-0.2,0,1.28,0,0,0,-1.51026,-0.00358888,-0.0121206,1.73549,-0.374505,-0.0434373,-1.53025,-0.00381966,-0.0125388,1.76362,-0.382632,-0.0439296,-0.0015516,-0.015425,-0.171104,0.2,0.2,0,1.28,0,0,0,0.2,-0.2,0,1.28,0,0,0
gen_000085_tz+0.04_tx+0.02_ty-0.01_p-0.05_fx-0.02_fy+0.00,-0.232376,1.980659,0.496403,0.997703,0.0155435,0.0658569,0.00306709,-1.50152,-0.00374916,-0.0121174,1.72006,-0.350261,-0.0434225,-1.52167,-0.00398616,-0.0125314,1.74815,-0.358186,-0.0439143,-0.0013291,-0.0154006,-0.153559,0.2,0.2,0,1.28,0,0,0,0.2,-0.2,0,1.28,0,0,0,-1.50152,-0.00374916,-0.0121174,1.72006,-0.350261,-0.0434225,-1.52167,-0.00398616,-0.0125314,1.74815,-0.358186,-0.0439143,-0.0013291,-0.0154006,-0.153559,0.2,0.2,0,1.28,0,0,0,0.2,-0.2,0,1.28,0,0,0
gen_000086_tz+0.04_tx+0.02_ty-0.01_p-0.05_fx-0.01_fy+0.00,-0.231583,1.9806625,0.496358,0.998237,0.0155444,0.0571992,0.00295687,-1.49236,-0.0038998,-0.0121202,1.70389,-0.325913,-0.043408,-1.51267,-0.00414268,-0.0125299,1.73195,-0.333651,-0.0438993,-0.00110844,-0.0153682,-0.136225,0.2,0.2,0,1.28,0,0,0,0.2,-0.2,0,1.28,0,0,0,-1.49236,-0.0038998,-0.0121202,1.70389,-0.325913,-0.043408,-1.51267,-0.00414268,-0.0125299,1.73195,-0.333651,-0.0438993,-0.00110844,-0.0153682,-0.136225,0.2,0.2,0,1.28,0,0,0,0.2,-0.2,0,1.28,0,0,0
gen_000087_tz+0.04_tx+0.02_ty-0.01_p-0.05_fx+0.00_fy+0.00,-0.230799,1.9806654,0.496327,0.998691,0.0155418,0.0486389,0.00284706,-1.48278,-0.00404047,-0.0121293,1.687,-0.301466,-0.043394,-1.50323,-0.00428892,-0.0125349,1.71503,-0.309033,-0.0438846,-0.000889395,-0.015328,-0.119095,0.2,0.2,0,1.28,0,0,0,0.2,-0.2,0,1.28,0,0,0,-1.48278,-0.00404047,-0.0121293,1.687,-0.301466,-0.043394,-1.50323,-0.00428892,-0.0125349,1.71503,-0.309033,-0.0438846,-0.000889395,-0.015328,-0.119095,0.2,0.2,0,1.28,0,0,0,0.2,-0.2,0,1.28,0,0,0
gen_000088_tz+0.04_tx+0.02_ty-0.01_p-0.05_fx+0.01_fy+0.00,-0.230022,1.9806678,0.496307,0.999068,0.0155356,0.0401725,0.00273757,-1.47275,-0.00417105,-0.0121455,1.66937,-0.276925,-0.0433807,-1.49334,-0.00442478,-0.0125472,1.69738,-0.284335,-0.0438707,-0.000671906,-0.0152795,-0.10216,0.2,0.2,0,1.28,0,0,0,0.2,-0.2,0,1.28,0,0,0,-1.47275,-0.00417105,-0.0121455,1.66937,-0.276925,-0.0433807,-1.49334,-0.00442478,-0.0125472,1.69738,-0.284335,-0.0438707,-0.000671906,-0.0152795,-0.10216,0.2,0.2,0,1.28,0,0,0,0.2,-0.2,0,1.28,0,0,0
gen_000089_tz+0.04_tx+0.02_ty-0.01_p-0.05_fx+0.02_fy+0.00,-0.229251,1.9806695,0.4963,0.99937,0.0155254,0.0317958,0.00262844,-1.46228,-0.00429174,-0.0121706,1.65102,-0.252295,-0.0433685,-1.48298,-0.00455048,-0.0125685,1.67901,-0.259564,-0.0438577,-0.000456174,-0.015222,-0.0854117,0.2,0.2,0,1.28,0,0,0,0.2,-0.2,0,1.28,0,0,0,-1.46228,-0.00429174,-0.0121706,1.65102,-0.252295,-0.0433685,-1.48298,-0.00455048,-0.0125685,1.67901,-0.259564,-0.0438577,-0.000456174,-0.015222,-0.0854117,0.2,0.2,0,1.28,0,0,0,0.2,-0.2,0,1.28,0,0,0
gen_000090_tz+0.04_tx+0.02_ty-0.01_p-0.05_fx+0.03_fy+0.00,-0.228488,1.9806705,0.496304,0.9996,0.0155092,0.0235065,0.00252029,-1.45134,-0.0044039,-0.0122098,1.63194,-0.227576,-0.0433585,-1.47216,-0.00466748,-0.0126038,1.65991,-0.23472,-0.0438469,-0.000243503,-0.0151516,-0.0688428,0.2,0.2,0,1.28,0,0,0,0.2,-0.2,0,1.28,0,0,0,-1.45134,-0.0044039,-0.0122098,1.63194,-0.227576,-0.0433585,-1.47216,-0.00466748,-0.0126038,1.65991,-0.23472,-0.0438469,-0.000243503,-0.0151516,-0.0688428,0.2,0.2,0,1.28,0,0,0,0.2,-0.2,0,1.28,0,0,0
gen_000091_tz+0.04_tx+0.03_ty-0.01_p-0.05_fx-0.03_fy+0.00,-0.223983,1.9806502,0.496533,0.996384,0.0155312,0.0834707,0.00328942,-1.51859,-0.00341937,-0.0121296,1.75019,-0.39864,-0.0434526,-1.53839,-0.00364359,-0.0125522,1.77836,-0.406983,-0.0439453,-0.00177614,-0.015441,-0.18886,0.2,0.2,0,1.28,0,0,0,0.2,-0.2,0,1.28,0,0,0,-1.51859,-0.00341937,-0.0121296,1.75019,-0.39864,-0.0434526,-1.53839,-0.00364359,-0.0125522,1.77836,-0.406983,-0.0439453,-0.00177614,-0.015441,-0.18886,0.2,0.2,0,1.28,0,0,0,0.2,-0.2,0,1.28,0,0,0
gen_000092_tz+0.04_tx+0.03_ty-0.01_p-0.05_fx-0.02_fy+0.00,-0.223176,1.9806549,0.496461,0.997086,0.0155392,0.0746141,0.00317787,-1.51026,-0.00358888,-0.0121206,1.73549,-0.374505,-0.0434373,-1.53025,-0.00381966,-0.0125388,1.76362,-0.382632,-0.0439296,-0.0015516,-0.015425,-0.171104,0.2,0.2,0,1.28,0,0,0,0.2,-0.2,0,1.28,0,0,0,-1.51026,-0.00358888,-0.0121206,1.73549,-0.374505,-0.0434373,-1.53025,-0.00381966,-0.0125388,1.76362,-0.382632,-0.0439296,-0.0015516,-0.015425,-0.171104,0.2,0.2,0,1.28,0,0,0,0.2,-0.2,0,1.28,0,0,0
gen_000093_tz+0.04_tx+0.03_ty-0.01_p-0.05_fx-0.01_fy+0.00,-0.222376,1.980659,0.496403,0.997703,0.0155435,0.065857,0.00306709,-1.50152,-0.00374916,-0.0121174,1.72006,-0.350261,-0.0434225,-1.52167,-0.00398616,-0.0125314,1.74815,-0.358186,-0.0439143,-0.0013291,-0.0154006,-0.15356,0.2,0.2,0,1.28,0,0,0,0.2,-0.2,0,1.28,0,0,0,-1.50152,-0.00374916,-0.0121174,1.72006,-0.350261,-0.0434225,-1.52167,-0.00398616,-0.0125314,1.74815,-0.358186,-0.0439143,-0.0013291,-0.0154006,-0.15356,0.2,0.2,0,1.28,0,0,0,0.2,-0.2,0,1.28,0,0,0
gen_000094_tz+0.04_tx+0.03_ty-0.01_p-0.05_fx+0.00_fy+0.00,-0.221583,1.9806625,0.496358,0.998237,0.0155444,0.0571992,0.00295687,-1.49236,-0.0038998,-0.0121202,1.70389,-0.325913,-0.043408,-1.51267,-0.00414268,-0.0125299,1.73195,-0.333651,-0.0438993,-0.00110844,-0.0153682,-0.136225,0.2,0.2,0,1.28,0,0,0,0.2,-0.2,0,1.28,0,0,0,-1.49236,-0.0038998,-0.0121202,1.70389,-0.325913,-0.043408,-1.51267,-0.00414268,-0.0125299,1.73195,-0.333651,-0.0438993,-0.00110844,-0.0153682,-0.136225,0.2,0.2,0,1.28,0,0,0,0.2,-0.2,0,1.28,0,0,0
gen_000095_tz+0.04_tx+0.03_ty-0.01_p-0.05_fx+0.01_fy+0.00,-0.220799,1.9806654,0.496327,0.998691,0.0155418,0.048639,0.00284706,-1.48278,-0.00404046,-0.0121293,1.687,-0.301466,-0.043394,-1.50323,-0.00428892,-0.0125349,1.71503,-0.309033,-0.0438847,-0.000889392,-0.0153279,-0.119095,0.2,0.2,0,1.28,0,0,0,0.2,-0.2,0,1.28,0,0,0,-1.48278,-0.00404046,-0.0121293,1.687,-0.301466,-0.043394,-1.50323,-0.00428892,-0.0125349,1.71503,-0.309033,-0.0438847,-0.000889392,-0.0153279,-0.119095,0.2,0.2,0,1.28,0,0,0,0.2,-0.2,0,1.28,0,0,0
gen_000096_tz+0.04_tx+0.03_ty-0.01_p-0.05_fx+0.02_fy+0.00,-0.220021,1.9806677,0.496307,0.999068,0.0155354,0.0401715,0.00273766,-1.47275,-0.00417129,-0.0121461,1.66937,-0.276926,-0.0433809,-1.49334,-0.00442502,-0.0125478,1.69738,-0.284336,-0.0438708,-0.000672079,-0.0152791,-0.102158,0.2,0.2,0,1.28,0,0,0,0.2,-0.2,0,1.28,0,0,0,-1.47275,-0.00417129,-0.0121461,1.66937,-0.276926,-0.0433809,-1.49334,-0.00442502,-0.0125478,1.69738,-0.284336,-0.0438708,-0.000672079,-0.0152791,-0.102158,0.2,0.2,0,1.28,0,0,0,0.2,-0.2,0,1.28,0,0,0
gen_000097_tz+0.04_tx+0.03_ty-0.01_p-0.05_fx+0.03_fy+0.00,-0.219251,1.9806695,0.4963,0.99937,0.0155253,0.0317959,0.00262843,-1.46228,-0.00429172,-0.0121707,1.65102,-0.252295,-0.0433685,-1.48298,-0.00455047,-0.0125686,1.67901,-0.259564,-0.0438577,-0.000456156,-0.0152219,-0.085412,0.2,0.2,0,1.28,0,0,0,0.2,-0.2,0,1.28,0,0,0,-1.46228,-0.00429172,-0.0121707,1.65102,-0.252295,-0.0433685,-1.48298,-0.00455047,-0.0125686,1.67901,-0.259564,-0.0438577,-0.000456156,-0.0152219,-0.085412,0.2,0.2,0,1.28,0,0,0,0.2,-0.2,0,1.28,0,0,0
gen_000098_tz+0.04_tx-0.03_ty+0.00_p-0.05_fx-0.03_fy+0.00,-0.279244,1.9899324,0.496284,0.999467,0.00735145,0.0317206,0.00249788,-1.46859,-0.00459612,-0.00797834,1.65878,-0.253545,-0.0228654,-1.47805,-0.00466937,-0.00803587,1.67362,-0.258922,-0.0229667,0.00031917,0.00109507,-0.0852929,0.2,0.2,0,1.28,0,0,0,0.2,-0.2,0,1.28,0,0,0,-1.46859,-0.00459612,-0.00797834,1.65878,-0.253545,-0.0228654,-1.47805,-0.00466937,-0.00803587,1.67362,-0.258922,-0.0229667,0.00031917,0.00109507,-0.0852929,0.2,0.2,0,1.28,0,0,0,0.2,-0.2,0,1.28,0,0,0
gen_000099_tz+0.04_tx-0.03_ty+0.00_p-0.05_fx-0.02_fy+0.00,-0.27848,1.9899336,0.496288,0.999696,0.00734731,0.023428,0.00242627,-1.45766,-0.0046219,-0.00799038,1.63969,-0.228807,-0.0228536,-1.46721,-0.00469649,-0.00804706,1.65453,-0.23409,-0.0229547,0.00032293,0.00114873,-0.0687201,0.2,0.2,0,1.28,0,0,0,0.2,-0.2,0,1.28,0,0,0,-1.45766,-0.0046219,-0.00799038,1.63969,-0.228807,-0.0228536,-1.46721,-0.00469649,-0.00804706,1.65453,-0.23409,-0.0229547,0.00032293,0.00114873,-0.0687201,0.2,0.2,0,1.28,0,0,0,0.2,-0.2,0,1.28,0,0,0
gen_000100_tz+0.04_tx-0.03_ty+0.00_p-0.05_fx-0.01_fy+0.00,-0.277725,1.9899347,0.496304,0.999854,0.00734354,0.0152389,0.00235424,-1.4463,-0.00463987,-0.00800224,1.61986,-0.203966,-0.0228411,-1.45594,-0.00471571,-0.00805816,1.6347,-0.209163,-0.0229421,0.000328041,0.0012001,-0.0523581,0.2,0.2,0,1.28,0,0,0,0.2,-0.2,0,1.28,0,0,0,-1.4463,-0.00463987,-0.00800224,1.61986,-0.203966,-0.0228411,-1.45594,-0.00471571,-0.00805816,1.6347,-0.209163,-0.0229421,0.000328041,0.0012001,-0.0523581,0.2,0.2,0,1.28,0,0,0,0.2,-0.2,0,1.28,0,0,0
gen_000101_tz+0.04_tx-0.03_ty+0.00_p-0.05_fx+0.00_fy+0.00,-0.276974,1.9899352,0.49633,0.999945,0.00733473,0.00710071,0.00228557,-1.43439,-0.00465867,-0.00802771,1.59931,-0.179067,-0.022831,-1.44411,-0.00473574,-0.00808286,1.61417,-0.18419,-0.0229317,0.000326232,0.00126039,-0.0361006,0.2,0.2,0,1.28,0,0,0,0.2,-0.2,0,1.28,0,0,0,-1.43439,-0.00465867,-0.00802771,1.59931,-0.179067,-0.022831,-1.44411,-0.00473574,-0.00808286,1.61417,-0.18419,-0.0229317,0.000326232,0.00126039,-0.0361006,0.2,0.2,0,1.28,0,0,0,0.2,-0.2,0,1.28,0,0,0
gen_000102_tz+0.04_tx-0.03_ty+0.00_p-0.05_fx+0.01_fy+0.00,-0.276228,1.9899356,0.496366,0.99997,0.00732709,-0.000973493,0.00221523,-1.42195,-0.00466746,-0.00805145,1.57804,-0.154094,-0.0228197,-1.43175,-0.0047457,-0.00810594,1.59291,-0.15915,-0.0229203,0.000327601,0.00131702,-0.0199727,0.2,0.2,0,1.28,0,0,0,0.2,-0.2,0,1.28,0,0,0,-1.42195,-0.00466746,-0.00805145,1.57804,-0.154094,-0.0228197,-1.43175,-0.0047457,-0.00810594,1.59291,-0.15915,-0.0229203,0.000327601,0.00131702,-0.0199727,0.2,0.2,0,1.28,0,0,0,0.2,-0.2,0,1.28,0,0,0
gen_000103_tz+0.04_tx-0.03_ty+0.00_p-0.05_fx+0.02_fy+0.00,-0.275487,1.9899359,0.496413,0.999931,0.00731874,-0.00898873,0.00214443,-1.40897,-0.00466888,-0.00807823,1.55603,-0.129043,-0.0228086,-1.41885,-0.00474823,-0.00813215,1.57092,-0.134039,-0.0229089,0.000329679,0.00137381,-0.00396331,0.2,0.2,0,1.28,0,0,0,0.2,-0.2,0,1.28,0,0,0,-1.40897,-0.00466888,-0.00807823,1.55603,-0.129043,-0.0228086,-1.41885,-0.00474823,-0.00813215,1.57092,-0.134039,-0.0229089,0.000329679,0.00137381,-0.00396331,0.2,0.2,0,1.28,0,0,0,0.2,-0.2,0,1.28,0,0,0
gen_000104_tz+0.04_tx-0.03_ty+0.00_p-0.05_fx+0.03_fy+0.00,-0.274749,1.9899359,0.496469,0.999827,0.00730944,-0.0169557,0.00207312,-1.39543,-0.0046629,-0.00810883,1.53329,-0.103915,-0.0227976,-1.40539,-0.00474331,-0.00816226,1.5482,-0.10886,-0.0228978,0.000332403,0.00143138,0.01195,0.2,0.2,0,1.28,0,0,0,0.2,-0.2,0,1.28,0,0,0,-1.39543,-0.0046629,-0.00810883,1.53329,-0.103915,-0.0227976,-1.40539,-0.00474331,-0.00816226,1.5482,-0.10886,-0.0228978,0.000332403,0.00143138,0.01195,0.2,0.2,0,1.28,0,0,0,0.2,-0.2,0,1.28,0,0,0
gen_000105_tz+0.04_tx-0.02_ty+0.00_p-0.05_fx-0.03_fy+0.00,-0.270014,1.9899311,0.496291,0.999165,0.0073553,0.0400986,0.00256949,-1.47905,-0.00456365,-0.00796767,1.67713,-0.2782,-0.0228768,-1.48841,-0.0046355,-0.00802612,1.69198,-0.283679,-0.0229782,0.000315618,0.0010405,-0.102041,0.2,0.2,0,1.28,0,0,0,0.2,-0.2,0,1.28,0,0,0,-1.47905,-0.00456365,-0.00796767,1.67713,-0.2782,-0.0228768,-1.48841,-0.0046355,-0.00802612,1.69198,-0.283679,-0.0229782,0.000315618,0.0010405,-0.102041,0.2,0.2,0,1.28,0,0,0,0.2,-0.2,0,1.28,0,0,0
gen_000106_tz+0.04_tx-0.02_ty+0.00_p-0.05_fx-0.02_fy+0.00,-0.269244,1.9899324,0.496284,0.999467,0.00735145,0.0317209,0.00249789,-1.46859,-0.00459612,-0.00797835,1.65878,-0.253544,-0.0228654,-1.47805,-0.00466938,-0.00803588,1.67362,-0.258921,-0.0229667,0.000319165,0.00109507,-0.0852933,0.2,0.2,0,1.28,0,0,0,0.2,-0.2,0,1.28,0,0,0,-1.46859,-0.00459612,-0.00797835,1.65878,-0.253544,-0.0228654,-1.47805,-0.00466938,-0.00803588,1.67362,-0.258921,-0.0229667,0.000319165,0.00109507,-0.0852933,0.2,0.2,0,1.28,0,0,0,0.2,-0.2,0,1.28,0,0,0
gen_000107_tz+0.04_tx-0.02_ty+0.00_p-0.05_fx-0.01_fy+0.00,-0.26848,1.9899336,0.496288,0.999696,0.0073473,0.0234285,0.00242628,-1.45767,-0.00462192,-0.0079904,1.63969,-0.228806,-0.0228536,-1.46721,-0.00469651,-0.00804709,1.65453,-0.234089,-0.0229547,0.000322916,0.00114874,-0.0687211,0.2,0.2,0,1.28,0,0,0,0.2,-0.2,0,1.28,0,0,0,-1.45767,-0.00462192,-0.0079904,1.63969,-0.228806,-0.0228536,-1.46721,-0.00469651,-0.00804709,1.65453,-0.234089,-0.0229547,0.000322916,0.00114874,-0.0687211,0.2,0.2,0,1.28,0,0,0,0.2,-0.2,0,1.28,0,0,0
gen_000108_tz+0.04_tx-0.02_ty+0.00_p-0.05_fx+0.00_fy+0.00,-0.267725,1.9899347,0.496304,0.999854,0.00734328,0.015239,0.00235445,-1.4463,-0.0046403,-0.0080029,1.61986,-0.203966,-0.0228413,-1.45594,-0.00471614,-0.00805881,1.6347,-0.209163,-0.0229422,0.000327644,0.00120063,-0.0523583,0.2,0.2,0,1.28,0,0,0,0.2,-0.2,0,1.28,0,0,0,-1.4463,-0.0046403,-0.0080029,1.61986,-0.203966,-0.0228413,-1.45594,-0.00471614,-0.00805881,1.6347,-0.209163,-0.0229422,0.000327644,0.00120063,-0.0523583,0.2,0.2,0,1.28,0,0,0,0.2,-0.2,0,1.28,0,0,0
gen_000109_tz+0.04_tx-0.02_ty+0.00_p-0.05_fx+0.01_fy+0.00,-0.266974,1.9899352,0.49633,0.999945,0.00733467,0.00709991,0.00228562,-1.43439,-0.00465877,-0.00802785,1.59931,-0.179068,-0.022831,-1.4441,-0.00473585,-0.008083,1.61417,-0.184191,-0.0229317,0.000326127,0.00126051,-0.036099,0.2,0.2,0,1.28,0,0,0,0.2,-0.2,0,1.28,0,0,0,-1.43439,-0.00465877,-0.00802785,1.59931,-0.179068,-0.022831,-1.4441,-0.00473585,-0.008083,1.61417,-0.184191,-0.0229317,0.000326127,0.00126051,-0.036099,0.2,0.2,0,1.28,0,0,0,0.2,-0.2,0,1.28,0,0,0
gen_000110_tz+0.04_tx-0.02_ty+0.00_p-0.05_fx+0.02_fy+0.00,-0.266228,1.9899356,0.496366,0.99997,0.00732709,-0.000973376,0.00221523,-1.42195,-0.00466746,-0.00805145,1.57804,-0.154094,-0.0228197,-1.43175,-0.0047457,-0.00810594,1.59291,-0.159149,-0.0229203,0.000327602,0.00131702,-0.019973,0.2,0.2,0,1.28,0,0,0,0.2,-0.2,0,1.28,0,0,0,-1.42195,-0.00466746,-0.00805145,1.57804,-0.154094,-0.0228197,-1.43175,-0.0047457,-0.00810594,1.59291,-0.159149,-0.0229203,0.000327602,0.00131702,-0.019973,0.2,0.2,0,1.28,0,0,0,0.2,-0.2,0,1.28,0,0,0
gen_000111_tz+0.04_tx-0.02_ty+0.00_p-0.05_fx+0.03_fy+0.00,-0.265487,1.9899359,0.496413,0.999931,0.00731874,-0.00898863,0.00214443,-1.40897,-0.00466888,-0.00807823,1.55603,-0.129043,-0.0228086,-1.41885,-0.00474823,-0.00813215,1.57092,-0.134039,-0.0229089,0.000329683,0.00137381,-0.00396351,0.2,0.2,0,1.28,0,0,0,0.2,-0.2,0,1.28,0,0,0,-1.40897,-0.00466888,-0.00807823,1.55603,-0.129043,-0.0228086,-1.41885,-0.00474823,-0.00813215,1.57092,-0.134039,-0.0229089,0.000329683,0.00137381,-0.00396351,0.2,0.2,0,1.28,0,0,0,0.2,-0.2,0,1.28,0,0,0
gen_000112_tz+0.04_tx-0.01_ty+0.00_p-0.05_fx-0.03_fy+0.00,-0.260791,1.9899295,0.496311,0.998789,0.00735846,0.0485666,0.00264155,-1.48906,-0.00452544,-0.00795915,1.69477,-0.30277,-0.022888,-1.49832,-0.00459581,-0.00801857,1.70963,-0.30836,-0.0229896,0.000311416,0.000985761,-0.118976,0.2,0.2,0,1.28,0,0,0,0.2,-0.2,0,1.28,0,0,0,-1.48906,-0.00452544,-0.00795915,1.69477,-0.30277,-0.022888,-1.49832,-0.00459581,-0.00801857,1.70963,-0.30836,-0.0229896,0.000311416,0.000985761,-0.118976,0.2,0.2,0,1.28,0,0,0,0.2,-0.2,0,1.28,0,0,0
gen_000113_tz+0.04_tx-0.01_ty+0.00_p-0.05_fx-0.02_fy+0.00,-0.260014,1.9899311,0.496291,0.999165,0.00735529,0.0400988,0.00256949,-1.47905,-0.00456366,-0.00796768,1.67713,-0.2782,-0.0228768,-1.48841,-0.00463551,-0.00802613,1.69198,-0.283679,-0.0229782,0.000315615,0.0010405,-0.102042,0.2,0.2,0,1.28,0,0,0,0.2,-0.2,0,1.28,0,0,0,-1.47905,-0.00456366,-0.00796768,1.67713,-0.2782,-0.0228768,-1.48841,-0.00463551,-0.00802613,1.69198,-0.283679,-0.0229782,0.000315615,0.0010405,-0.102042,0.2,0.2,0,1.28,0,0,0,0.2,-0.2,0,1.28,0,0,0
gen_000114_tz+0.04_tx-0.01_ty+0.00_p-0.05_fx-0.01_fy+0.00,-0.259244,1.9899324,0.496284,0.999467,0.00735149,0.0317201,0.00249784,-1.46859,-0.00459604,-0.00797825,1.65878,-0.253545,-0.0228653,-1.47805,-0.0046693,-0.00803578,1.67362,-0.258922,-0.0229666,0.000319237,0.00109499,-0.0852918,0.2,0.2,0,1.28,0,0,0,0.2,-0.2,0,1.28,0,0,0,-1.46859,-0.00459604,-0.00797825,1.65878,-0.253545,-0.0228653,-1.47805,-0.0046693,-0.00803578,1.67362,-0.258922,-0.0229666,0.000319237,0.00109499,-0.0852918,0.2,0.2,0,1.28,0,0,0,0.2,-0.2,0,1.28,0,0,0
gen_000115_tz+0.04_tx-0.01_ty+0.00_p-0.05_fx+0.00_fy+0.00,-0.25848,1.9899336,0.496288,0.999696,0.0073474,0.023428,0.00242619,-1.45766,-0.00462175,-0.00799017,1.63969,-0.228807,-0.0228535,-1.46721,-0.00469633,-0.00804685,1.65453,-0.23409,-0.0229546,0.000323074,0.00114855,-0.0687201,0.2,0.2,0,1.28,0,0,0,0.2,-0.2,0,1.28,0,0,0,-1.45766,-0.00462175,-0.00799017,1.63969,-0.228807,-0.0228535,-1.46721,-0.00469633,-0.00804685,1.65453,-0.23409,-0.0229546,0.000323074,0.00114855,-0.0687201,0.2,0.2,0,1.28,0,0,0,0.2,-0.2,0,1.28,0,0,0
gen_000116_tz+0.04_tx-0.01_ty+0.00_p-0.05_fx+0.01_fy+0.00,-0.257725,1.9899347,0.496304,0.999854,0.00734305,0.015239,0.00235462,-1.4463,-0.00464067,-0.00800347,1.61986,-0.203966,-0.0228414,-1.45594,-0.00471651,-0.00805938,1.6347,-0.209163,-0.0229423,0.000327302,0.00120109,-0.0523582,0.2,0.2,0,1.28,0,0,0,0.2,-0.2,0,1.28,0,0,0,-1.4463,-0.00464067,-0.00800347,1.61986,-0.203966,-0.0228414,-1.45594,-0.00471651,-0.00805938,1.6347,-0.209163,-0.0229423,0.000327302,0.00120109,-0.0523582,0.2,0.2,0,1.28,0,0,0,0.2,-0.2,0,1.28,0,0,0
gen_000117_tz+0.04_tx-0.01_ty+0.00_p-0.05_fx+0.02_fy+0.00,-0.256974,1.9899352,0.49633,0.999945,0.00733468,0.00710012,0.00228562,-1.43439,-0.00465877,-0.00802785,1.59931,-0.179068,-0.022831,-1.44411,-0.00473585,-0.008083,1.61417,-0.184191,-0.0229317,0.000326132,0.00126051,-0.0360995,0.2,0.2,0,1.28,0,0,0,0.2,-0.2,0,1.28,0,0,0,-1.43439,-0.00465877,-0.00802785,1.59931,-0.179068,-0.022831,-1.44411,-0.00473585,-0.008083,1.61417,-0.184191,-0.0229317,0.000326132,0.00126051,-0.0360995,0.2,0.2,0,1.28,0,0,0,0.2,-0.2,0,1.28,0,0,0
gen_000118_tz+0.04_tx-0.01_ty+0.00_p-0.05_fx+0.03_fy+0.00,-0.256228,1.9899356,0.496366,0.99997,0.00732709,-0.000973239,0.00221522,-1.42195,-0.00466746,-0.00805145,1.57804,-0.154094,-0.0228197,-1.43175,-0.00474569,-0.00810594,1.59291,-0.159149,-0.0229203,0.000327608,0.00131701,-0.0199732,0.2,0.2,0,1.28,0,0,0,0.2,-0.2,0,1.28,0,0,0,-1.42195,-0.00466746,-0.00805145,1.57804,-0.154094,-0.0228197,-1.43175,-0.00474569,-0.00810594,1.59291,-0.159149,-0.0229203,0.000327608,0.00131701,-0.0199732,0.2,0.2,0,1.28,0,0,0,0.2,-0.2,0,1.28,0,0,0
gen_000119_tz+0.04_tx+0.00_ty+0.00_p-0.05_fx-0.03_fy+0.00,-0.251576,1.9899277,0.496342,0.998336,0.00736087,0.0571288,0.00271424,-1.49862,-0.00448182,-0.00795273,1.71167,-0.327251,-0.0228989,-1.50777,-0.00455063,-0.00801317,1.72654,-0.332959,-0.0230008,0.000306263,0.000930961,-0.136107,0.2,0.2,0,1.28,0,0,0,0.2,-0.2,0,1.28,0,0,0,-1.49862,-0.00448182,-0.00795273,1.71167,-0.327251,-0.0228989,-1.50777,-0.00455063,-0.00801317,1.72654,-0.332959,-0.0230008,0.000306263,0.000930961,-0.136107,0.2,0.2,0,1.28,0,0,0,0.2,-0.2,0,1.28,0,0,0
gen_000120_tz+0.04_tx+0.00_ty+0.00_p-0.05_fx-0.02_fy+0.00,-0.250791,1.9899295,0.496311,0.998789,0.00735846,0.0485668,0.00264156,-1.48906,-0.00452544,-0.00795915,1.69477,-0.30277,-0.022888,-1.49832,-0.00459581,-0.00801857,1.70963,-0.308359,-0.0229896,0.000311415,0.000985765,-0.118977,0.2,0.2,0,1.28,0,0,0,0.2,-0.2,0,1.28,0,0,0,-1.48906,-0.00452544,-0.00795915,1.69477,-0.30277,-0.022888,-1.49832,-0.00459581,-0.00801857,1.70963,-0.308359,-0.0229896,0.000311415,0.000985765,-0.118977,0.2,0.2,0,1.28,0,0,0,0.2,-0.2,0,1.28,0,0,0
gen_000121_tz+0.04_tx+0.00_ty+0.00_p-0.05_fx-0.01_fy+0.00,-0.250014,1.9899311,0.496291,0.999165,0.00735532,0.040098,0.00256946,-1.47905,-0.0045636,-0.00796762,1.67713,-0.278201,-0.0228768,-1.48841,-0.00463545,-0.00802606,1.69198,-0.28368,-0.0229782,0.000315665,0.00104045,-0.10204,0.2,0.2,0,1.28,0,0,0,0.2,-0.2,0,1.28,0,0,0,-1.47905,-0.0045636,-0.00796762,1.67713,-0.278201,-0.0228768,-1.48841,-0.00463545,-0.00802606,1.69198,-0.28368,-0.0229782,0.000315665,0.00104045,-0.10204,0.2,0.2,0,1.28,0,0,0,0.2,-0.2,0,1.28,0,0,0
gen_000122_tz+0.04_tx+0.00_ty+0.00_p-0.05_fx+0.00_fy+0.00,-0.249244,1.9899324,0.496284,0.999467,0.00735148,0.0317203,0.00249785,-1.46859,-0.00459605,-0.00797826,1.65878,-0.253545,-0.0228653,-1.47805,-0.0046693,-0.00803579,1.67362,-0.258922,-0.0229666,0.000319235,0.001095,-0.0852922,0.2,0.2,0,1.28,0,0,0,0.2,-0.2,0,1.28,0,0,0,-1.46859,-0.00459605,-0.00797826,1.65878,-0.253545,-0.0228653,-1.47805,-0.0046693,-0.00803579,1.67362,-0.258922,-0.0229666,0.000319235,0.001095,-0.0852922,0.2,0.2,0,1.28,0,0,0,0.2,-0.2,0,1.28,0,0,0
gen_000123_tz+0.04_tx+0.00_ty+0.00_p-0.05_fx+0.01_fy+0.00,-0.24848,1.9899336,0.496288,0.999696,0.0073474,0.0234284,0.0024262,-1.45767,-0.00462175,-0.00799017,1.63969,-0.228806,-0.0228535,-1.46721,-0.00469633,-0.00804685,1.65453,-0.234089,-0.0229546,0.000323078,0.00114855,-0.0687209,0.2,0.2,0,1.28,0,0,0,0.2,-0.2,0,1.28,0,0,0,-1.45767,-0.00462175,-0.00799017,1.63969,-0.228806,-0.0228535,-1.46721,-0.00469633,-0.00804685,1.65453,-0.234089,-0.0229546,0.000323078,0.00114855,-0.0687209,0.2,0.2,0,1.28,0,0,0,0.2,-0.2,0,1.28,0,0,0
gen_000124_tz+0.04_tx+0.00_ty+0.00_p-0.05_fx+0.02_fy+0.00,-0.247725,1.9899346,0.496304,0.999854,0.00734285,0.0152388,0.00235477,-1.4463,-0.00464098,-0.00800396,1.61986,-0.203966,-0.0228415,-1.45594,-0.00471683,-0.00805987,1.6347,-0.209163,-0.0229424,0.000327009,0.00120149,-0.0523578,0.2,0.2,0,1.28,0,0,0,0.2,-0.2,0,1.28,0,0,0,-1.4463,-0.00464098,-0.00800396,1.61986,-0.203966,-0.0228415,-1.45594,-0.00471683,-0.00805987,1.6347,-0.209163,-0.0229424,0.000327009,0.00120149,-0.0523578,0.2,0.2,0,1.28,0,0,0,0.2,-0.2,0,1.28,0,0,0
gen_000125_tz+0.04_tx+0.00_ty+0.00_p-0.05_fx+0.03_fy+0.00,-0.246974,1.9899352,0.49633,0.999945,0.00733468,0.00710035,0.00228561,-1.43439,-0.00465876,-0.00802784,1.59931,-0.179068,-0.022831,-1.44411,-0.00473584,-0.00808299,1.61417,-0.18419,-0.0229317,0.000326143,0.0012605,-0.0360999,0.2,0.2,0,1.28,0,0,0,0.2,-0.2,0,1.28,0,0,0,-1.43439,-0.00465876,-0.00802784,1.59931,-0.179068,-0.022831,-1.44411,-0.00473584,-0.00808299,1.61417,-0.18419,-0.0229317,0.000326143,0.0012605,-0.0360999,0.2,0.2,0,1.28,0,0,0,0.2,-0.2,0,1.28,0,0,0
gen_000126_tz+0.04_tx+0.01_ty+0.00_p-0.05_fx-0.03_fy+0.00,-0.242368,1.9899256,0.496387,0.997803,0.00736249,0.0657887,0.00278769,-1.50775,-0.00443303,-0.00794831,1.72784,-0.351635,-0.0229097,-1.5168,-0.00450019,-0.00800982,1.74274,-0.357471,-0.0230117,0.000299934,0.00087615,-0.153443,0.2,0.2,0,1.28,0,0,0,0.2,-0.2,0,1.28,0,0,0,-1.50775,-0.00443303,-0.00794831,1.72784,-0.351635,-0.0229097,-1.5168,-0.00450019,-0.00800982,1.74274,-0.357471,-0.0230117,0.000299934,0.00087615,-0.153443,0.2,0.2,0,1.28,0,0,0,0.2,-0.2,0,1.28,0,0,0
gen_000127_tz+0.04_tx+0.01_ty+0.00_p-0.05_fx-0.02_fy+0.00,-0.241576,1.9899277,0.496342,0.998336,0.00736087,0.0571289,0.00271425,-1.49862,-0.00448182,-0.00795273,1.71167,-0.32725,-0.0228989,-1.50777,-0.00455063,-0.00801318,1.72654,-0.332959,-0.0230008,0.000306262,0.000930964,-0.136108,0.2,0.2,0,1.28,0,0,0,0.2,-0.2,0,1.28,0,0,0,-1.49862,-0.00448182,-0.00795273,1.71167,-0.32725,-0.0228989,-1.50777,-0.00455063,-0.00801318,1.72654,-0.332959,-0.0230008,0.000306262,0.000930964,-0.136108,0.2,0.2,0,1.28,0,0,0,0.2,-0.2,0,1.28,0,0,0
gen_000128_tz+0.04_tx+0.01_ty+0.00_p-0.05_fx-0.01_fy+0.00,-0.240791,1.9899295,0.496311,0.998789,0.00735846,0.0485669,0.00264156,-1.48906,-0.00452545,-0.00795916,1.69477,-0.30277,-0.022888,-1.49832,-0.00459582,-0.00801858,1.70963,-0.308359,-0.0229896,0.000311414,0.000985767,-0.118977,0.2,0.2,0,1.28,0,0,0,0.2,-0.2,0,1.28,0,0,0,-1.48906,-0.00452545,-0.00795916,1.69477,-0.30277,-0.022888,-1.49832,-0.00459582,-0.00801858,1.70963,-0.308359,-0.0229896,0.000311414,0.000985767,-0.118977,0.2,0.2,0,1.28,0,0,0,0.2,-0.2,0,1.28,0,0,0
gen_000129_tz+0.04_tx+0.01_ty+0.00_p-0.05_fx+0.00_fy+0.00,-0.240014,1.9899311,0.496291,0.999165,0.00735532,0.0400981,0.00256946,-1.47905,-0.0045636,-0.00796762,1.67713,-0.278201,-0.0228768,-1.48841,-0.00463545,-0.00802606,1.69198,-0.28368,-0.0229782,0.000315664,0.00104045,-0.10204,0.2,0.2,0,1.28,0,0,0,0.2,-0.2,0,1.28,0,0,0,-1.47905,-0.0045636,-0.00796762,1.67713,-0.278201,-0.0228768,-1.48841,-0.00463545,-0.00802606,1.69198,-0.28368,-0.0229782,0.000315664,0.00104045,-0.10204,0.2,0.2,0,1.28,0,0,0,0.2,-0.2,0,1.28,0,0,0
gen_000130_tz+0.04_tx+0.01_ty+0.00_p-0.05_fx+0.01_fy+0.00,-0.239244,1.9899324,0.496284,0.999467,0.00735149,0.0317205,0.00249785,-1.46859,-0.00459604,-0.00797825,1.65878,-0.253545,-0.0228653,-1.47805,-0.0046693,-0.00803578,1.67362,-0.258922,-0.0229666,0.000319238,0.001095,-0.0852925,0.2,0.2,0,1.28,0,0,0,0.2,-0.2,0,1.28,0,0,0,-1.46859,-0.00459604,-0.00797825,1.65878,-0.253545,-0.0228653,-1.47805,-0.0046693,-0.00803578,1.67362,-0.258922,-0.0229666,0.000319238,0.001095,-0.0852925,0.2,0.2,0,1.28,0,0,0,0.2,-0.2,0,1.28,0,0,0
gen_000131_tz+0.04_tx+0.01_ty+0.00_p-0.05_fx+0.02_fy+0.00,-0.23848,1.9899336,0.496288,0.999696,0.00734741,0.0234287,0.00242619,-1.45767,-0.00462173,-0.00799015,1.63969,-0.228806,-0.0228535,-1.46721,-0.00469632,-0.00804683,1.65453,-0.234089,-0.0229546,0.000323093,0.00114853,-0.0687215,0.2,0.2,0,1.28,0,0,0,0.2,-0.2,0,1.28,0,0,0,-1.45767,-0.00462173,-0.00799015,1.63969,-0.228806,-0.0228535,-1.46721,-0.00469632,-0.00804683,1.65453,-0.234089,-0.0229546,0.000323093,0.00114853,-0.0687215,0.2,0.2,0,1.28,0,0,0,0.2,-0.2,0,1.28,0,0,0
gen_000132_tz+0.04_tx+0.01_ty+0.00_p-0.05_fx+0.03_fy+0.00,-0.237725,1.9899346,0.496304,0.999854,0.00734286,0.0152395,0.00235476,-1.4463,-0.00464095,-0.00800393,1.61986,-0.203965,-0.0228415,-1.45594,-0.00471679,-0.00805984,1.6347,-0.209162,-0.0229424,0.000327045,0.00120146,-0.0523594,0.2,0.2,0,1.28,0,0,0,0.2,-0.2,0,1.28,0,0,0,-1.4463,-0.00464095,-0.00800393,1.61986,-0.203965,-0.0228415,-1.45594,-0.00471679,-0.00805984,1.6347,-0.209162,-0.0229424,0.000327045,0.00120146,-0.0523594,0.2,0.2,0,1.28,0,0,0,0.2,-0.2,0,1.28,0,0,0
gen_000133_tz+0.04_tx+0.02_ty+0.00_p-0.05_fx-0.03_fy+0.00,-0.233169,1.9899233,0.496445,0.997186,0.0073633,0.0745484,0.00286198,-1.51646,-0.00437927,-0.00794572,1.74328,-0.375919,-0.0229201,-1.5254,-0.00444469,-0.00800834,1.7582,-0.381891,-0.0230223,0.000292265,0.000821353,-0.17099,0.2,0.2,0,1.28,0,0,0,0.2,-0.2,0,1.28,0,0,0,-1.51646,-0.00437927,-0.00794572,1.74328,-0.375919,-0.0229201,-1.5254,-0.00444469,-0.00800834,1.7582,-0.381891,-0.0230223,0.000292265,0.000821353,-0.17099,0.2,0.2,0,1.28,0,0,0,0.2,-0.2,0,1.28,0,0,0
gen_000134_tz+0.04_tx+0.02_ty+0.00_p-0.05_fx-0.02_fy+0.00,-0.232369,1.9899256,0.496387,0.997803,0.00736249,0.0657888,0.00278769,-1.50775,-0.00443304,-0.00794831,1.72784,-0.351635,-0.0229097,-1.5168,-0.00450019,-0.00800983,1.74274,-0.357471,-0.0230117,0.000299934,0.000876152,-0.153443,0.2,0.2,0,1.28,0,0,0,0.2,-0.2,0,1.28,0,0,0,-1.50775,-0.00443304,-0.00794831,1.72784,-0.351635,-0.0229097,-1.5168,-0.00450019,-0.00800983,1.74274,-0.357471,-0.0230117,0.000299934,0.000876152,-0.153443,0.2,0.2,0,1.28,0,0,0,0.2,-0.2,0,1.28,0,0,0
gen_000135_tz+0.04_tx+0.02_ty+0.00_p-0.05_fx-0.01_fy+0.00,-0.231576,1.9899277,0.496342,0.998336,0.00736087,0.057129,0.00271425,-1.49862,-0.00448182,-0.00795274,1.71167,-0.32725,-0.0228989,-1.50778,-0.00455063,-0.00801318,1.72654,-0.332958,-0.0230008,0.000306262,0.000930965,-0.136108,0.2,0.2,0,1.28,0,0,0,0.2,-0.2,0,1.28,0,0,0,-1.49862,-0.00448182,-0.00795274,1.71167,-0.32725,-0.0228989,-1.50778,-0.00455063,-0.00801318,1.72654,-0.332958,-0.0230008,0.000306262,0.000930965,-0.136108,0.2,0.2,0,1.28,0,0,0,0.2,-0.2,0,1.28,0,0,0
gen_000136_tz+0.04_tx+0.02_ty+0.00_p-0.05_fx+0.00_fy+0.00,-0.230791,1.9899295,0.496311,0.998789,0.00735846,0.048567,0.00264156,-1.48906,-0.00452545,-0.00795916,1.69477,-0.30277,-0.022888,-1.49832,-0.00459582,-0.00801858,1.70963,-0.308359,-0.0229896,0.000311414,0.000985767,-0.118977,0.2,0.2,0,1.28,0,0,0,0.2,-0.2,0,1.28,0,0,0,-1.48906,-0.00452545,-0.00795916,1.69477,-0.30277,-0.022888,-1.49832,-0.00459582,-0.00801858,1.70963,-0.308359,-0.0229896,0.000311414,0.000985767,-0.118977,0.2,0.2,0,1.28,0,0,0,0.2,-0.2,0,1.28,0,0,0
gen_000137_tz+0.04_tx+0.02_ty+0.00_p-0.05_fx+0.01_fy+0.00,-0.230014,1.9899311,0.496291,0.999165,0.00735532,0.0400982,0.00256946,-1.47905,-0.0045636,-0.00796761,1.67713,-0.278201,-0.0228768,-1.48841,-0.00463545,-0.00802606,1.69198,-0.28368,-0.0229782,0.000315667,0.00104045,-0.102041,0.2,0.2,0,1.28,0,0,0,0.2,-0.2,0,1.28,0,0,0,-1.47905,-0.0045636,-0.00796761,1.67713,-0.278201,-0.0228768,-1.48841,-0.00463545,-0.00802606,1.69198,-0.28368,-0.0229782,0.000315667,0.00104045,-0.102041,0.2,0.2,0,1.28,0,0,0,0.2,-0.2,0,1.28,0,0,0
gen_000138_tz+0.04_tx+0.02_ty+0.00_p-0.05_fx+0.02_fy+0.00,-0.229244,1.9899324,0.496284,0.999467,0.00735149,0.0317206,0.00249784,-1.46859,-0.00459604,-0.00797824,1.65878,-0.253545,-0.0228653,-1.47805,-0.00466929,-0.00803578,1.67362,-0.258922,-0.0229666,0.000319245,0.00109499,-0.0852927,0.2,0.2,0,1.28,0,0,0,0.2,-0.2,0,1.28,0,0,0,-1.46859,-0.00459604,-0.00797824,1.65878,-0.253545,-0.0228653,-1.47805,-0.00466929,-0.00803578,1.67362,-0.258922,-0.0229666,0.000319245,0.00109499,-0.0852927,0.2,0.2,0,1.28,0,0,0,0.2,-0.2,0,1.28,0,0,0
gen_000139_tz+0.04_tx+0.02_ty+0.00_p-0.05_fx+0.03_fy+0.00,-0.22848,1.9899336,0.496288,0.999696,0.00734753,0.0234281,0.00242608,-1.45766,-0.00462151,-0.00798985,1.63969,-0.228807,-0.0228535,-1.46721,-0.0046961,-0.00804654,1.65453,-0.234089,-0.0229546,0.000323293,0.00114829,-0.0687203,0.2,0.2,0,1.28,0,0,0,0.2,-0.2,0,1.28,0,0,0,-1.45766,-0.00462151,-0.00798985,1.63969,-0.228807,-0.0228535,-1.46721,-0.0046961,-0.00804654,1.65453,-0.234089,-0.0229546,0.000323293,0.00114829,-0.0687203,0.2,0.2,0,1.28,0,0,0,0.2,-0.2,0,1.28,0,0,0
gen_000140_tz+0.04_tx+0.03_ty+0.00_p-0.05_fx-0.03_fy+0.00,-0.223976,1.9899207,0.496517,0.996484,0.00736327,0.083408,0.00293715,-1.52476,-0.00432067,-0.00794478,1.75799,-0.400098,-0.0229303,-1.53357,-0.00438426,-0.00800855,1.77294,-0.406214,-0.0230326,0.000283124,0.00076659,-0.188748,0.2,0.2,0,1.28,0,0,0,0.2,-0.2,0,1.28,0,0,0,-1.52476,-0.00432067,-0.00794478,1.75799,-0.400098,-0.0229303,-1.53357,-0.00438426,-0.00800855,1.77294,-0.406214,-0.0230326,0.000283124,0.00076659,-0.188748,0.2,0.2,0,1.28,0,0,0,0.2,-0.2,0,1.28,0,0,0
gen_000141_tz+0.04_tx+0.03_ty+0.00_p-0.05_fx-0.02_fy+0.00,-0.223169,1.9899233,0.496445,0.997186,0.0073633,0.0745485,0.00286198,-1.51646,-0.00437927,-0.00794572,1.74328,-0.375919,-0.0229201,-1.5254,-0.00444469,-0.00800834,1.7582,-0.381891,-0.0230223,0.000292265,0.000821354,-0.17099,0.2,0.2,0,1.28,0,0,0,0.2,-0.2,0,1.28,0,0,0,-1.51646,-0.00437927,-0.00794572,1.74328,-0.375919,-0.0229201,-1.5254,-0.00444469,-0.00800834,1.7582,-0.381891,-0.0230223,0.000292265,0.000821354,-0.17099,0.2,0.2,0,1.28,0,0,0,0.2,-0.2,0,1.28,0,0,0
gen_000142_tz+0.04_tx+0.03_ty+0.00_p-0.05_fx-0.01_fy+0.00,-0.222369,1.9899256,0.496387,0.997803,0.00736249,0.0657889,0.00278769,-1.50775,-0.00443304,-0.00794831,1.72784,-0.351635,-0.0229097,-1.5168,-0.00450019,-0.00800983,1.74274,-0.357471,-0.0230117,0.000299933,0.000876152,-0.153444,0.2,0.2,0,1.28,0,0,0,0.2,-0.2,0,1.28,0,0,0,-1.50775,-0.00443304,-0.00794831,1.72784,-0.351635,-0.0229097,-1.5168,-0.00450019,-0.00800983,1.74274,-0.357471,-0.0230117,0.000299933,0.000876152,-0.153444,0.2,0.2,0,1.28,0,0,0,0.2,-0.2,0,1.28,0,0,0
gen_000143_tz+0.04_tx+0.03_ty+0.00_p-0.05_fx+0.00_fy+0.00,-0.221576,1.9899277,0.496342,0.998336,0.00736087,0.057129,0.00271425,-1.49862,-0.00448182,-0.00795273,1.71167,-0.32725,-0.0228989,-1.50778,-0.00455063,-0.00801318,1.72654,-0.332958,-0.0230008,0.000306262,0.000930964,-0.136108,0.2,0.2,0,1.28,0,0,0,0.2,-0.2,0,1.28,0,0,0,-1.49862,-0.00448182,-0.00795273,1.71167,-0.32725,-0.0228989,-1.50778,-0.00455063,-0.00801318,1.72654,-0.332958,-0.0230008,0.000306262,0.000930964,-0.136108,0.2,0.2,0,1.28,0,0,0,0.2,-0.2,0,1.28,0,0,0
gen_000144_tz+0.04_tx+0.03_ty+0.00_p-0.05_fx+0.01_fy+0.00,-0.220791,1.9899295,0.496311,0.998789,0.00735846,0.048567,0.00264156,-1.48906,-0.00452544,-0.00795915,1.69477,-0.30277,-0.022888,-1.49832,-0.00459581,-0.00801857,1.70963,-0.308359,-0.0229896,0.000311416,0.000985764,-0.118977,0.2,0.2,0,1.28,0,0,0,0.2,-0.2,0,1.28,0,0,0,-1.48906,-0.00452544,-0.00795915,1.69477,-0.30277,-0.022888,-1.49832,-0.00459581,-0.00801857,1.70963,-0.308359,-0.0229896,0.000311416,0.000985764,-0.118977,0.2,0.2,0,1.28,0,0,0,0.2,-0.2,0,1.28,0,0,0
gen_000145_tz+0.04_tx+0.03_ty+0.00_p-0.05_fx+0.02_fy+0.00,-0.220014,1.9899311,0.496291,0.999165,0.00735532,0.0400982,0.00256946,-1.47905,-0.00456359,-0.00796761,1.67713,-0.278201,-0.0228768,-1.48841,-0.00463544,-0.00802605,1.69198,-0.28368,-0.0229782,0.000315671,0.00104044,-0.102041,0.2,0.2,0,1.28,0,0,0,0.2,-0.2,0,1.28,0,0,0,-1.47905,-0.00456359,-0.00796761,1.67713,-0.278201,-0.0228768,-1.48841,-0.00463544,-0.00802605,1.69198,-0.28368,-0.0229782,0.000315671,0.00104044,-0.102041,0.2,0.2,0,1.28,0,0,0,0.2,-0.2,0,1.28,0,0,0
gen_000146_tz+0.04_tx+0.03_ty+0.00_p-0.05_fx+0.03_fy+0.00,-0.219244,1.9899324,0.496284,0.999467,0.00735149,0.0317207,0.00249784,-1.46859,-0.00459603,-0.00797823,1.65878,-0.253545,-0.0228653,-1.47805,-0.00466929,-0.00803577,1.67362,-0.258921,-0.0229666,0.000319251,0.00109498,-0.0852929,0.2,0.2,0,1.28,0,0,0,0.2,-0.2,0,1.28,0,0,0,-1.46859,-0.00459603,-0.00797823,1.65878,-0.253545,-0.0228653,-1.47805,-0.00466929,-0.00803577,1.67362,-0.258921,-0.0229666,0.000319251,0.00109498,-0.0852929,0.2,0.2,0,1.28,0,0,0,0.2,-0.2,0,1.28,0,0,0
gen_000147_tz+0.04_tx-0.03_ty+0.01_p-0.05_fx-0.03_fy+0.00,-0.279241,1.999194465,0.49628,0.999494,-0.000831758,0.0317032,0.00236786,-1.47448,-0.00484121,-0.00366471,1.66578,-0.25459,-0.00222424,-1.47266,-0.00482992,-0.00363207,1.66747,-0.258092,-0.0021828,0.00109384,0.0174294,-0.0853067,0.2,0.2,0,1.28,0,0,0,0.2,-0.2,0,1.28,0,0,0,-1.47448,-0.00484121,-0.00366471,1.66578,-0.25459,-0.00222424,-1.47266,-0.00482992,-0.00363207,1.66747,-0.258092,-0.0021828,0.00109384,0.0174294,-0.0853067,0.2,0.2,0,1.28,0,0,0,0.2,-0.2,0,1.28,0,0,0
gen_000148_tz+0.04_tx-0.03_ty+0.01_p-0.05_fx-0.02_fy+0.00,-0.278478,1.999195677,0.496284,0.999723,-0.000826117,0.023414,0.00233406,-1.46357,-0.00478206,-0.00365656,1.64669,-0.22983,-0.00221203,-1.46182,-0.00477071,-0.00362387,1.64839,-0.233271,-0.00217095,0.000886204,0.0174708,-0.0687389,0.2,0.2,0,1.28,0,0,0,0.2,-0.2,0,1.28,0,0,0,-1.46357,-0.00478206,-0.00365656,1.64669,-0.22983,-0.00221203,-1.46182,-0.00477071,-0.00362387,1.64839,-0.233271,-0.00217095,0.000886204,0.0174708,-0.0687389,0.2,0.2,0,1.28,0,0,0,0.2,-0.2,0,1.28,0,0,0
gen_000149_tz+0.04_tx-0.03_ty+0.01_p-0.05_fx-0.01_fy+0.00,-0.277722,1.999196842,0.496299,0.999881,-0.000820304,0.0152133,0.00230222,-1.4522,-0.00472442,-0.0036501,1.62686,-0.204984,-0.00219981,-1.45051,-0.00471303,-0.00361737,1.62857,-0.208367,-0.00215908,0.000676686,0.0175081,-0.0523517,0.2,0.2,0,1.28,0,0,0,0.2,-0.2,0,1.28,0,0,0,-1.4522,-0.00472442,-0.0036501,1.62686,-0.204984,-0.00219981,-1.45051,-0.00471303,-0.00361737,1.62857,-0.208367,-0.00215908,0.000676686,0.0175081,-0.0523517,0.2,0.2,0,1.28,0,0,0,0.2,-0.2,0,1.28,0,0,0
gen_000150_tz+0.04_tx-0.03_ty+0.01_p-0.05_fx+0.00_fy+0.00,-0.276971,1.999197583,0.496325,0.999972,-0.000818676,0.00708062,0.00227476,-1.44031,-0.00467357,-0.00365637,1.60631,-0.180067,-0.00219006,-1.43869,-0.00466212,-0.00362361,1.60803,-0.183398,-0.00214964,0.000459856,0.0175501,-0.0361035,0.2,0.2,0,1.28,0,0,0,0.2,-0.2,0,1.28,0,0,0,-1.44031,-0.00467357,-0.00365637,1.60631,-0.180067,-0.00219006,-1.43869,-0.00466212,-0.00362361,1.60803,-0.183398,-0.00214964,0.000459856,0.0175501,-0.0361035,0.2,0.2,0,1.28,0,0,0,0.2,-0.2,0,1.28,0,0,0
gen_000151_tz+0.04_tx-0.03_ty+0.01_p-0.05_fx+0.01_fy+0.00,-0.276226,1.999198618,0.496362,0.999997,-0.000813169,-0.000990166,0.00224709,-1.42789,-0.00461949,-0.00365493,1.58504,-0.15508,-0.00217804,-1.42633,-0.00460805,-0.00362216,1.58677,-0.158361,-0.00213797,0.000244587,0.0175805,-0.0199805,0.2,0.2,0,1.28,0,0,0,0.2,-0.2,0,1.28,0,0,0,-1.42789,-0.00461949,-0.00365493,1.58504,-0.15508,-0.00217804,-1.42633,-0.00460805,-0.00362216,1.58677,-0.158361,-0.00213797,0.000244587,0.0175805,-0.0199805,0.2,0.2,0,1.28,0,0,0,0.2,-0.2,0,1.28,0,0,0
gen_000152_tz+0.04_tx-0.03_ty+0.01_p-0.05_fx+0.02_fy+0.00,-0.275484,1.99919981,0.496408,0.999957,-0.000805323,-0.00900462,0.00221993,-1.41493,-0.00456383,-0.00364966,1.56303,-0.130022,-0.00216469,-1.41343,-0.00455243,-0.00361688,1.56478,-0.133254,-0.00212497,2.94796e-05,0.0176026,-0.00397075,0.2,0.2,0,1.28,0,0,0,0.2,-0.2,0,1.28,0,0,0,-1.41493,-0.00456383,-0.00364966,1.56303,-0.130022,-0.00216469,-1.41343,-0.00455243,-0.00361688,1.56478,-0.133254,-0.00212497,2.94796e-05,0.0176026,-0.00397075,0.2,0.2,0,1.28,0,0,0,0.2,-0.2,0,1.28,0,0,0
gen_000153_tz+0.04_tx-0.03_ty+0.01_p-0.05_fx+0.03_fy+0.00,-0.274746,1.999201116,0.496465,0.999853,-0.000795691,-0.0169717,0.0021935,-1.40139,-0.00450712,-0.00364192,1.54029,-0.10489,-0.00215029,-1.39996,-0.00449581,-0.00360915,1.54206,-0.108077,-0.00211095,-0.000186094,0.0176176,0.0119446,0.2,0.2,0,1.28,0,0,0,0.2,-0.2,0,1.28,0,0,0,-1.40139,-0.00450712,-0.00364192,1.54029,-0.10489,-0.00215029,-1.39996,-0.00449581,-0.00360915,1.54206,-0.108077,-0.00211095,-0.000186094,0.0176176,0.0119446,0.2,0.2,0,1.28,0,0,0,0.2,-0.2,0,1.28,0,0,0
gen_000154_tz+0.04_tx-0.02_ty+0.01_p-0.05_fx-0.03_fy+0.00,-0.270011,1.999193496,0.496287,0.999193,-0.000833942,0.0400802,0.00240174,-1.48492,-0.00489781,-0.00366632,1.68415,-0.279269,-0.00223453,-1.48303,-0.00488662,-0.00363375,1.68584,-0.282833,-0.00219276,0.00130295,0.0173771,-0.102055,0.2,0.2,0,1.28,0,0,0,0.2,-0.2,0,1.28,0,0,0,-1.48492,-0.00489781,-0.00366632,1.68415,-0.279269,-0.00223453,-1.48303,-0.00488662,-0.00363375,1.68584,-0.282833,-0.00219276,0.00130295,0.0173771,-0.102055,0.2,0.2,0,1.28,0,0,0,0.2,-0.2,0,1.28,0,0,0
gen_000155_tz+0.04_tx-0.02_ty+0.01_p-0.05_fx-0.02_fy+0.00,-0.269241,1.999194461,0.49628,0.999494,-0.000831801,0.0317034,0.00236786,-1.47448,-0.00484122,-0.00366483,1.66578,-0.25459,-0.00222427,-1.47266,-0.00482992,-0.00363219,1.66747,-0.258092,-0.00218283,0.00109386,0.0174295,-0.0853071,0.2,0.2,0,1.28,0,0,0,0.2,-0.2,0,1.28,0,0,0,-1.47448,-0.00484122,-0.00366483,1.66578,-0.25459,-0.00222427,-1.47266,-0.00482992,-0.00363219,1.66747,-0.258092,-0.00218283,0.00109386,0.0174295,-0.0853071,0.2,0.2,0,1.28,0,0,0,0.2,-0.2,0,1.28,0,0,0
gen_000156_tz+0.04_tx-0.02_ty+0.01_p-0.05_fx-0.01_fy+0.00,-0.268478,1.999195671,0.496284,0.999723,-0.000826184,0.0234143,0.00233407,-1.46357,-0.00478207,-0.00365674,1.64669,-0.22983,-0.00221207,-1.46182,-0.00477072,-0.00362404,1.64839,-0.23327,-0.00217099,0.000886214,0.017471,-0.0687395,0.2,0.2,0,1.28,0,0,0,0.2,-0.2,0,1.28,0,0,0,-1.46357,-0.00478207,-0.00365674,1.64669,-0.22983,-0.00221207,-1.46182,-0.00477072,-0.00362404,1.64839,-0.23327,-0.00217099,0.000886214,0.017471,-0.0687395,0.2,0.2,0,1.28,0,0,0,0.2,-0.2,0,1.28,0,0,0
gen_000157_tz+0.04_tx-0.02_ty+0.01_p-0.05_fx+0.00_fy+0.00,-0.267722,1.999196837,0.496299,0.999881,-0.000820364,0.0152136,0.00230222,-1.4522,-0.00472444,-0.00365026,1.62686,-0.204984,-0.00219985,-1.45052,-0.00471305,-0.00361753,1.62857,-0.208367,-0.00215912,0.00067669,0.0175082,-0.0523524,0.2,0.2,0,1.28,0,0,0,0.2,-0.2,0,1.28,0,0,0,-1.4522,-0.00472444,-0.00365026,1.62686,-0.204984,-0.00219985,-1.45052,-0.00471305,-0.00361753,1.62857,-0.208367,-0.00215912,0.00067669,0.0175082,-0.0523524,0.2,0.2,0,1.28,0,0,0,0.2,-0.2,0,1.28,0,0,0
gen_000158_tz+0.04_tx-0.02_ty+0.01_p-0.05_fx+0.01_fy+0.00,-0.266971,1.999197582,0.496325,0.999972,-0.000818692,0.00708079,0.00227476,-1.44031,-0.00467357,-0.00365641,1.60631,-0.180067,-0.00219007,-1.43869,-0.00466213,-0.00362365,1.60803,-0.183398,-0.00214965,0.000459857,0.0175501,-0.0361038,0.2,0.2,0,1.28,0,0,0,0.2,-0.2,0,1.28,0,0,0,-1.44031,-0.00467357,-0.00365641,1.60631,-0.180067,-0.00219007,-1.43869,-0.00466213,-0.00362365,1.60803,-0.183398,-0.00214965,0.000459857,0.0175501,-0.0361038,0.2,0.2,0,1.28,0,0,0,0.2,-0.2,0,1.28,0,0,0
gen_000159_tz+0.04_tx-0.02_ty+0.01_p-0.05_fx+0.02_fy+0.00,-0.266226,1.999198618,0.496362,0.999997,-0.000813167,-0.000990049,0.00224709,-1.42789,-0.00461949,-0.00365493,1.58504,-0.15508,-0.00217804,-1.42633,-0.00460805,-0.00362215,1.58677,-0.158361,-0.00213797,0.00024459,0.0175805,-0.0199807,0.2,0.2,0,1.28,0,0,0,0.2,-0.2,0,1.28,0,0,0,-1.42789,-0.00461949,-0.00365493,1.58504,-0.15508,-0.00217804,-1.42633,-0.00460805,-0.00362215,1.58677,-0.158361,-0.00213797,0.00024459,0.0175805,-0.0199807,0.2,0.2,0,1.28,0,0,0,0.2,-0.2,0,1.28,0,0,0
gen_000160_tz+0.04_tx-0.02_ty+0.01_p-0.05_fx+0.03_fy+0.00,-0.265484,1.999199792,0.496408,0.999957,-0.000805533,-0.0090055,0.00222008,-1.41493,-0.00456415,-0.00365019,1.56303,-0.130022,-0.0021648,-1.41343,-0.00455276,-0.0036174,1.56478,-0.133255,-0.00212509,2.91345e-05,0.0176031,-0.00396898,0.2,0.2,0,1.28,0,0,0,0.2,-0.2,0,1.28,0,0,0,-1.41493,-0.00456415,-0.00365019,1.56303,-0.130022,-0.0021648,-1.41343,-0.00455276,-0.0036174,1.56478,-0.133255,-0.00212509,2.91345e-05,0.0176031,-0.00396898,0.2,0.2,0,1.28,0,0,0,0.2,-0.2,0,1.28,0,0,0
gen_000161_tz+0.04_tx-0.01_ty+0.01_p-0.05_fx-0.03_fy+0.00,-0.260788,1.999192666,0.496306,0.998818,-0.000833794,0.0485483,0.0024364,-1.49491,-0.00495334,-0.00366429,1.70179,-0.303866,-0.00224357,-1.49295,-0.00494231,-0.00363179,1.70347,-0.307493,-0.00220148,0.00151211,0.017316,-0.118992,0.2,0.2,0,1.28,0,0,0,0.2,-0.2,0,1.28,0,0,0,-1.49491,-0.00495334,-0.00366429,1.70179,-0.303866,-0.00224357,-1.49295,-0.00494231,-0.00363179,1.70347,-0.307493,-0.00220148,0.00151211,0.017316,-0.118992,0.2,0.2,0,1.28,0,0,0,0.2,-0.2,0,1.28,0,0,0
gen_000162_tz+0.04_tx-0.01_ty+0.01_p-0.05_fx-0.02_fy+0.00,-0.260011,1.999193493,0.496287,0.999193,-0.000833971,0.0400804,0.00240174,-1.48492,-0.00489781,-0.0036664,1.68415,-0.279269,-0.00223455,-1.48303,-0.00488663,-0.00363382,1.68584,-0.282833,-0.00219278,0.00130296,0.0173771,-0.102055,0.2,0.2,0,1.28,0,0,0,0.2,-0.2,0,1.28,0,0,0,-1.48492,-0.00489781,-0.0036664,1.68415,-0.279269,-0.00223455,-1.48303,-0.00488663,-0.00363382,1.68584,-0.282833,-0.00219278,0.00130296,0.0173771,-0.102055,0.2,0.2,0,1.28,0,0,0,0.2,-0.2,0,1.28,0,0,0
gen_000163_tz+0.04_tx-0.01_ty+0.01_p-0.05_fx-0.01_fy+0.00,-0.259241,1.999194458,0.49628,0.999494,-0.000831837,0.0317036,0.00236786,-1.47448,-0.00484123,-0.00366492,1.66578,-0.25459,-0.00222429,-1.47266,-0.00482993,-0.00363228,1.66747,-0.258091,-0.00218286,0.00109386,0.0174295,-0.0853075,0.2,0.2,0,1.28,0,0,0,0.2,-0.2,0,1.28,0,0,0,-1.47448,-0.00484123,-0.00366492,1.66578,-0.25459,-0.00222429,-1.47266,-0.00482993,-0.00363228,1.66747,-0.258091,-0.00218286,0.00109386,0.0174295,-0.0853075,0.2,0.2,0,1.28,0,0,0,0.2,-0.2,0,1.28,0,0,0
gen_000164_tz+0.04_tx-0.01_ty+0.01_p-0.05_fx+0.00_fy+0.00,-0.258478,1.999195668,0.496284,0.999723,-0.000826225,0.0234146,0.00233407,-1.46358,-0.00478209,-0.00365685,1.64669,-0.229829,-0.0022121,-1.46182,-0.00477073,-0.00362415,1.64839,-0.23327,-0.00217102,0.000886217,0.017471,-0.0687401,0.2,0.2,0,1.28,0,0,0,0.2,-0.2,0,1.28,0,0,0,-1.46358,-0.00478209,-0.00365685,1.64669,-0.229829,-0.0022121,-1.46182,-0.00477073,-0.00362415,1.64839,-0.23327,-0.00217102,0.000886217,0.017471,-0.0687401,0.2,0.2,0,1.28,0,0,0,0.2,-0.2,0,1.28,0,0,0
gen_000165_tz+0.04_tx-0.01_ty+0.01_p-0.05_fx+0.01_fy+0.00,-0.257722,1.999196836,0.496299,0.999881,-0.000820376,0.0152139,0.00230222,-1.4522,-0.00472444,-0.00365029,1.62686,-0.204984,-0.00219986,-1.45052,-0.00471306,-0.00361756,1.62857,-0.208367,-0.00215913,0.000676696,0.0175082,-0.052353,0.2,0.2,0,1.28,0,0,0,0.2,-0.2,0,1.28,0,0,0,-1.4522,-0.00472444,-0.00365029,1.62686,-0.204984,-0.00219986,-1.45052,-0.00471306,-0.00361756,1.62857,-0.208367,-0.00215913,0.000676696,0.0175082,-0.052353,0.2,0.2,0,1.28,0,0,0,0.2,-0.2,0,1.28,0,0,0
gen_000166_tz+0.04_tx-0.01_ty+0.01_p-0.05_fx+0.02_fy+0.00,-0.256971,1.999197583,0.496325,0.999972,-0.000818679,0.00708097,0.00227476,-1.44031,-0.00467357,-0.00365638,1.60631,-0.180066,-0.00219006,-1.43869,-0.00466213,-0.00362362,1.60803,-0.183398,-0.00214964,0.000459863,0.0175501,-0.0361042,0.2,0.2,0,1.28,0,0,0,0.2,-0.2,0,1.28,0,0,0,-1.44031,-0.00467357,-0.00365638,1.60631,-0.180066,-0.00219006,-1.43869,-0.00466213,-0.00362362,1.60803,-0.183398,-0.00214964,0.000459863,0.0175501,-0.0361042,0.2,0.2,0,1.28,0,0,0,0.2,-0.2,0,1.28,0,0,0
gen_000167_tz+0.04_tx-0.01_ty+0.01_p-0.05_fx+0.03_fy+0.00,-0.256225,1.999198593,0.496362,0.999997,-0.000813448,-0.000990863,0.00224729,-1.42789,-0.00461991,-0.00365563,1.58504,-0.155081,-0.0021782,-1.42633,-0.00460847,-0.00362286,1.58677,-0.158362,-0.00213812,0.000244166,0.0175811,-0.0199791,0.2,0.2,0,1.28,0,0,0,0.2,-0.2,0,1.28,0,0,0,-1.42789,-0.00461991,-0.00365563,1.58504,-0.155081,-0.0021782,-1.42633,-0.00460847,-0.00362286,1.58677,-0.158362,-0.00213812,0.000244166,0.0175811,-0.0199791,0.2,0.2,0,1.28,0,0,0,0.2,-0.2,0,1.28,0,0,0
gen_000168_tz+0.04_tx+0.00_ty+0.01_p-0.05_fx-0.03_fy+0.00,-0.251573,1.999191936,0.496338,0.998364,-0.00083171,0.0571117,0.0024721,-1.50445,-0.00500841,-0.00365967,1.7187,-0.328374,-0.00225161,-1.50243,-0.00499758,-0.00362725,1.72039,-0.332068,-0.00220921,0.00172078,0.017247,-0.136127,0.2,0.2,0,1.28,0,0,0,0.2,-0.2,0,1.28,0,0,0,-1.50445,-0.00500841,-0.00365967,1.7187,-0.328374,-0.00225161,-1.50243,-0.00499758,-0.00362725,1.72039,-0.332068,-0.00220921,0.00172078,0.017247,-0.136127,0.2,0.2,0,1.28,0,0,0,0.2,-0.2,0,1.28,0,0,0
gen_000169_tz+0.04_tx+0.00_ty+0.01_p-0.05_fx-0.02_fy+0.00,-0.250788,1.999192664,0.496306,0.998818,-0.000833814,0.0485485,0.0024364,-1.49491,-0.00495335,-0.00366434,1.70179,-0.303865,-0.00224359,-1.49295,-0.00494232,-0.00363184,1.70347,-0.307493,-0.0022015,0.00151212,0.0173161,-0.118992,0.2,0.2,0,1.28,0,0,0,0.2,-0.2,0,1.28,0,0,0,-1.49491,-0.00495335,-0.00366434,1.70179,-0.303865,-0.00224359,-1.49295,-0.00494232,-0.00363184,1.70347,-0.307493,-0.0022015,0.00151212,0.0173161,-0.118992,0.2,0.2,0,1.28,0,0,0,0.2,-0.2,0,1.28,0,0,0
gen_000170_tz+0.04_tx+0.00_ty+0.01_p-0.05_fx-0.01_fy+0.00,-0.250011,1.999193491,0.496287,0.999193,-0.000833992,0.0400805,0.00240174,-1.48492,-0.00489782,-0.00366645,1.68415,-0.279269,-0.00223457,-1.48304,-0.00488663,-0.00363388,1.68584,-0.282833,-0.0021928,0.00130296,0.0173772,-0.102056,0.2,0.2,0,1.28,0,0,0,0.2,-0.2,0,1.28,0,0,0,-1.48492,-0.00489782,-0.00366645,1.68415,-0.279269,-0.00223457,-1.48304,-0.00488663,-0.00363388,1.68584,-0.282833,-0.0021928,0.00130296,0.0173772,-0.102056,0.2,0.2,0,1.28,0,0,0,0.2,-0.2,0,1.28,0,0,0
gen_000171_tz+0.04_tx+0.00_ty+0.01_p-0.05_fx+0.00_fy+0.00,-0.249241,1.999194457,0.49628,0.999494,-0.000831853,0.0317038,0.00236786,-1.47448,-0.00484123,-0.00366496,1.66578,-0.25459,-0.0022243,-1.47266,-0.00482994,-0.00363232,1.66747,-0.258091,-0.00218287,0.00109386,0.0174296,-0.0853079,0.2,0.2,0,1.28,0,0,0,0.2,-0.2,0,1.28,0,0,0,-1.47448,-0.00484123,-0.00366496,1.66578,-0.25459,-0.0022243,-1.47266,-0.00482994,-0.00363232,1.66747,-0.258091,-0.00218287,0.00109386,0.0174296,-0.0853079,0.2,0.2,0,1.28,0,0,0,0.2,-0.2,0,1.28,0,0,0
gen_000172_tz+0.04_tx+0.00_ty+0.01_p-0.05_fx+0.01_fy+0.00,-0.248478,1.999195728,0.496284,0.999723,-0.000825549,0.0234143,0.00233369,-1.46357,-0.00478126,-0.00365514,1.64669,-0.22983,-0.0022117,-1.46182,-0.00476991,-0.00362244,1.64839,-0.23327,-0.00217063,0.000886929,0.0174697,-0.0687393,0.2,0.2,0,1.28,0,0,0,0.2,-0.2,0,1.28,0,0,0,-1.46357,-0.00478126,-0.00365514,1.64669,-0.22983,-0.0022117,-1.46182,-0.00476991,-0.00362244,1.64839,-0.23327,-0.00217063,0.000886929,0.0174697,-0.0687393,0.2,0.2,0,1.28,0,0,0,0.2,-0.2,0,1.28,0,0,0
gen_000173_tz+0.04_tx+0.00_ty+0.01_p-0.05_fx+0.02_fy+0.00,-0.247722,1.99919684,0.496299,0.999881,-0.000820333,0.0152142,0.00230222,-1.4522,-0.00472444,-0.00365018,1.62686,-0.204983,-0.00219983,-1.45052,-0.00471305,-0.00361744,1.62857,-0.208366,-0.0021591,0.000676706,0.0175081,-0.0523536,0.2,0.2,0,1.28,0,0,0,0.2,-0.2,0,1.28,0,0,0,-1.4522,-0.00472444,-0.00365018,1.62686,-0.204983,-0.00219983,-1.45052,-0.00471305,-0.00361744,1.62857,-0.208366,-0.0021591,0.000676706,0.0175081,-0.0523536,0.2,0.2,0,1.28,0,0,0,0.2,-0.2,0,1.28,0,0,0
gen_000174_tz+0.04_tx+0.00_ty+0.01_p-0.05_fx+0.03_fy+0.00,-0.246971,1.999197586,0.496325,0.999972,-0.000818644,0.00708116,0.00227476,-1.44031,-0.00467357,-0.00365629,1.60631,-0.180066,-0.00219004,-1.43869,-0.00466213,-0.00362353,1.60803,-0.183398,-0.00214962,0.00045987,0.01755,-0.0361045,0.2,0.2,0,1.28,0,0,0,0.2,-0.2,0,1.28,0,0,0,-1.44031,-0.00467357,-0.00365629,1.60631,-0.180066,-0.00219004,-1.43869,-0.00466213,-0.00362353,1.60803,-0.183398,-0.00214962,0.00045987,0.01755,-0.0361045,0.2,0.2,0,1.28,0,0,0,0.2,-0.2,0,1.28,0,0,0
gen_000175_tz+0.04_tx+0.01_ty+0.01_p-0.05_fx-0.03_fy+0.00,-0.242365,1.999191324,0.496382,0.997831,-0.00082747,0.0657711,0.00250869,-1.51355,-0.00506273,-0.00365197,1.73488,-0.352793,-0.00225852,-1.51147,-0.00505214,-0.00361965,1.73657,-0.356554,-0.00221582,0.00192905,0.0171695,-0.153464,0.2,0.2,0,1.28,0,0,0,0.2,-0.2,0,1.28,0,0,0,-1.51355,-0.00506273,-0.00365197,1.73488,-0.352793,-0.00225852,-1.51147,-0.00505214,-0.00361965,1.73657,-0.356554,-0.00221582,0.00192905,0.0171695,-0.153464,0.2,0.2,0,1.28,0,0,0,0.2,-0.2,0,1.28,0,0,0
gen_000176_tz+0.04_tx+0.01_ty+0.01_p-0.05_fx-0.02_fy+0.00,-0.241573,1.999191949,0.496338,0.998364,-0.000831574,0.0571108,0.00247199,-1.50445,-0.00500819,-0.00365933,1.7187,-0.328375,-0.00225153,-1.50243,-0.00499736,-0.00362692,1.72039,-0.332069,-0.00220913,0.00172094,0.0172467,-0.136126,0.2,0.2,0,1.28,0,0,0,0.2,-0.2,0,1.28,0,0,0,-1.50445,-0.00500819,-0.00365933,1.7187,-0.328375,-0.00225153,-1.50243,-0.00499736,-0.00362692,1.72039,-0.332069,-0.00220913,0.00172094,0.0172467,-0.136126,0.2,0.2,0,1.28,0,0,0,0.2,-0.2,0,1.28,0,0,0
gen_000177_tz+0.04_tx+0.01_ty+0.01_p-0.05_fx-0.01_fy+0.00,-0.240788,1.999192663,0.496306,0.998818,-0.000833825,0.0485486,0.0024364,-1.49491,-0.00495335,-0.00366437,1.70179,-0.303865,-0.00224359,-1.49296,-0.00494232,-0.00363187,1.70347,-0.307493,-0.0022015,0.00151212,0.0173161,-0.118993,0.2,0.2,0,1.28,0,0,0,0.2,-0.2,0,1.28,0,0,0,-1.49491,-0.00495335,-0.00366437,1.70179,-0.303865,-0.00224359,-1.49296,-0.00494232,-0.00363187,1.70347,-0.307493,-0.0022015,0.00151212,0.0173161,-0.118993,0.2,0.2,0,1.28,0,0,0,0.2,-0.2,0,1.28,0,0,0
gen_000178_tz+0.04_tx+0.01_ty+0.01_p-0.05_fx+0.00_fy+0.00,-0.240011,1.999193491,0.496287,0.999193,-0.000833996,0.0400807,0.00240174,-1.48492,-0.00489782,-0.00366646,1.68415,-0.279269,-0.00223457,-1.48304,-0.00488664,-0.00363389,1.68584,-0.282833,-0.0021928,0.00130296,0.0173772,-0.102056,0.2,0.2,0,1.28,0,0,0,0.2,-0.2,0,1.28,0,0,0,-1.48492,-0.00489782,-0.00366646,1.68415,-0.279269,-0.00223457,-1.48304,-0.00488664,-0.00363389,1.68584,-0.282833,-0.0021928,0.00130296,0.0173772,-0.102056,0.2,0.2,0,1.28,0,0,0,0.2,-0.2,0,1.28,0,0,0
gen_000179_tz+0.04_tx+0.01_ty+0.01_p-0.05_fx+0.01_fy+0.00,-0.239241,1.999194493,0.49628,0.999494,-0.000831452,0.031703,0.00236763,-1.47448,-0.00484072,-0.00366395,1.66578,-0.25459,-0.00222407,-1.47266,-0.00482943,-0.00363131,1.66747,-0.258092,-0.00218263,0.00109428,0.0174288,-0.0853063,0.2,0.2,0,1.28,0,0,0,0.2,-0.2,0,1.28,0,0,0,-1.47448,-0.00484072,-0.00366395,1.66578,-0.25459,-0.00222407,-1.47266,-0.00482943,-0.00363131,1.66747,-0.258092,-0.00218263,0.00109428,0.0174288,-0.0853063,0.2,0.2,0,1.28,0,0,0,0.2,-0.2,0,1.28,0,0,0
gen_000180_tz+0.04_tx+0.01_ty+0.01_p-0.05_fx+0.02_fy+0.00,-0.238478,1.999195732,0.496284,0.999723,-0.000825495,0.0234145,0.00233369,-1.46357,-0.00478125,-0.00365499,1.64669,-0.22983,-0.00221167,-1.46182,-0.00476991,-0.0036223,1.64839,-0.23327,-0.00217059,0.000886936,0.0174696,-0.0687398,0.2,0.2,0,1.28,0,0,0,0.2,-0.2,0,1.28,0,0,0,-1.46357,-0.00478125,-0.00365499,1.64669,-0.22983,-0.00221167,-1.46182,-0.00476991,-0.0036223,1.64839,-0.23327,-0.00217059,0.000886936,0.0174696,-0.0687398,0.2,0.2,0,1.28,0,0,0,0.2,-0.2,0,1.28,0,0,0
gen_000181_tz+0.04_tx+0.01_ty+0.01_p-0.05_fx+0.03_fy+0.00,-0.237722,1.999196846,0.496299,0.999881,-0.000820258,0.0152145,0.00230222,-1.4522,-0.00472443,-0.00364998,1.62686,-0.204983,-0.00219978,-1.45052,-0.00471305,-0.00361724,1.62857,-0.208366,-0.00215905,0.000676712,0.017508,-0.0523542,0.2,0.2,0,1.28,0,0,0,0.2,-0.2,0,1.28,0,0,0,-1.4522,-0.00472443,-0.00364998,1.62686,-0.204983,-0.00219978,-1.45052,-0.00471305,-0.00361724,1.62857,-0.208366,-0.00215905,0.000676712,0.017508,-0.0523542,0.2,0.2,0,1.28,0,0,0,0.2,-0.2,0,1.28,0,0,0
gen_000182_tz+0.04_tx+0.02_ty+0.01_p-0.05_fx-0.03_fy+0.00,-0.233165,1.999190784,0.49644,0.997215,-0.000821504,0.0745313,0.00254649,-1.52223,-0.005117,-0.00364233,1.75033,-0.377113,-0.00226459,-1.5201,-0.0051067,-0.00361012,1.75203,-0.380945,-0.00222159,0.00213633,0.0170843,-0.171013,0.2,0.2,0,1.28,0,0,0,0.2,-0.2,0,1.28,0,0,0,-1.52223,-0.005117,-0.00364233,1.75033,-0.377113,-0.00226459,-1.5201,-0.0051067,-0.00361012,1.75203,-0.380945,-0.00222159,0.00213633,0.0170843,-0.171013,0.2,0.2,0,1.28,0,0,0,0.2,-0.2,0,1.28,0,0,0
gen_000183_tz+0.04_tx+0.02_ty+0.01_p-0.05_fx-0.02_fy+0.00,-0.232365,1.999191323,0.496382,0.997831,-0.000827479,0.0657711,0.00250869,-1.51355,-0.00506273,-0.00365199,1.73488,-0.352793,-0.00225853,-1.51148,-0.00505214,-0.00361967,1.73657,-0.356554,-0.00221583,0.00192905,0.0171695,-0.153464,0.2,0.2,0,1.28,0,0,0,0.2,-0.2,0,1.28,0,0,0,-1.51355,-0.00506273,-0.00365199,1.73488,-0.352793,-0.00225853,-1.51148,-0.00505214,-0.00361967,1.73657,-0.356554,-0.00221583,0.00192905,0.0171695,-0.153464,0.2,0.2,0,1.28,0,0,0,0.2,-0.2,0,1.28,0,0,0
gen_000184_tz+0.04_tx+0.02_ty+0.01_p-0.05_fx-0.01_fy+0.00,-0.231573,1.999191948,0.496338,0.998364,-0.000831579,0.0571109,0.00247199,-1.50445,-0.00500819,-0.00365934,1.7187,-0.328375,-0.00225153,-1.50243,-0.00499736,-0.00362693,1.72039,-0.332069,-0.00220913,0.00172094,0.0172467,-0.136126,0.2,0.2,0,1.28,0,0,0,0.2,-0.2,0,1.28,0,0,0,-1.50445,-0.00500819,-0.00365934,1.7187,-0.328375,-0.00225153,-1.50243,-0.00499736,-0.00362693,1.72039,-0.332069,-0.00220913,0.00172094,0.0172467,-0.136126,0.2,0.2,0,1.28,0,0,0,0.2,-0.2,0,1.28,0,0,0
gen_000185_tz+0.04_tx+0.02_ty+0.01_p-0.05_fx+0.00_fy+0.00,-0.230788,1.999192663,0.496306,0.998817,-0.000833823,0.0485487,0.0024364,-1.49491,-0.00495335,-0.00366437,1.70179,-0.303865,-0.00224359,-1.49296,-0.00494233,-0.00363187,1.70347,-0.307493,-0.0022015,0.00151212,0.0173161,-0.118993,0.2,0.2,0,1.28,0,0,0,0.2,-0.2,0,1.28,0,0,0,-1.49491,-0.00495335,-0.00366437,1.70179,-0.303865,-0.00224359,-1.49296,-0.00494233,-0.00363187,1.70347,-0.307493,-0.0022015,0.00151212,0.0173161,-0.118993,0.2,0.2,0,1.28,0,0,0,0.2,-0.2,0,1.28,0,0,0
gen_000186_tz+0.04_tx+0.02_ty+0.01_p-0.05_fx+0.01_fy+0.00,-0.230011,1.999193492,0.496287,0.999193,-0.00083398,0.0400807,0.00240174,-1.48492,-0.00489782,-0.00366642,1.68415,-0.279269,-0.00223456,-1.48304,-0.00488664,-0.00363385,1.68584,-0.282833,-0.00219279,0.00130296,0.0173771,-0.102056,0.2,0.2,0,1.28,0,0,0,0.2,-0.2,0,1.28,0,0,0,-1.48492,-0.00489782,-0.00366642,1.68415,-0.279269,-0.00223456,-1.48304,-0.00488664,-0.00363385,1.68584,-0.282833,-0.00219279,0.00130296,0.0173771,-0.102056,0.2,0.2,0,1.28,0,0,0,0.2,-0.2,0,1.28,0,0,0
gen_000187_tz+0.04_tx+0.02_ty+0.01_p-0.05_fx+0.02_fy+0.00,-0.229241,1.999194496,0.49628,0.999494,-0.000831414,0.0317031,0.00236763,-1.47448,-0.00484072,-0.00366385,1.66578,-0.25459,-0.00222404,-1.47266,-0.00482942,-0.00363121,1.66747,-0.258092,-0.00218261,0.00109428,0.0174287,-0.0853065,0.2,0.2,0,1.28,0,0,0,0.2,-0.2,0,1.28,0,0,0,-1.47448,-0.00484072,-0.00366385,1.66578,-0.25459,-0.00222404,-1.47266,-0.00482942,-0.00363121,1.66747,-0.258092,-0.00218261,0.00109428,0.0174287,-0.0853065,0.2,0.2,0,1.28,0,0,0,0.2,-0.2,0,1.28,0,0,0
gen_000188_tz+0.04_tx+0.02_ty+0.01_p-0.05_fx+0.03_fy+0.00,-0.228478,1.999195739,0.496284,0.999723,-0.000825421,0.0234147,0.0023337,-1.46357,-0.00478125,-0.0036548,1.64669,-0.229829,-0.00221162,-1.46182,-0.00476991,-0.0036221,1.64839,-0.23327,-0.00217054,0.000886933,0.0174694,-0.0687402,0.2,0.2,0,1.28,0,0,0,0.2,-0.2,0,1.28,0,0,0,-1.46357,-0.00478125,-0.0036548,1.64669,-0.229829,-0.00221162,-1.46182,-0.00476991,-0.0036221,1.64839,-0.23327,-0.00217054,0.000886933,0.0174694,-0.0687402,0.2,0.2,0,1.28,0,0,0,0.2,-0.2,0,1.28,0,0,0
