meetpal644/Sit-to-Stand-Motion-Synthesis-For-Humanoids/keyframes/chair1_pose_0.01z.csv
name,qpos_0,qpos_1,qpos_2,qpos_3,qpos_4,qpos_5,qpos_6,qpos_7,qpos_8,qpos_9,qpos_10,qpos_11,qpos_12,qpos_13,qpos_14,qpos_15,qpos_16,qpos_17,qpos_18,qpos_19,qpos_20,qpos_21,qpos_22,qpos_23,qpos_24,qpos_25,qpos_26,qpos_27,qpos_28,qpos_29,qpos_30,qpos_31,qpos_32,qpos_33,qpos_34,qpos_35,ctrl_0,ctrl_1,ctrl_2,ctrl_3,ctrl_4,ctrl_5,ctrl_6,ctrl_7,ctrl_8,ctrl_9,ctrl_10,ctrl_11,ctrl_12,ctrl_13,ctrl_14,ctrl_15,ctrl_16,ctrl_17,ctrl_18,ctrl_19,ctrl_20,ctrl_21,ctrl_22,ctrl_23,ctrl_24,ctrl_25,ctrl_26,ctrl_27,ctrl_28
gen_000000_tz+0.01_tx-0.03_ty-0.02_p-0.05_fx-0.03_fy+0.00,-0.278294,0.47156750000000003,0.466485,0.999465,0.0255388,0.0202327,0.00268886,-1.51468,-0.0055982,-0.016022,1.74962,-0.275392,-0.0675651,-1.5493,-0.00630032,-0.0171865,1.79094,-0.282072,-0.0689408,-0.000984073,-0.0351691,-0.0622421,0.2,0.2,0,1.28,0,0,0,0.2,-0.2,0,1.28,0,0,0,-1.51468,-0.0055982,-0.016022,1.74962,-0.275392,-0.0675651,-1.5493,-0.00630032,-0.0171865,1.79094,-0.282072,-0.0689408,-0.000984073,-0.0351691,-0.0622421,0.2,0.2,0,1.28,0,0,0,0.2,-0.2,0,1.28,0,0,0
gen_000001_tz+0.01_tx-0.03_ty-0.02_p-0.05_fx-0.02_fy+0.00,-0.277528,0.4715681,0.466509,0.999601,0.0255139,0.0118797,0.00254443,-1.50401,-0.00583917,-0.0160472,1.73036,-0.250098,-0.0675451,-1.53873,-0.00655166,-0.0171996,1.77161,-0.256607,-0.0689186,-0.000533306,-0.0350858,-0.0455407,0.2,0.2,0,1.28,0,0,0,0.2,-0.2,0,1.28,0,0,0,-1.50401,-0.00583917,-0.0160472,1.73036,-0.250098,-0.0675451,-1.53873,-0.00655166,-0.0171996,1.77161,-0.256607,-0.0689186,-0.000533306,-0.0350858,-0.0455407,0.2,0.2,0,1.28,0,0,0,0.2,-0.2,0,1.28,0,0,0
gen_000002_tz+0.01_tx-0.03_ty-0.02_p-0.05_fx-0.01_fy+0.00,-0.276771,0.4715682,0.466543,0.999666,0.0254871,0.00364342,0.00239874,-1.49291,-0.00606038,-0.016076,1.71038,-0.224751,-0.0675241,-1.52773,-0.00678226,-0.0172168,1.75158,-0.231113,-0.0688952,-8.40722e-05,-0.0349953,-0.0290749,0.2,0.2,0,1.28,0,0,0,0.2,-0.2,0,1.28,0,0,0,-1.49291,-0.00606038,-0.016076,1.71038,-0.224751,-0.0675241,-1.52773,-0.00678226,-0.0172168,1.75158,-0.231113,-0.0688952,-8.40722e-05,-0.0349953,-0.0290749,0.2,0.2,0,1.28,0,0,0,0.2,-0.2,0,1.28,0,0,0
gen_000003_tz+0.01_tx-0.03_ty-0.02_p-0.05_fx+0.00_fy+0.00,-0.276024,0.47156750000000003,0.466588,0.999663,0.0254558,-0.00448575,0.00225202,-1.48136,-0.00626338,-0.016116,1.68969,-0.199356,-0.067504,-1.51627,-0.00699389,-0.0172458,1.73085,-0.205594,-0.0688725,0.000363276,-0.0348923,-0.0128245,0.2,0.2,0,1.28,0,0,0,0.2,-0.2,0,1.28,0,0,0,-1.48136,-0.00626338,-0.016116,1.68969,-0.199356,-0.067504,-1.51627,-0.00699389,-0.0172458,1.73085,-0.205594,-0.0688725,0.000363276,-0.0348923,-0.0128245,0.2,0.2,0,1.28,0,0,0,0.2,-0.2,0,1.28,0,0,0
gen_000004_tz+0.01_tx-0.03_ty-0.02_p-0.05_fx+0.01_fy+0.00,-0.275286,0.4715659,0.466643,0.999596,0.0254176,-0.0125116,0.0021046,-1.46936,-0.00644952,-0.016174,1.66828,-0.173911,-0.0674866,-1.50433,-0.00718809,-0.0172934,1.70941,-0.180049,-0.0688524,0.000807925,-0.0347721,0.00321912,0.2,0.2,0,1.28,0,0,0,0.2,-0.2,0,1.28,0,0,0,-1.46936,-0.00644952,-0.016174,1.66828,-0.173911,-0.0674866,-1.50433,-0.00718809,-0.0172934,1.70941,-0.180049,-0.0688524,0.000807925,-0.0347721,0.00321912,0.2,0.2,0,1.28,0,0,0,0.2,-0.2,0,1.28,0,0,0
gen_000005_tz+0.01_tx-0.03_ty-0.02_p-0.05_fx+0.02_fy+0.00,-0.274556,0.4715635,0.466708,0.999467,0.0253739,-0.0204432,0.00195569,-1.45687,-0.00661714,-0.0162469,1.64616,-0.148419,-0.0674711,-1.4919,-0.00736318,-0.0173565,1.68726,-0.154479,-0.068834,0.0012514,-0.0346375,0.0190752,0.2,0.2,0,1.28,0,0,0,0.2,-0.2,0,1.28,0,0,0,-1.45687,-0.00661714,-0.0162469,1.64616,-0.148419,-0.0674711,-1.4919,-0.00736318,-0.0173565,1.68726,-0.154479,-0.068834,0.0012514,-0.0346375,0.0190752,0.2,0.2,0,1.28,0,0,0,0.2,-0.2,0,1.28,0,0,0
gen_000006_tz+0.01_tx-0.03_ty-0.02_p-0.05_fx+0.03_fy+0.00,-0.273833,0.4715604,0.466782,0.999277,0.0253248,-0.0282896,0.00180483,-1.44389,-0.00676557,-0.0163353,1.62332,-0.122877,-0.0674577,-1.47896,-0.00751855,-0.0174359,1.66442,-0.128882,-0.0688176,0.00169456,-0.0344885,0.0347625,0.2,0.2,0,1.28,0,0,0,0.2,-0.2,0,1.28,0,0,0,-1.44389,-0.00676557,-0.0163353,1.62332,-0.122877,-0.0674577,-1.47896,-0.00751855,-0.0174359,1.66442,-0.128882,-0.0688176,0.00169456,-0.0344885,0.0347625,0.2,0.2,0,1.28,0,0,0,0.2,-0.2,0,1.28,0,0,0
gen_000007_tz+0.01_tx-0.02_ty-0.02_p-0.05_fx-0.03_fy+0.00,-0.269071,0.4715662,0.466473,0.999257,0.0255594,0.0287127,0.00283291,-1.52494,-0.00533934,-0.0160054,1.76816,-0.300626,-0.0675853,-1.55944,-0.0060302,-0.0171826,1.80956,-0.3075,-0.068963,-0.00143817,-0.0352406,-0.0792012,0.2,0.2,0,1.28,0,0,0,0.2,-0.2,0,1.28,0,0,0,-1.52494,-0.00533934,-0.0160054,1.76816,-0.300626,-0.0675853,-1.55944,-0.0060302,-0.0171826,1.80956,-0.3075,-0.068963,-0.00143817,-0.0352406,-0.0792012,0.2,0.2,0,1.28,0,0,0,0.2,-0.2,0,1.28,0,0,0
gen_000008_tz+0.01_tx-0.02_ty-0.02_p-0.05_fx-0.02_fy+0.00,-0.268294,0.47156750000000003,0.466485,0.999465,0.0255389,0.0202329,0.00268885,-1.51468,-0.00559814,-0.0160217,1.74962,-0.275392,-0.067565,-1.5493,-0.00630025,-0.0171863,1.79094,-0.282072,-0.0689407,-0.000984059,-0.0351693,-0.0622426,0.2,0.2,0,1.28,0,0,0,0.2,-0.2,0,1.28,0,0,0,-1.51468,-0.00559814,-0.0160217,1.74962,-0.275392,-0.067565,-1.5493,-0.00630025,-0.0171863,1.79094,-0.282072,-0.0689407,-0.000984059,-0.0351693,-0.0622426,0.2,0.2,0,1.28,0,0,0,0.2,-0.2,0,1.28,0,0,0
gen_000009_tz+0.01_tx-0.02_ty-0.02_p-0.05_fx-0.01_fy+0.00,-0.267528,0.4715681,0.466509,0.999601,0.025514,0.0118799,0.00254442,-1.50401,-0.0058391,-0.0160469,1.73036,-0.250098,-0.067545,-1.53874,-0.00655159,-0.0171993,1.77161,-0.256607,-0.0689185,-0.000533284,-0.035086,-0.0455411,0.2,0.2,0,1.28,0,0,0,0.2,-0.2,0,1.28,0,0,0,-1.50401,-0.0058391,-0.0160469,1.73036,-0.250098,-0.067545,-1.53874,-0.00655159,-0.0171993,1.77161,-0.256607,-0.0689185,-0.000533284,-0.035086,-0.0455411,0.2,0.2,0,1.28,0,0,0,0.2,-0.2,0,1.28,0,0,0
gen_000010_tz+0.01_tx-0.02_ty-0.02_p-0.05_fx+0.00_fy+0.00,-0.266771,0.4715682,0.466543,0.999666,0.0254872,0.00364353,0.00239873,-1.49291,-0.00606033,-0.0160758,1.71038,-0.224751,-0.0675241,-1.52773,-0.00678221,-0.0172166,1.75158,-0.231113,-0.0688951,-8.40549e-05,-0.0349954,-0.0290751,0.2,0.2,0,1.28,0,0,0,0.2,-0.2,0,1.28,0,0,0,-1.49291,-0.00606033,-0.0160758,1.71038,-0.224751,-0.0675241,-1.52773,-0.00678221,-0.0172166,1.75158,-0.231113,-0.0688951,-8.40549e-05,-0.0349954,-0.0290751,0.2,0.2,0,1.28,0,0,0,0.2,-0.2,0,1.28,0,0,0
gen_000011_tz+0.01_tx-0.02_ty-0.02_p-0.05_fx+0.01_fy+0.00,-0.266024,0.47156750000000003,0.466588,0.999663,0.0254558,-0.00448567,0.00225202,-1.48136,-0.00626337,-0.016116,1.68969,-0.199356,-0.067504,-1.51627,-0.00699387,-0.0172458,1.73085,-0.205594,-0.0688725,0.000363281,-0.0348923,-0.0128246,0.2,0.2,0,1.28,0,0,0,0.2,-0.2,0,1.28,0,0,0,-1.48136,-0.00626337,-0.016116,1.68969,-0.199356,-0.067504,-1.51627,-0.00699387,-0.0172458,1.73085,-0.205594,-0.0688725,0.000363281,-0.0348923,-0.0128246,0.2,0.2,0,1.28,0,0,0,0.2,-0.2,0,1.28,0,0,0
gen_000012_tz+0.01_tx-0.02_ty-0.02_p-0.05_fx+0.02_fy+0.00,-0.265286,0.4715659,0.466643,0.999596,0.0254176,-0.0125115,0.0021046,-1.46936,-0.00644951,-0.016174,1.66828,-0.173911,-0.0674866,-1.50433,-0.00718809,-0.0172934,1.70941,-0.180049,-0.0688524,0.000807923,-0.0347721,0.00321893,0.2,0.2,0,1.28,0,0,0,0.2,-0.2,0,1.28,0,0,0,-1.46936,-0.00644951,-0.016174,1.66828,-0.173911,-0.0674866,-1.50433,-0.00718809,-0.0172934,1.70941,-0.180049,-0.0688524,0.000807923,-0.0347721,0.00321893,0.2,0.2,0,1.28,0,0,0,0.2,-0.2,0,1.28,0,0,0
gen_000013_tz+0.01_tx-0.02_ty-0.02_p-0.05_fx+0.03_fy+0.00,-0.264556,0.4715635,0.466708,0.999467,0.0253739,-0.0204431,0.00195569,-1.45687,-0.00661714,-0.0162469,1.64616,-0.148418,-0.0674711,-1.4919,-0.00736318,-0.0173566,1.68726,-0.154479,-0.068834,0.0012514,-0.0346375,0.019075,0.2,0.2,0,1.28,0,0,0,0.2,-0.2,0,1.28,0,0,0,-1.45687,-0.00661714,-0.0162469,1.64616,-0.148418,-0.0674711,-1.4919,-0.00736318,-0.0173566,1.68726,-0.154479,-0.068834,0.0012514,-0.0346375,0.019075,0.2,0.2,0,1.28,0,0,0,0.2,-0.2,0,1.28,0,0,0
gen_000014_tz+0.01_tx-0.01_ty-0.02_p-0.05_fx-0.03_fy+0.00,-0.259859,0.471564,0.466473,0.998972,0.0255739,0.0373236,0.00297727,-1.53481,-0.00506436,-0.016002,1.78598,-0.325796,-0.0676069,-1.56918,-0.00574315,-0.0171922,1.82746,-0.332888,-0.0689864,-0.00189677,-0.0352962,-0.0964268,0.2,0.2,0,1.28,0,0,0,0.2,-0.2,0,1.28,0,0,0,-1.53481,-0.00506436,-0.016002,1.78598,-0.325796,-0.0676069,-1.56918,-0.00574315,-0.0171922,1.82746,-0.332888,-0.0689864,-0.00189677,-0.0352962,-0.0964268,0.2,0.2,0,1.28,0,0,0,0.2,-0.2,0,1.28,0,0,0
gen_000015_tz+0.01_tx-0.01_ty-0.02_p-0.05_fx-0.02_fy+0.00,-0.259071,0.4715662,0.466473,0.999257,0.0255595,0.0287129,0.00283289,-1.52494,-0.00533928,-0.0160052,1.76816,-0.300626,-0.0675852,-1.55944,-0.00603014,-0.0171824,1.80956,-0.3075,-0.068963,-0.00143816,-0.0352408,-0.0792017,0.2,0.2,0,1.28,0,0,0,0.2,-0.2,0,1.28,0,0,0,-1.52494,-0.00533928,-0.0160052,1.76816,-0.300626,-0.0675852,-1.55944,-0.00603014,-0.0171824,1.80956,-0.3075,-0.068963,-0.00143816,-0.0352408,-0.0792017,0.2,0.2,0,1.28,0,0,0,0.2,-0.2,0,1.28,0,0,0
gen_000016_tz+0.01_tx-0.01_ty-0.02_p-0.05_fx-0.01_fy+0.00,-0.258294,0.47156750000000003,0.466485,0.999465,0.025539,0.0202331,0.00268883,-1.51468,-0.00559807,-0.0160215,1.74962,-0.275392,-0.0675649,-1.5493,-0.00630018,-0.017186,1.79094,-0.282072,-0.0689406,-0.000984035,-0.0351695,-0.062243,0.2,0.2,0,1.28,0,0,0,0.2,-0.2,0,1.28,0,0,0,-1.51468,-0.00559807,-0.0160215,1.74962,-0.275392,-0.0675649,-1.5493,-0.00630018,-0.017186,1.79094,-0.282072,-0.0689406,-0.000984035,-0.0351695,-0.062243,0.2,0.2,0,1.28,0,0,0,0.2,-0.2,0,1.28,0,0,0
gen_000017_tz+0.01_tx-0.01_ty-0.02_p-0.05_fx+0.00_fy+0.00,-0.257528,0.4715681,0.466509,0.999601,0.0255141,0.0118801,0.0025444,-1.50401,-0.00583905,-0.0160467,1.73036,-0.250098,-0.067545,-1.53874,-0.00655153,-0.017199,1.77161,-0.256607,-0.0689184,-0.000533264,-0.0350862,-0.0455414,0.2,0.2,0,1.28,0,0,0,0.2,-0.2,0,1.28,0,0,0,-1.50401,-0.00583905,-0.0160467,1.73036,-0.250098,-0.067545,-1.53874,-0.00655153,-0.017199,1.77161,-0.256607,-0.0689184,-0.000533264,-0.0350862,-0.0455414,0.2,0.2,0,1.28,0,0,0,0.2,-0.2,0,1.28,0,0,0
gen_000018_tz+0.01_tx-0.01_ty-0.02_p-0.05_fx+0.01_fy+0.00,-0.256771,0.4715682,0.466543,0.999666,0.0254872,0.00364368,0.00239873,-1.49291,-0.00606032,-0.0160758,1.71038,-0.224751,-0.0675241,-1.52773,-0.00678219,-0.0172166,1.75158,-0.231113,-0.0688951,-8.4054e-05,-0.0349955,-0.0290754,0.2,0.2,0,1.28,0,0,0,0.2,-0.2,0,1.28,0,0,0,-1.49291,-0.00606032,-0.0160758,1.71038,-0.224751,-0.0675241,-1.52773,-0.00678219,-0.0172166,1.75158,-0.231113,-0.0688951,-8.4054e-05,-0.0349955,-0.0290754,0.2,0.2,0,1.28,0,0,0,0.2,-0.2,0,1.28,0,0,0
gen_000019_tz+0.01_tx-0.01_ty-0.02_p-0.05_fx+0.02_fy+0.00,-0.256024,0.47156750000000003,0.466588,0.999663,0.0254558,-0.00448553,0.00225202,-1.48136,-0.00626337,-0.016116,1.68969,-0.199356,-0.067504,-1.51627,-0.00699388,-0.0172458,1.73085,-0.205594,-0.0688725,0.000363273,-0.0348923,-0.0128249,0.2,0.2,0,1.28,0,0,0,0.2,-0.2,0,1.28,0,0,0,-1.48136,-0.00626337,-0.016116,1.68969,-0.199356,-0.067504,-1.51627,-0.00699388,-0.0172458,1.73085,-0.205594,-0.0688725,0.000363273,-0.0348923,-0.0128249,0.2,0.2,0,1.28,0,0,0,0.2,-0.2,0,1.28,0,0,0
gen_000020_tz+0.01_tx-0.01_ty-0.02_p-0.05_fx+0.03_fy+0.00,-0.255286,0.4715659,0.466643,0.999596,0.0254176,-0.0125113,0.0021046,-1.46936,-0.00644952,-0.0161741,1.66828,-0.173911,-0.0674866,-1.50433,-0.0071881,-0.0172935,1.70941,-0.180049,-0.0688524,0.000807914,-0.034772,0.00321865,0.2,0.2,0,1.28,0,0,0,0.2,-0.2,0,1.28,0,0,0,-1.46936,-0.00644952,-0.0161741,1.66828,-0.173911,-0.0674866,-1.50433,-0.0071881,-0.0172935,1.70941,-0.180049,-0.0688524,0.000807914,-0.034772,0.00321865,0.2,0.2,0,1.28,0,0,0,0.2,-0.2,0,1.28,0,0,0
gen_000021_tz+0.01_tx+0.00_ty-0.02_p-0.05_fx-0.03_fy+0.00,-0.250659,0.4715608,0.466486,0.998606,0.025582,0.0460682,0.00312217,-1.5443,-0.00477351,-0.0160108,1.80307,-0.350898,-0.0676296,-1.57851,-0.00543939,-0.0172146,1.84464,-0.358234,-0.0690108,-0.00236008,-0.0353354,-0.113926,0.2,0.2,0,1.28,0,0,0,0.2,-0.2,0,1.28,0,0,0,-1.5443,-0.00477351,-0.0160108,1.80307,-0.350898,-0.0676296,-1.57851,-0.00543939,-0.0172146,1.84464,-0.358234,-0.0690108,-0.00236008,-0.0353354,-0.113926,0.2,0.2,0,1.28,0,0,0,0.2,-0.2,0,1.28,0,0,0
gen_000022_tz+0.01_tx+0.00_ty-0.02_p-0.05_fx-0.02_fy+0.00,-0.249859,0.471564,0.466473,0.998971,0.0255739,0.0373238,0.00297726,-1.53481,-0.00506431,-0.0160018,1.78598,-0.325796,-0.0676068,-1.56918,-0.00574311,-0.0171921,1.82746,-0.332888,-0.0689864,-0.00189676,-0.0352963,-0.0964272,0.2,0.2,0,1.28,0,0,0,0.2,-0.2,0,1.28,0,0,0,-1.53481,-0.00506431,-0.0160018,1.78598,-0.325796,-0.0676068,-1.56918,-0.00574311,-0.0171921,1.82746,-0.332888,-0.0689864,-0.00189676,-0.0352963,-0.0964272,0.2,0.2,0,1.28,0,0,0,0.2,-0.2,0,1.28,0,0,0
gen_000023_tz+0.01_tx+0.00_ty-0.02_p-0.05_fx-0.01_fy+0.00,-0.249071,0.4715662,0.466473,0.999257,0.0255596,0.0287132,0.00283288,-1.52494,-0.00533923,-0.016005,1.76816,-0.300626,-0.0675852,-1.55944,-0.00603008,-0.0171822,1.80956,-0.307499,-0.0689629,-0.00143814,-0.0352409,-0.0792021,0.2,0.2,0,1.28,0,0,0,0.2,-0.2,0,1.28,0,0,0,-1.52494,-0.00533923,-0.016005,1.76816,-0.300626,-0.0675852,-1.55944,-0.00603008,-0.0171822,1.80956,-0.307499,-0.0689629,-0.00143814,-0.0352409,-0.0792021,0.2,0.2,0,1.28,0,0,0,0.2,-0.2,0,1.28,0,0,0
gen_000024_tz+0.01_tx+0.00_ty-0.02_p-0.05_fx+0.00_fy+0.00,-0.248294,0.47156750000000003,0.466485,0.999465,0.0255382,0.0202329,0.00268902,-1.51468,-0.00559866,-0.0160235,1.74962,-0.275392,-0.0675654,-1.5493,-0.00630082,-0.017188,1.79094,-0.282072,-0.0689411,-0.000984386,-0.035168,-0.0622426,0.2,0.2,0,1.28,0,0,0,0.2,-0.2,0,1.28,0,0,0,-1.51468,-0.00559866,-0.0160235,1.74962,-0.275392,-0.0675654,-1.5493,-0.00630082,-0.017188,1.79094,-0.282072,-0.0689411,-0.000984386,-0.035168,-0.0622426,0.2,0.2,0,1.28,0,0,0,0.2,-0.2,0,1.28,0,0,0
gen_000025_tz+0.01_tx+0.00_ty-0.02_p-0.05_fx+0.01_fy+0.00,-0.247528,0.4715681,0.466509,0.999601,0.0255141,0.0118803,0.00254441,-1.50401,-0.00583905,-0.0160467,1.73036,-0.250097,-0.067545,-1.53874,-0.00655153,-0.0171991,1.77161,-0.256607,-0.0689185,-0.000533275,-0.0350862,-0.0455419,0.2,0.2,0,1.28,0,0,0,0.2,-0.2,0,1.28,0,0,0,-1.50401,-0.00583905,-0.0160467,1.73036,-0.250097,-0.067545,-1.53874,-0.00655153,-0.0171991,1.77161,-0.256607,-0.0689185,-0.000533275,-0.0350862,-0.0455419,0.2,0.2,0,1.28,0,0,0,0.2,-0.2,0,1.28,0,0,0
gen_000026_tz+0.01_tx+0.00_ty-0.02_p-0.05_fx+0.02_fy+0.00,-0.246771,0.4715682,0.466543,0.999666,0.0254879,0.00364325,0.00239854,-1.49291,-0.0060598,-0.0160741,1.71038,-0.224751,-0.0675236,-1.52773,-0.00678163,-0.0172149,1.75158,-0.231113,-0.0688947,-8.36782e-05,-0.0349968,-0.0290746,0.2,0.2,0,1.28,0,0,0,0.2,-0.2,0,1.28,0,0,0,-1.49291,-0.0060598,-0.0160741,1.71038,-0.224751,-0.0675236,-1.52773,-0.00678163,-0.0172149,1.75158,-0.231113,-0.0688947,-8.36782e-05,-0.0349968,-0.0290746,0.2,0.2,0,1.28,0,0,0,0.2,-0.2,0,1.28,0,0,0
gen_000027_tz+0.01_tx+0.00_ty-0.02_p-0.05_fx+0.03_fy+0.00,-0.246024,0.47156750000000003,0.466588,0.999663,0.0254558,-0.00448535,0.00225203,-1.48136,-0.00626339,-0.0161161,1.68969,-0.199356,-0.0675041,-1.51627,-0.00699389,-0.0172459,1.73085,-0.205594,-0.0688726,0.000363258,-0.0348922,-0.0128253,0.2,0.2,0,1.28,0,0,0,0.2,-0.2,0,1.28,0,0,0,-1.48136,-0.00626339,-0.0161161,1.68969,-0.199356,-0.0675041,-1.51627,-0.00699389,-0.0172459,1.73085,-0.205594,-0.0688726,0.000363258,-0.0348922,-0.0128253,0.2,0.2,0,1.28,0,0,0,0.2,-0.2,0,1.28,0,0,0
gen_000028_tz+0.01_tx+0.01_ty-0.02_p-0.05_fx-0.03_fy+0.00,-0.24147,0.4715566,0.466512,0.998156,0.0255835,0.0549481,0.00326787,-1.5534,-0.00446735,-0.0160321,1.81943,-0.375928,-0.0676536,-1.58744,-0.00511942,-0.0172495,1.8611,-0.383534,-0.0690362,-0.00282836,-0.0353576,-0.131704,0.2,0.2,0,1.28,0,0,0,0.2,-0.2,0,1.28,0,0,0,-1.5534,-0.00446735,-0.0160321,1.81943,-0.375928,-0.0676536,-1.58744,-0.00511942,-0.0172495,1.8611,-0.383534,-0.0690362,-0.00282836,-0.0353576,-0.131704,0.2,0.2,0,1.28,0,0,0,0.2,-0.2,0,1.28,0,0,0
gen_000029_tz+0.01_tx+0.01_ty-0.02_p-0.05_fx-0.02_fy+0.00,-0.240659,0.4715608,0.466486,0.998606,0.0255821,0.0460684,0.00312216,-1.5443,-0.00477348,-0.0160108,1.80307,-0.350898,-0.0676296,-1.57851,-0.00543936,-0.0172145,1.84464,-0.358234,-0.0690108,-0.00236007,-0.0353355,-0.113927,0.2,0.2,0,1.28,0,0,0,0.2,-0.2,0,1.28,0,0,0,-1.5443,-0.00477348,-0.0160108,1.80307,-0.350898,-0.0676296,-1.57851,-0.00543936,-0.0172145,1.84464,-0.358234,-0.0690108,-0.00236007,-0.0353355,-0.113927,0.2,0.2,0,1.28,0,0,0,0.2,-0.2,0,1.28,0,0,0
gen_000030_tz+0.01_tx+0.01_ty-0.02_p-0.05_fx-0.01_fy+0.00,-0.239859,0.471564,0.466473,0.998971,0.025574,0.0373239,0.00297726,-1.53481,-0.00506428,-0.0160017,1.78598,-0.325796,-0.0676068,-1.56918,-0.00574307,-0.017192,1.82746,-0.332888,-0.0689864,-0.00189675,-0.0352963,-0.0964276,0.2,0.2,0,1.28,0,0,0,0.2,-0.2,0,1.28,0,0,0,-1.53481,-0.00506428,-0.0160017,1.78598,-0.325796,-0.0676068,-1.56918,-0.00574307,-0.017192,1.82746,-0.332888,-0.0689864,-0.00189675,-0.0352963,-0.0964276,0.2,0.2,0,1.28,0,0,0,0.2,-0.2,0,1.28,0,0,0
gen_000031_tz+0.01_tx+0.01_ty-0.02_p-0.05_fx+0.00_fy+0.00,-0.239071,0.4715662,0.466473,0.999257,0.0255596,0.0287133,0.00283288,-1.52494,-0.00533921,-0.016005,1.76816,-0.300626,-0.0675852,-1.55945,-0.00603006,-0.0171822,1.80956,-0.307499,-0.0689629,-0.00143814,-0.035241,-0.0792024,0.2,0.2,0,1.28,0,0,0,0.2,-0.2,0,1.28,0,0,0,-1.52494,-0.00533921,-0.016005,1.76816,-0.300626,-0.0675852,-1.55945,-0.00603006,-0.0171822,1.80956,-0.307499,-0.0689629,-0.00143814,-0.035241,-0.0792024,0.2,0.2,0,1.28,0,0,0,0.2,-0.2,0,1.28,0,0,0
gen_000032_tz+0.01_tx+0.01_ty-0.02_p-0.05_fx+0.01_fy+0.00,-0.238294,0.47156750000000003,0.466485,0.999465,0.0255381,0.0202331,0.00268903,-1.51468,-0.00559869,-0.0160236,1.74962,-0.275392,-0.0675655,-1.5493,-0.00630085,-0.0171881,1.79094,-0.282072,-0.0689412,-0.000984407,-0.0351678,-0.062243,0.2,0.2,0,1.28,0,0,0,0.2,-0.2,0,1.28,0,0,0,-1.51468,-0.00559869,-0.0160236,1.74962,-0.275392,-0.0675655,-1.5493,-0.00630085,-0.0171881,1.79094,-0.282072,-0.0689412,-0.000984407,-0.0351678,-0.062243,0.2,0.2,0,1.28,0,0,0,0.2,-0.2,0,1.28,0,0,0
gen_000033_tz+0.01_tx+0.01_ty-0.02_p-0.05_fx+0.02_fy+0.00,-0.237528,0.4715681,0.466509,0.999601,0.025514,0.0118805,0.00254442,-1.50401,-0.00583909,-0.016047,1.73036,-0.250097,-0.0675451,-1.53874,-0.00655158,-0.0171993,1.77161,-0.256607,-0.0689185,-0.000533309,-0.035086,-0.0455423,0.2,0.2,0,1.28,0,0,0,0.2,-0.2,0,1.28,0,0,0,-1.50401,-0.00583909,-0.016047,1.73036,-0.250097,-0.0675451,-1.53874,-0.00655158,-0.0171993,1.77161,-0.256607,-0.0689185,-0.000533309,-0.035086,-0.0455423,0.2,0.2,0,1.28,0,0,0,0.2,-0.2,0,1.28,0,0,0
gen_000034_tz+0.01_tx+0.01_ty-0.02_p-0.05_fx+0.03_fy+0.00,-0.236771,0.4715682,0.466543,0.999666,0.0254878,0.00364347,0.00239855,-1.49291,-0.00605983,-0.0160743,1.71038,-0.224751,-0.0675237,-1.52773,-0.00678166,-0.0172151,1.75158,-0.231113,-0.0688947,-8.3701e-05,-0.0349967,-0.029075,0.2,0.2,0,1.28,0,0,0,0.2,-0.2,0,1.28,0,0,0,-1.49291,-0.00605983,-0.0160743,1.71038,-0.224751,-0.0675237,-1.52773,-0.00678166,-0.0172151,1.75158,-0.231113,-0.0688947,-8.3701e-05,-0.0349967,-0.029075,0.2,0.2,0,1.28,0,0,0,0.2,-0.2,0,1.28,0,0,0
gen_000035_tz+0.01_tx+0.02_ty-0.02_p-0.05_fx-0.03_fy+0.00,-0.232292,0.4715514,0.466553,0.997618,0.0255786,0.0639656,0.00341447,-1.56214,-0.00414583,-0.0160641,1.83507,-0.40088,-0.0676785,-1.59599,-0.00478314,-0.0172955,1.87683,-0.408781,-0.0690621,-0.00330157,-0.0353629,-0.149768,0.2,0.2,0,1.28,0,0,0,0.2,-0.2,0,1.28,0,0,0,-1.56214,-0.00414583,-0.0160641,1.83507,-0.40088,-0.0676785,-1.59599,-0.00478314,-0.0172955,1.87683,-0.408781,-0.0690621,-0.00330157,-0.0353629,-0.149768,0.2,0.2,0,1.28,0,0,0,0.2,-0.2,0,1.28,0,0,0
gen_000036_tz+0.01_tx+0.02_ty-0.02_p-0.05_fx-0.02_fy+0.00,-0.23147,0.4715566,0.466512,0.998156,0.0255836,0.0549482,0.00326786,-1.5534,-0.00446733,-0.016032,1.81943,-0.375928,-0.0676536,-1.58744,-0.0051194,-0.0172495,1.8611,-0.383534,-0.0690362,-0.00282835,-0.0353576,-0.131705,0.2,0.2,0,1.28,0,0,0,0.2,-0.2,0,1.28,0,0,0,-1.5534,-0.00446733,-0.016032,1.81943,-0.375928,-0.0676536,-1.58744,-0.0051194,-0.0172495,1.8611,-0.383534,-0.0690362,-0.00282835,-0.0353576,-0.131705,0.2,0.2,0,1.28,0,0,0,0.2,-0.2,0,1.28,0,0,0
gen_000037_tz+0.01_tx+0.02_ty-0.02_p-0.05_fx-0.01_fy+0.00,-0.230659,0.4715608,0.466486,0.998606,0.0255821,0.0460685,0.00312216,-1.5443,-0.00477347,-0.0160107,1.80307,-0.350898,-0.0676296,-1.57851,-0.00543934,-0.0172144,1.84464,-0.358234,-0.0690108,-0.00236007,-0.0353355,-0.113927,0.2,0.2,0,1.28,0,0,0,0.2,-0.2,0,1.28,0,0,0,-1.5443,-0.00477347,-0.0160107,1.80307,-0.350898,-0.0676296,-1.57851,-0.00543934,-0.0172144,1.84464,-0.358234,-0.0690108,-0.00236007,-0.0353355,-0.113927,0.2,0.2,0,1.28,0,0,0,0.2,-0.2,0,1.28,0,0,0
gen_000038_tz+0.01_tx+0.02_ty-0.02_p-0.05_fx+0.00_fy+0.00,-0.229859,0.471564,0.466473,0.998971,0.025574,0.037324,0.00297726,-1.53481,-0.00506428,-0.0160017,1.78598,-0.325795,-0.0676068,-1.56918,-0.00574307,-0.017192,1.82746,-0.332888,-0.0689864,-0.00189676,-0.0352963,-0.0964278,0.2,0.2,0,1.28,0,0,0,0.2,-0.2,0,1.28,0,0,0,-1.53481,-0.00506428,-0.0160017,1.78598,-0.325795,-0.0676068,-1.56918,-0.00574307,-0.017192,1.82746,-0.332888,-0.0689864,-0.00189676,-0.0352963,-0.0964278,0.2,0.2,0,1.28,0,0,0,0.2,-0.2,0,1.28,0,0,0
gen_000039_tz+0.01_tx+0.02_ty-0.02_p-0.05_fx+0.01_fy+0.00,-0.229071,0.4715662,0.466473,0.999257,0.0255595,0.0287134,0.00283289,-1.52494,-0.00533924,-0.0160051,1.76816,-0.300625,-0.0675852,-1.55945,-0.0060301,-0.0171823,1.80956,-0.307499,-0.0689629,-0.00143816,-0.0352409,-0.0792026,0.2,0.2,0,1.28,0,0,0,0.2,-0.2,0,1.28,0,0,0,-1.52494,-0.00533924,-0.0160051,1.76816,-0.300625,-0.0675852,-1.55945,-0.0060301,-0.0171823,1.80956,-0.307499,-0.0689629,-0.00143816,-0.0352409,-0.0792026,0.2,0.2,0,1.28,0,0,0,0.2,-0.2,0,1.28,0,0,0
gen_000040_tz+0.01_tx+0.02_ty-0.02_p-0.05_fx+0.02_fy+0.00,-0.228294,0.47156750000000003,0.466485,0.999465,0.0255389,0.0202336,0.00268885,-1.51468,-0.0055981,-0.0160217,1.74962,-0.275391,-0.067565,-1.5493,-0.00630022,-0.0171863,1.79094,-0.282071,-0.0689407,-0.000984075,-0.0351693,-0.0622441,0.2,0.2,0,1.28,0,0,0,0.2,-0.2,0,1.28,0,0,0,-1.51468,-0.0055981,-0.0160217,1.74962,-0.275391,-0.067565,-1.5493,-0.00630022,-0.0171863,1.79094,-0.282071,-0.0689407,-0.000984075,-0.0351693,-0.0622441,0.2,0.2,0,1.28,0,0,0,0.2,-0.2,0,1.28,0,0,0
gen_000041_tz+0.01_tx+0.02_ty-0.02_p-0.05_fx+0.03_fy+0.00,-0.227528,0.4715681,0.466509,0.999601,0.0255139,0.0118807,0.00254444,-1.50401,-0.00583914,-0.0160473,1.73036,-0.250097,-0.0675451,-1.53874,-0.00655163,-0.0171996,1.77161,-0.256606,-0.0689186,-0.000533338,-0.0350858,-0.0455428,0.2,0.2,0,1.28,0,0,0,0.2,-0.2,0,1.28,0,0,0,-1.50401,-0.00583914,-0.0160473,1.73036,-0.250097,-0.0675451,-1.53874,-0.00655163,-0.0171996,1.77161,-0.256606,-0.0689186,-0.000533338,-0.0350858,-0.0455428,0.2,0.2,0,1.28,0,0,0,0.2,-0.2,0,1.28,0,0,0
gen_000042_tz+0.01_tx+0.03_ty-0.02_p-0.05_fx-0.03_fy+0.00,-0.223125,0.4715451,0.466608,0.996989,0.0255667,0.0731205,0.00356223,-1.57052,-0.00380952,-0.016107,1.84996,-0.425748,-0.0677041,-1.60414,-0.00443107,-0.0173524,1.89183,-0.43397,-0.0690886,-0.00377988,-0.0353503,-0.168117,0.2,0.2,0,1.28,0,0,0,0.2,-0.2,0,1.28,0,0,0,-1.57052,-0.00380952,-0.016107,1.84996,-0.425748,-0.0677041,-1.60414,-0.00443107,-0.0173524,1.89183,-0.43397,-0.0690886,-0.00377988,-0.0353503,-0.168117,0.2,0.2,0,1.28,0,0,0,0.2,-0.2,0,1.28,0,0,0
gen_000043_tz+0.01_tx+0.03_ty-0.02_p-0.05_fx-0.02_fy+0.00,-0.222292,0.4715514,0.466553,0.997618,0.0255786,0.0639657,0.00341446,-1.56214,-0.00414582,-0.0160641,1.83507,-0.40088,-0.0676784,-1.59599,-0.00478312,-0.0172954,1.87683,-0.408781,-0.0690621,-0.00330157,-0.0353629,-0.149768,0.2,0.2,0,1.28,0,0,0,0.2,-0.2,0,1.28,0,0,0,-1.56214,-0.00414582,-0.0160641,1.83507,-0.40088,-0.0676784,-1.59599,-0.00478312,-0.0172954,1.87683,-0.408781,-0.0690621,-0.00330157,-0.0353629,-0.149768,0.2,0.2,0,1.28,0,0,0,0.2,-0.2,0,1.28,0,0,0
gen_000044_tz+0.01_tx+0.03_ty-0.02_p-0.05_fx-0.01_fy+0.00,-0.22147,0.4715566,0.466512,0.998156,0.0255836,0.0549483,0.00326786,-1.5534,-0.00446732,-0.016032,1.81943,-0.375928,-0.0676536,-1.58744,-0.00511939,-0.0172494,1.8611,-0.383534,-0.0690362,-0.00282835,-0.0353576,-0.131705,0.2,0.2,0,1.28,0,0,0,0.2,-0.2,0,1.28,0,0,0,-1.5534,-0.00446732,-0.016032,1.81943,-0.375928,-0.0676536,-1.58744,-0.00511939,-0.0172494,1.8611,-0.383534,-0.0690362,-0.00282835,-0.0353576,-0.131705,0.2,0.2,0,1.28,0,0,0,0.2,-0.2,0,1.28,0,0,0
gen_000045_tz+0.01_tx+0.03_ty-0.02_p-0.05_fx+0.00_fy+0.00,-0.220659,0.4715608,0.466486,0.998606,0.0255821,0.0460686,0.00312216,-1.5443,-0.00477347,-0.0160108,1.80307,-0.350898,-0.0676296,-1.57851,-0.00543935,-0.0172145,1.84464,-0.358234,-0.0690108,-0.00236007,-0.0353355,-0.113927,0.2,0.2,0,1.28,0,0,0,0.2,-0.2,0,1.28,0,0,0,-1.5443,-0.00477347,-0.0160108,1.80307,-0.350898,-0.0676296,-1.57851,-0.00543935,-0.0172145,1.84464,-0.358234,-0.0690108,-0.00236007,-0.0353355,-0.113927,0.2,0.2,0,1.28,0,0,0,0.2,-0.2,0,1.28,0,0,0
gen_000046_tz+0.01_tx+0.03_ty-0.02_p-0.05_fx+0.01_fy+0.00,-0.219859,0.471564,0.466473,0.998971,0.0255739,0.0373241,0.00297727,-1.53481,-0.00506431,-0.0160019,1.78598,-0.325795,-0.0676068,-1.56918,-0.0057431,-0.0171921,1.82746,-0.332888,-0.0689864,-0.00189677,-0.0352962,-0.0964278,0.2,0.2,0,1.28,0,0,0,0.2,-0.2,0,1.28,0,0,0,-1.53481,-0.00506431,-0.0160019,1.78598,-0.325795,-0.0676068,-1.56918,-0.0057431,-0.0171921,1.82746,-0.332888,-0.0689864,-0.00189677,-0.0352962,-0.0964278,0.2,0.2,0,1.28,0,0,0,0.2,-0.2,0,1.28,0,0,0
gen_000047_tz+0.01_tx+0.03_ty-0.02_p-0.05_fx+0.02_fy+0.00,-0.219071,0.4715662,0.466473,0.999257,0.0255595,0.0287135,0.0028329,-1.52494,-0.00533929,-0.0160053,1.76816,-0.300625,-0.0675852,-1.55945,-0.00603015,-0.0171825,1.80956,-0.307499,-0.068963,-0.00143818,-0.0352407,-0.0792027,0.2,0.2,0,1.28,0,0,0,0.2,-0.2,0,1.28,0,0,0,-1.52494,-0.00533929,-0.0160053,1.76816,-0.300625,-0.0675852,-1.55945,-0.00603015,-0.0171825,1.80956,-0.307499,-0.068963,-0.00143818,-0.0352407,-0.0792027,0.2,0.2,0,1.28,0,0,0,0.2,-0.2,0,1.28,0,0,0
gen_000048_tz+0.01_tx+0.03_ty-0.02_p-0.05_fx+0.03_fy+0.00,-0.218294,0.47156750000000003,0.466485,0.999465,0.0255388,0.0202338,0.00268886,-1.51468,-0.00559814,-0.016022,1.74962,-0.275391,-0.0675651,-1.5493,-0.00630027,-0.0171865,1.79094,-0.282071,-0.0689408,-0.000984098,-0.0351691,-0.0622444,0.2,0.2,0,1.28,0,0,0,0.2,-0.2,0,1.28,0,0,0,-1.51468,-0.00559814,-0.016022,1.74962,-0.275391,-0.0675651,-1.5493,-0.00630027,-0.0171865,1.79094,-0.282071,-0.0689408,-0.000984098,-0.0351691,-0.0622444,0.2,0.2,0,1.28,0,0,0,0.2,-0.2,0,1.28,0,0,0
gen_000049_tz+0.01_tx-0.03_ty-0.01_p-0.05_fx-0.03_fy+0.00,-0.278277,0.480773,0.466453,0.999656,0.0167033,0.020046,0.00250011,-1.52187,-0.00538372,-0.0121743,1.75826,-0.276423,-0.0460743,-1.54429,-0.00571666,-0.0126518,1.7862,-0.281934,-0.0466785,-0.000252363,-0.0175206,-0.0618878,0.2,0.2,0,1.28,0,0,0,0.2,-0.2,0,1.28,0,0,0,-1.52187,-0.00538372,-0.0121743,1.75826,-0.276423,-0.0460743,-1.54429,-0.00571666,-0.0126518,1.7862,-0.281934,-0.0466785,-0.000252363,-0.0175206,-0.0618878,0.2,0.2,0,1.28,0,0,0,0.2,-0.2,0,1.28,0,0,0
gen_000050_tz+0.01_tx-0.03_ty-0.01_p-0.05_fx-0.02_fy+0.00,-0.277511,0.4807736,0.466477,0.99979,0.0166864,0.0116956,0.00239355,-1.51123,-0.0055291,-0.0121926,1.73898,-0.251095,-0.0460583,-1.53373,-0.00586694,-0.0126647,1.76688,-0.256471,-0.0466612,-2.51024e-05,-0.0174472,-0.0452001,0.2,0.2,0,1.28,0,0,0,0.2,-0.2,0,1.28,0,0,0,-1.51123,-0.0055291,-0.0121926,1.73898,-0.251095,-0.0460583,-1.53373,-0.00586694,-0.0126647,1.76688,-0.256471,-0.0466612,-2.51024e-05,-0.0174472,-0.0452001,0.2,0.2,0,1.28,0,0,0,0.2,-0.2,0,1.28,0,0,0
gen_000051_tz+0.01_tx-0.03_ty-0.01_p-0.05_fx-0.01_fy+0.00,-0.276754,0.4807742,0.466512,0.999852,0.0166737,0.00345898,0.00228574,-1.50014,-0.00565807,-0.0121997,1.71899,-0.225723,-0.0460378,-1.52273,-0.00600014,-0.0126669,1.74685,-0.230979,-0.0466396,0.000202872,-0.0173812,-0.0287419,0.2,0.2,0,1.28,0,0,0,0.2,-0.2,0,1.28,0,0,0,-1.50014,-0.00565807,-0.0121997,1.71899,-0.225723,-0.0460378,-1.52273,-0.00600014,-0.0126669,1.74685,-0.230979,-0.0466396,0.000202872,-0.0173812,-0.0287419,0.2,0.2,0,1.28,0,0,0,0.2,-0.2,0,1.28,0,0,0
gen_000052_tz+0.01_tx-0.03_ty-0.01_p-0.05_fx+0.00_fy+0.00,-0.276007,0.4807742,0.466558,0.999848,0.0166562,-0.00467255,0.0021782,-1.4886,-0.00577639,-0.0122197,1.69829,-0.20031,-0.0460192,-1.51127,-0.00612241,-0.0126822,1.72613,-0.205462,-0.0466197,0.000428709,-0.0173046,-0.012495,0.2,0.2,0,1.28,0,0,0,0.2,-0.2,0,1.28,0,0,0,-1.4886,-0.00577639,-0.0122197,1.69829,-0.20031,-0.0460192,-1.51127,-0.00612241,-0.0126822,1.72613,-0.205462,-0.0466197,0.000428709,-0.0173046,-0.012495,0.2,0.2,0,1.28,0,0,0,0.2,-0.2,0,1.28,0,0,0
gen_000053_tz+0.01_tx-0.03_ty-0.01_p-0.05_fx+0.01_fy+0.00,-0.275269,0.4807735,0.466613,0.999779,0.016634,-0.0126995,0.00207079,-1.4766,-0.00588371,-0.0122525,1.67687,-0.17485,-0.0460024,-1.49934,-0.00623344,-0.0127105,1.70469,-0.179916,-0.0466015,0.000652496,-0.0172178,0.00354268,0.2,0.2,0,1.28,0,0,0,0.2,-0.2,0,1.28,0,0,0,-1.4766,-0.00588371,-0.0122525,1.67687,-0.17485,-0.0460024,-1.49934,-0.00623344,-0.0127105,1.70469,-0.179916,-0.0466015,0.000652496,-0.0172178,0.00354268,0.2,0.2,0,1.28,0,0,0,0.2,-0.2,0,1.28,0,0,0
gen_000054_tz+0.01_tx-0.03_ty-0.01_p-0.05_fx+0.02_fy+0.00,-0.274539,0.4807724,0.466678,0.999647,0.0166086,-0.0206317,0.00196288,-1.46412,-0.00597864,-0.0122948,1.65474,-0.149346,-0.0459866,-1.48692,-0.00633178,-0.0127486,1.68256,-0.154342,-0.0465843,0.00087539,-0.0171236,0.019392,0.2,0.2,0,1.28,0,0,0,0.2,-0.2,0,1.28,0,0,0,-1.46412,-0.00597864,-0.0122948,1.65474,-0.149346,-0.0459866,-1.48692,-0.00633178,-0.0127486,1.68256,-0.154342,-0.0465843,0.00087539,-0.0171236,0.019392,0.2,0.2,0,1.28,0,0,0,0.2,-0.2,0,1.28,0,0,0
gen_000055_tz+0.01_tx-0.03_ty-0.01_p-0.05_fx+0.03_fy+0.00,-0.273817,0.4807707,0.466753,0.999455,0.0165799,-0.0284771,0.00185421,-1.45114,-0.00606079,-0.0123472,1.6319,-0.123796,-0.0459719,-1.47399,-0.00641709,-0.0127972,1.65971,-0.128739,-0.0465682,0.00109784,-0.0170218,0.0350693,0.2,0.2,0,1.28,0,0,0,0.2,-0.2,0,1.28,0,0,0,-1.45114,-0.00606079,-0.0123472,1.6319,-0.123796,-0.0459719,-1.47399,-0.00641709,-0.0127972,1.65971,-0.128739,-0.0465682,0.00109784,-0.0170218,0.0350693,0.2,0.2,0,1.28,0,0,0,0.2,-0.2,0,1.28,0,0,0
gen_000056_tz+0.01_tx-0.02_ty-0.01_p-0.05_fx-0.03_fy+0.00,-0.269054,0.480772,0.466441,0.99945,0.0167178,0.02853,0.00260705,-1.53212,-0.00522639,-0.0121614,1.77682,-0.301688,-0.0460904,-1.55444,-0.00555403,-0.0126445,1.80481,-0.307351,-0.0466956,-0.000482142,-0.0175884,-0.0788461,0.2,0.2,0,1.28,0,0,0,0.2,-0.2,0,1.28,0,0,0,-1.53212,-0.00522639,-0.0121614,1.77682,-0.301688,-0.0460904,-1.55444,-0.00555403,-0.0126445,1.80481,-0.307351,-0.0466956,-0.000482142,-0.0175884,-0.0788461,0.2,0.2,0,1.28,0,0,0,0.2,-0.2,0,1.28,0,0,0
gen_000057_tz+0.01_tx-0.02_ty-0.01_p-0.05_fx-0.02_fy+0.00,-0.268277,0.480773,0.466453,0.999656,0.0167034,0.0200464,0.0025001,-1.52187,-0.00538367,-0.0121741,1.75826,-0.276422,-0.0460743,-1.54429,-0.00571661,-0.0126516,1.7862,-0.281933,-0.0466784,-0.000252354,-0.0175207,-0.0618885,0.2,0.2,0,1.28,0,0,0,0.2,-0.2,0,1.28,0,0,0,-1.52187,-0.00538367,-0.0121741,1.75826,-0.276422,-0.0460743,-1.54429,-0.00571661,-0.0126516,1.7862,-0.281933,-0.0466784,-0.000252354,-0.0175207,-0.0618885,0.2,0.2,0,1.28,0,0,0,0.2,-0.2,0,1.28,0,0,0
gen_000058_tz+0.01_tx-0.02_ty-0.01_p-0.05_fx-0.01_fy+0.00,-0.267511,0.4807736,0.466477,0.999789,0.0166866,0.011696,0.00239354,-1.51123,-0.00552903,-0.0121922,1.73898,-0.251095,-0.0460582,-1.53373,-0.00586686,-0.0126644,1.76688,-0.25647,-0.0466611,-2.50845e-05,-0.0174474,-0.0452008,0.2,0.2,0,1.28,0,0,0,0.2,-0.2,0,1.28,0,0,0,-1.51123,-0.00552903,-0.0121922,1.73898,-0.251095,-0.0460582,-1.53373,-0.00586686,-0.0126644,1.76688,-0.25647,-0.0466611,-2.50845e-05,-0.0174474,-0.0452008,0.2,0.2,0,1.28,0,0,0,0.2,-0.2,0,1.28,0,0,0
gen_000059_tz+0.01_tx-0.02_ty-0.01_p-0.05_fx+0.00_fy+0.00,-0.266754,0.4807742,0.466512,0.999852,0.0166743,0.00345825,0.00228562,-1.50014,-0.00565769,-0.0121983,1.71899,-0.225724,-0.0460375,-1.52273,-0.00599974,-0.0126655,1.74686,-0.230979,-0.0466392,0.00020312,-0.0173823,-0.0287404,0.2,0.2,0,1.28,0,0,0,0.2,-0.2,0,1.28,0,0,0,-1.50014,-0.00565769,-0.0121983,1.71899,-0.225724,-0.0460375,-1.52273,-0.00599974,-0.0126655,1.74686,-0.230979,-0.0466392,0.00020312,-0.0173823,-0.0287404,0.2,0.2,0,1.28,0,0,0,0.2,-0.2,0,1.28,0,0,0
gen_000060_tz+0.01_tx-0.02_ty-0.01_p-0.05_fx+0.01_fy+0.00,-0.266007,0.4807742,0.466558,0.999848,0.0166562,-0.00467246,0.0021782,-1.4886,-0.00577638,-0.0122197,1.69829,-0.20031,-0.0460192,-1.51127,-0.0061224,-0.0126821,1.72613,-0.205462,-0.0466197,0.000428712,-0.0173046,-0.0124952,0.2,0.2,0,1.28,0,0,0,0.2,-0.2,0,1.28,0,0,0,-1.4886,-0.00577638,-0.0122197,1.69829,-0.20031,-0.0460192,-1.51127,-0.0061224,-0.0126821,1.72613,-0.205462,-0.0466197,0.000428712,-0.0173046,-0.0124952,0.2,0.2,0,1.28,0,0,0,0.2,-0.2,0,1.28,0,0,0
gen_000061_tz+0.01_tx-0.02_ty-0.01_p-0.05_fx+0.02_fy+0.00,-0.265269,0.4807735,0.466613,0.999779,0.016634,-0.0126994,0.00207079,-1.4766,-0.00588371,-0.0122525,1.67687,-0.17485,-0.0460024,-1.49934,-0.00623344,-0.0127105,1.70469,-0.179916,-0.0466016,0.000652495,-0.0172178,0.00354247,0.2,0.2,0,1.28,0,0,0,0.2,-0.2,0,1.28,0,0,0,-1.4766,-0.00588371,-0.0122525,1.67687,-0.17485,-0.0460024,-1.49934,-0.00623344,-0.0127105,1.70469,-0.179916,-0.0466016,0.000652495,-0.0172178,0.00354247,0.2,0.2,0,1.28,0,0,0,0.2,-0.2,0,1.28,0,0,0
gen_000062_tz+0.01_tx-0.02_ty-0.01_p-0.05_fx+0.03_fy+0.00,-0.264539,0.4807724,0.466678,0.999647,0.0166086,-0.0206316,0.00196288,-1.46412,-0.00597864,-0.0122948,1.65474,-0.149346,-0.0459866,-1.48692,-0.00633178,-0.0127486,1.68256,-0.154342,-0.0465843,0.000875388,-0.0171236,0.0193918,0.2,0.2,0,1.28,0,0,0,0.2,-0.2,0,1.28,0,0,0,-1.46412,-0.00597864,-0.0122948,1.65474,-0.149346,-0.0459866,-1.48692,-0.00633178,-0.0127486,1.68256,-0.154342,-0.0465843,0.000875388,-0.0171236,0.0193918,0.2,0.2,0,1.28,0,0,0,0.2,-0.2,0,1.28,0,0,0
gen_000063_tz+0.01_tx-0.01_ty-0.01_p-0.05_fx-0.03_fy+0.00,-0.259843,0.4807703,0.466441,0.999166,0.0167275,0.0371462,0.00271498,-1.54198,-0.00505902,-0.0121597,1.79465,-0.326892,-0.0461078,-1.56419,-0.00538101,-0.0126485,1.8227,-0.332725,-0.046714,-0.000715401,-0.0176458,-0.0960737,0.2,0.2,0,1.28,0,0,0,0.2,-0.2,0,1.28,0,0,0,-1.54198,-0.00505902,-0.0121597,1.79465,-0.326892,-0.0461078,-1.56419,-0.00538101,-0.0126485,1.8227,-0.332725,-0.046714,-0.000715401,-0.0176458,-0.0960737,0.2,0.2,0,1.28,0,0,0,0.2,-0.2,0,1.28,0,0,0
gen_000064_tz+0.01_tx-0.01_ty-0.01_p-0.05_fx-0.02_fy+0.00,-0.259054,0.480772,0.466441,0.99945,0.0167178,0.0285303,0.00260704,-1.53213,-0.00522635,-0.0121613,1.77682,-0.301687,-0.0460903,-1.55444,-0.00555399,-0.0126443,1.80481,-0.30735,-0.0466956,-0.000482133,-0.0175885,-0.0788467,0.2,0.2,0,1.28,0,0,0,0.2,-0.2,0,1.28,0,0,0,-1.53213,-0.00522635,-0.0121613,1.77682,-0.301687,-0.0460903,-1.55444,-0.00555399,-0.0126443,1.80481,-0.30735,-0.0466956,-0.000482133,-0.0175885,-0.0788467,0.2,0.2,0,1.28,0,0,0,0.2,-0.2,0,1.28,0,0,0
gen_000065_tz+0.01_tx-0.01_ty-0.01_p-0.05_fx-0.01_fy+0.00,-0.258277,0.480773,0.466453,0.999656,0.0167028,0.0200461,0.00250022,-1.52187,-0.00538408,-0.0121756,1.75826,-0.276423,-0.0460747,-1.54429,-0.00571704,-0.012653,1.7862,-0.281934,-0.0466788,-0.000252571,-0.0175196,-0.061888,0.2,0.2,0,1.28,0,0,0,0.2,-0.2,0,1.28,0,0,0,-1.52187,-0.00538408,-0.0121756,1.75826,-0.276423,-0.0460747,-1.54429,-0.00571704,-0.012653,1.7862,-0.281934,-0.0466788,-0.000252571,-0.0175196,-0.061888,0.2,0.2,0,1.28,0,0,0,0.2,-0.2,0,1.28,0,0,0
gen_000066_tz+0.01_tx-0.01_ty-0.01_p-0.05_fx+0.00_fy+0.00,-0.257511,0.4807736,0.466477,0.999789,0.0166867,0.0116963,0.00239353,-1.51123,-0.00552897,-0.0121919,1.73898,-0.251095,-0.0460581,-1.53373,-0.0058668,-0.0126641,1.76688,-0.25647,-0.0466611,-2.50667e-05,-0.0174476,-0.0452015,0.2,0.2,0,1.28,0,0,0,0.2,-0.2,0,1.28,0,0,0,-1.51123,-0.00552897,-0.0121919,1.73898,-0.251095,-0.0460581,-1.53373,-0.0058668,-0.0126641,1.76688,-0.25647,-0.0466611,-2.50667e-05,-0.0174476,-0.0452015,0.2,0.2,0,1.28,0,0,0,0.2,-0.2,0,1.28,0,0,0
gen_000067_tz+0.01_tx-0.01_ty-0.01_p-0.05_fx+0.01_fy+0.00,-0.256754,0.4807742,0.466512,0.999852,0.0166743,0.00345844,0.00228562,-1.50014,-0.00565768,-0.0121983,1.71899,-0.225724,-0.0460375,-1.52273,-0.00599973,-0.0126655,1.74685,-0.230979,-0.0466392,0.000203121,-0.0173823,-0.0287408,0.2,0.2,0,1.28,0,0,0,0.2,-0.2,0,1.28,0,0,0,-1.50014,-0.00565768,-0.0121983,1.71899,-0.225724,-0.0460375,-1.52273,-0.00599973,-0.0126655,1.74685,-0.230979,-0.0466392,0.000203121,-0.0173823,-0.0287408,0.2,0.2,0,1.28,0,0,0,0.2,-0.2,0,1.28,0,0,0
gen_000068_tz+0.01_tx-0.01_ty-0.01_p-0.05_fx+0.02_fy+0.00,-0.256007,0.4807742,0.466558,0.999848,0.0166562,-0.00467229,0.0021782,-1.4886,-0.00577638,-0.0122197,1.69829,-0.20031,-0.0460192,-1.51127,-0.00612241,-0.0126822,1.72613,-0.205462,-0.0466197,0.000428707,-0.0173046,-0.0124955,0.2,0.2,0,1.28,0,0,0,0.2,-0.2,0,1.28,0,0,0,-1.4886,-0.00577638,-0.0122197,1.69829,-0.20031,-0.0460192,-1.51127,-0.00612241,-0.0126822,1.72613,-0.205462,-0.0466197,0.000428707,-0.0173046,-0.0124955,0.2,0.2,0,1.28,0,0,0,0.2,-0.2,0,1.28,0,0,0
gen_000069_tz+0.01_tx-0.01_ty-0.01_p-0.05_fx+0.03_fy+0.00,-0.255269,0.4807735,0.466613,0.999779,0.0166342,-0.0127002,0.00207072,-1.4766,-0.00588355,-0.012252,1.67687,-0.174851,-0.0460023,-1.49934,-0.00623327,-0.01271,1.70469,-0.179917,-0.0466014,0.000652633,-0.0172182,0.00354412,0.2,0.2,0,1.28,0,0,0,0.2,-0.2,0,1.28,0,0,0,-1.4766,-0.00588355,-0.012252,1.67687,-0.174851,-0.0460023,-1.49934,-0.00623327,-0.01271,1.70469,-0.179917,-0.0466014,0.000652633,-0.0172182,0.00354412,0.2,0.2,0,1.28,0,0,0,0.2,-0.2,0,1.28,0,0,0
gen_000070_tz+0.01_tx+0.00_ty-0.01_p-0.05_fx-0.03_fy+0.00,-0.250642,0.480768,0.466454,0.998802,0.0167329,0.0458953,0.00282392,-1.55146,-0.00488147,-0.0121671,1.81176,-0.352034,-0.046126,-1.57354,-0.00519741,-0.0126617,1.83987,-0.358055,-0.0467332,-0.000952081,-0.0176937,-0.113573,0.2,0.2,0,1.28,0,0,0,0.2,-0.2,0,1.28,0,0,0,-1.55146,-0.00488147,-0.0121671,1.81176,-0.352034,-0.046126,-1.57354,-0.00519741,-0.0126617,1.83987,-0.358055,-0.0467332,-0.000952081,-0.0176937,-0.113573,0.2,0.2,0,1.28,0,0,0,0.2,-0.2,0,1.28,0,0,0
gen_000071_tz+0.01_tx+0.00_ty-0.01_p-0.05_fx-0.02_fy+0.00,-0.249843,0.4807703,0.466441,0.999166,0.0167275,0.0371464,0.00271497,-1.54199,-0.00505899,-0.0121596,1.79465,-0.326892,-0.0461078,-1.56419,-0.00538098,-0.0126484,1.8227,-0.332725,-0.046714,-0.000715394,-0.0176458,-0.0960742,0.2,0.2,0,1.28,0,0,0,0.2,-0.2,0,1.28,0,0,0,-1.54199,-0.00505899,-0.0121596,1.79465,-0.326892,-0.0461078,-1.56419,-0.00538098,-0.0126484,1.8227,-0.332725,-0.046714,-0.000715394,-0.0176458,-0.0960742,0.2,0.2,0,1.28,0,0,0,0.2,-0.2,0,1.28,0,0,0
gen_000072_tz+0.01_tx+0.00_ty-0.01_p-0.05_fx-0.01_fy+0.00,-0.249054,0.480772,0.466441,0.99945,0.0167179,0.0285306,0.00260703,-1.53213,-0.00522631,-0.0121612,1.77682,-0.301687,-0.0460903,-1.55444,-0.00555395,-0.0126442,1.80481,-0.30735,-0.0466955,-0.000482121,-0.0175886,-0.0788473,0.2,0.2,0,1.28,0,0,0,0.2,-0.2,0,1.28,0,0,0,-1.53213,-0.00522631,-0.0121612,1.77682,-0.301687,-0.0460903,-1.55444,-0.00555395,-0.0126442,1.80481,-0.30735,-0.0466955,-0.000482121,-0.0175886,-0.0788473,0.2,0.2,0,1.28,0,0,0,0.2,-0.2,0,1.28,0,0,0
gen_000073_tz+0.01_tx+0.00_ty-0.01_p-0.05_fx+0.00_fy+0.00,-0.248277,0.480773,0.466453,0.999656,0.0167029,0.0200464,0.00250021,-1.52187,-0.00538403,-0.0121754,1.75826,-0.276422,-0.0460746,-1.54429,-0.005717,-0.0126529,1.7862,-0.281933,-0.0466788,-0.000252561,-0.0175197,-0.0618887,0.2,0.2,0,1.28,0,0,0,0.2,-0.2,0,1.28,0,0,0,-1.52187,-0.00538403,-0.0121754,1.75826,-0.276422,-0.0460746,-1.54429,-0.005717,-0.0126529,1.7862,-0.281933,-0.0466788,-0.000252561,-0.0175197,-0.0618887,0.2,0.2,0,1.28,0,0,0,0.2,-0.2,0,1.28,0,0,0
gen_000074_tz+0.01_tx+0.00_ty-0.01_p-0.05_fx+0.01_fy+0.00,-0.247511,0.4807736,0.466477,0.999789,0.0166866,0.0116967,0.00239354,-1.51123,-0.00552898,-0.012192,1.73898,-0.251094,-0.0460581,-1.53374,-0.00586681,-0.0126642,1.76688,-0.25647,-0.0466611,-2.50783e-05,-0.0174476,-0.0452023,0.2,0.2,0,1.28,0,0,0,0.2,-0.2,0,1.28,0,0,0,-1.51123,-0.00552898,-0.012192,1.73898,-0.251094,-0.0460581,-1.53374,-0.00586681,-0.0126642,1.76688,-0.25647,-0.0466611,-2.50783e-05,-0.0174476,-0.0452023,0.2,0.2,0,1.28,0,0,0,0.2,-0.2,0,1.28,0,0,0
gen_000075_tz+0.01_tx+0.00_ty-0.01_p-0.05_fx+0.02_fy+0.00,-0.246754,0.4807742,0.466512,0.999852,0.0166742,0.00345873,0.00228562,-1.50014,-0.0056577,-0.0121984,1.71899,-0.225724,-0.0460375,-1.52273,-0.00599975,-0.0126656,1.74685,-0.230979,-0.0466393,0.000203107,-0.0173822,-0.0287414,0.2,0.2,0,1.28,0,0,0,0.2,-0.2,0,1.28,0,0,0,-1.50014,-0.0056577,-0.0121984,1.71899,-0.225724,-0.0460375,-1.52273,-0.00599975,-0.0126656,1.74685,-0.230979,-0.0466393,0.000203107,-0.0173822,-0.0287414,0.2,0.2,0,1.28,0,0,0,0.2,-0.2,0,1.28,0,0,0
gen_000076_tz+0.01_tx+0.00_ty-0.01_p-0.05_fx+0.03_fy+0.00,-0.246007,0.4807742,0.466558,0.999848,0.0166561,-0.00467207,0.0021782,-1.4886,-0.00577639,-0.0122198,1.69829,-0.200309,-0.0460192,-1.51127,-0.00612242,-0.0126823,1.72613,-0.205462,-0.0466197,0.000428699,-0.0173045,-0.012496,0.2,0.2,0,1.28,0,0,0,0.2,-0.2,0,1.28,0,0,0,-1.4886,-0.00577639,-0.0122198,1.69829,-0.200309,-0.0460192,-1.51127,-0.00612242,-0.0126823,1.72613,-0.205462,-0.0466197,0.000428699,-0.0173045,-0.012496,0.2,0.2,0,1.28,0,0,0,0.2,-0.2,0,1.28,0,0,0
gen_000077_tz+0.01_tx+0.01_ty-0.01_p-0.05_fx-0.03_fy+0.00,-0.241454,0.480765,0.46648,0.998354,0.0167348,0.0547812,0.00293387,-1.56055,-0.00469339,-0.0121812,1.82814,-0.377108,-0.0461446,-1.58249,-0.00500284,-0.0126819,1.85632,-0.383335,-0.0467526,-0.00119208,-0.0177334,-0.131355,0.2,0.2,0,1.28,0,0,0,0.2,-0.2,0,1.28,0,0,0,-1.56055,-0.00469339,-0.0121812,1.82814,-0.377108,-0.0461446,-1.58249,-0.00500284,-0.0126819,1.85632,-0.383335,-0.0467526,-0.00119208,-0.0177334,-0.131355,0.2,0.2,0,1.28,0,0,0,0.2,-0.2,0,1.28,0,0,0
gen_000078_tz+0.01_tx+0.01_ty-0.01_p-0.05_fx-0.02_fy+0.00,-0.240642,0.480768,0.466454,0.998802,0.0167329,0.0458955,0.00282392,-1.55146,-0.00488145,-0.012167,1.81176,-0.352034,-0.046126,-1.57354,-0.00519739,-0.0126617,1.83987,-0.358055,-0.0467332,-0.000952077,-0.0176937,-0.113574,0.2,0.2,0,1.28,0,0,0,0.2,-0.2,0,1.28,0,0,0,-1.55146,-0.00488145,-0.012167,1.81176,-0.352034,-0.046126,-1.57354,-0.00519739,-0.0126617,1.83987,-0.358055,-0.0467332,-0.000952077,-0.0176937,-0.113574,0.2,0.2,0,1.28,0,0,0,0.2,-0.2,0,1.28,0,0,0
gen_000079_tz+0.01_tx+0.01_ty-0.01_p-0.05_fx-0.01_fy+0.00,-0.239843,0.4807703,0.466441,0.999166,0.0167275,0.0371467,0.00271497,-1.54199,-0.00505897,-0.0121596,1.79465,-0.326891,-0.0461077,-1.56419,-0.00538096,-0.0126483,1.8227,-0.332725,-0.046714,-0.000715388,-0.0176459,-0.0960746,0.2,0.2,0,1.28,0,0,0,0.2,-0.2,0,1.28,0,0,0,-1.54199,-0.00505897,-0.0121596,1.79465,-0.326891,-0.0461077,-1.56419,-0.00538096,-0.0126483,1.8227,-0.332725,-0.046714,-0.000715388,-0.0176459,-0.0960746,0.2,0.2,0,1.28,0,0,0,0.2,-0.2,0,1.28,0,0,0
gen_000080_tz+0.01_tx+0.01_ty-0.01_p-0.05_fx+0.00_fy+0.00,-0.239054,0.480772,0.466441,0.99945,0.0167179,0.0285308,0.00260703,-1.53213,-0.0052263,-0.0121611,1.77682,-0.301687,-0.0460903,-1.55444,-0.00555394,-0.0126442,1.80481,-0.30735,-0.0466955,-0.000482119,-0.0175886,-0.0788477,0.2,0.2,0,1.28,0,0,0,0.2,-0.2,0,1.28,0,0,0,-1.53213,-0.0052263,-0.0121611,1.77682,-0.301687,-0.0460903,-1.55444,-0.00555394,-0.0126442,1.80481,-0.30735,-0.0466955,-0.000482119,-0.0175886,-0.0788477,0.2,0.2,0,1.28,0,0,0,0.2,-0.2,0,1.28,0,0,0
gen_000081_tz+0.01_tx+0.01_ty-0.01_p-0.05_fx+0.01_fy+0.00,-0.238277,0.480773,0.466453,0.999656,0.0167028,0.0200467,0.00250022,-1.52187,-0.00538406,-0.0121756,1.75826,-0.276422,-0.0460747,-1.54429,-0.00571703,-0.012653,1.7862,-0.281933,-0.0466788,-0.00025258,-0.0175196,-0.0618892,0.2,0.2,0,1.28,0,0,0,0.2,-0.2,0,1.28,0,0,0,-1.52187,-0.00538406,-0.0121756,1.75826,-0.276422,-0.0460747,-1.54429,-0.00571703,-0.012653,1.7862,-0.281933,-0.0466788,-0.00025258,-0.0175196,-0.0618892,0.2,0.2,0,1.28,0,0,0,0.2,-0.2,0,1.28,0,0,0
gen_000082_tz+0.01_tx+0.01_ty-0.01_p-0.05_fx+0.02_fy+0.00,-0.237511,0.4807736,0.466477,0.999789,0.0166865,0.0116972,0.00239355,-1.51123,-0.00552903,-0.0121923,1.73898,-0.251094,-0.0460582,-1.53374,-0.00586687,-0.0126645,1.76688,-0.256469,-0.0466612,-2.51116e-05,-0.0174473,-0.0452032,0.2,0.2,0,1.28,0,0,0,0.2,-0.2,0,1.28,0,0,0,-1.51123,-0.00552903,-0.0121923,1.73898,-0.251094,-0.0460582,-1.53374,-0.00586687,-0.0126645,1.76688,-0.256469,-0.0466612,-2.51116e-05,-0.0174473,-0.0452032,0.2,0.2,0,1.28,0,0,0,0.2,-0.2,0,1.28,0,0,0
gen_000083_tz+0.01_tx+0.01_ty-0.01_p-0.05_fx+0.03_fy+0.00,-0.236754,0.4807742,0.466512,0.999852,0.0166742,0.00345905,0.00228563,-1.50014,-0.00565772,-0.0121986,1.71899,-0.225723,-0.0460375,-1.52274,-0.00599977,-0.0126657,1.74685,-0.230979,-0.0466393,0.000203091,-0.0173821,-0.028742,0.2,0.2,0,1.28,0,0,0,0.2,-0.2,0,1.28,0,0,0,-1.50014,-0.00565772,-0.0121986,1.71899,-0.225723,-0.0460375,-1.52274,-0.00599977,-0.0126657,1.74685,-0.230979,-0.0466393,0.000203091,-0.0173821,-0.028742,0.2,0.2,0,1.28,0,0,0,0.2,-0.2,0,1.28,0,0,0
gen_000084_tz+0.01_tx+0.02_ty-0.01_p-0.05_fx-0.03_fy+0.00,-0.232276,0.4807613,0.46652,0.997817,0.0167328,0.0638046,0.00304496,-1.56927,-0.0044951,-0.0122021,1.84379,-0.402109,-0.0461634,-1.59106,-0.00479759,-0.012709,1.87204,-0.40856,-0.0467722,-0.00143557,-0.0177645,-0.14942,0.2,0.2,0,1.28,0,0,0,0.2,-0.2,0,1.28,0,0,0,-1.56927,-0.0044951,-0.0122021,1.84379,-0.402109,-0.0461634,-1.59106,-0.00479759,-0.012709,1.87204,-0.40856,-0.0467722,-0.00143557,-0.0177645,-0.14942,0.2,0.2,0,1.28,0,0,0,0.2,-0.2,0,1.28,0,0,0
gen_000085_tz+0.01_tx+0.02_ty-0.01_p-0.05_fx-0.02_fy+0.00,-0.231454,0.480765,0.46648,0.998354,0.0167348,0.0547814,0.00293386,-1.56055,-0.00469338,-0.0121812,1.82814,-0.377108,-0.0461446,-1.58249,-0.00500283,-0.0126819,1.85632,-0.383335,-0.0467526,-0.00119208,-0.0177335,-0.131355,0.2,0.2,0,1.28,0,0,0,0.2,-0.2,0,1.28,0,0,0,-1.56055,-0.00469338,-0.0121812,1.82814,-0.377108,-0.0461446,-1.58249,-0.00500283,-0.0126819,1.85632,-0.383335,-0.0467526,-0.00119208,-0.0177335,-0.131355,0.2,0.2,0,1.28,0,0,0,0.2,-0.2,0,1.28,0,0,0
gen_000086_tz+0.01_tx+0.02_ty-0.01_p-0.05_fx-0.01_fy+0.00,-0.230642,0.480768,0.466454,0.998802,0.016733,0.0458956,0.00282392,-1.55146,-0.00488144,-0.012167,1.81176,-0.352034,-0.046126,-1.57354,-0.00519738,-0.0126617,1.83987,-0.358055,-0.0467332,-0.000952075,-0.0176938,-0.113574,0.2,0.2,0,1.28,0,0,0,0.2,-0.2,0,1.28,0,0,0,-1.55146,-0.00488144,-0.012167,1.81176,-0.352034,-0.046126,-1.57354,-0.00519738,-0.0126617,1.83987,-0.358055,-0.0467332,-0.000952075,-0.0176938,-0.113574,0.2,0.2,0,1.28,0,0,0,0.2,-0.2,0,1.28,0,0,0
gen_000087_tz+0.01_tx+0.02_ty-0.01_p-0.05_fx+0.00_fy+0.00,-0.229843,0.4807703,0.466441,0.999166,0.0167273,0.0371458,0.00271502,-1.54198,-0.00505917,-0.0121602,1.79465,-0.326892,-0.0461079,-1.56419,-0.00538117,-0.012649,1.8227,-0.332726,-0.0467142,-0.000715476,-0.0176454,-0.0960729,0.2,0.2,0,1.28,0,0,0,0.2,-0.2,0,1.28,0,0,0,-1.54198,-0.00505917,-0.0121602,1.79465,-0.326892,-0.0461079,-1.56419,-0.00538117,-0.012649,1.8227,-0.332726,-0.0467142,-0.000715476,-0.0176454,-0.0960729,0.2,0.2,0,1.28,0,0,0,0.2,-0.2,0,1.28,0,0,0
gen_000088_tz+0.01_tx+0.02_ty-0.01_p-0.05_fx+0.01_fy+0.00,-0.229054,0.480772,0.466441,0.99945,0.0167179,0.0285309,0.00260704,-1.53213,-0.00522633,-0.0121613,1.77682,-0.301687,-0.0460903,-1.55444,-0.00555397,-0.0126443,1.80481,-0.30735,-0.0466956,-0.000482134,-0.0175885,-0.0788479,0.2,0.2,0,1.28,0,0,0,0.2,-0.2,0,1.28,0,0,0,-1.53213,-0.00522633,-0.0121613,1.77682,-0.301687,-0.0460903,-1.55444,-0.00555397,-0.0126443,1.80481,-0.30735,-0.0466956,-0.000482134,-0.0175885,-0.0788479,0.2,0.2,0,1.28,0,0,0,0.2,-0.2,0,1.28,0,0,0
gen_000089_tz+0.01_tx+0.02_ty-0.01_p-0.05_fx+0.02_fy+0.00,-0.228277,0.480773,0.466453,0.999656,0.0167027,0.020047,0.00250024,-1.52188,-0.00538412,-0.0121758,1.75826,-0.276422,-0.0460747,-1.54429,-0.00571709,-0.0126533,1.7862,-0.281933,-0.0466789,-0.000252609,-0.0175194,-0.0618897,0.2,0.2,0,1.28,0,0,0,0.2,-0.2,0,1.28,0,0,0,-1.52188,-0.00538412,-0.0121758,1.75826,-0.276422,-0.0460747,-1.54429,-0.00571709,-0.0126533,1.7862,-0.281933,-0.0466789,-0.000252609,-0.0175194,-0.0618897,0.2,0.2,0,1.28,0,0,0,0.2,-0.2,0,1.28,0,0,0
gen_000090_tz+0.01_tx+0.02_ty-0.01_p-0.05_fx+0.03_fy+0.00,-0.227511,0.4807736,0.466477,0.999789,0.0166873,0.0116972,0.0023934,-1.51123,-0.00552851,-0.0121904,1.73898,-0.251094,-0.0460577,-1.53374,-0.00586632,-0.0126626,1.76688,-0.256469,-0.0466607,-2.48115e-05,-0.0174488,-0.0452033,0.2,0.2,0,1.28,0,0,0,0.2,-0.2,0,1.28,0,0,0,-1.51123,-0.00552851,-0.0121904,1.73898,-0.251094,-0.0460577,-1.53374,-0.00586632,-0.0126626,1.76688,-0.256469,-0.0466607,-2.48115e-05,-0.0174488,-0.0452033,0.2,0.2,0,1.28,0,0,0,0.2,-0.2,0,1.28,0,0,0
gen_000091_tz+0.01_tx+0.03_ty-0.01_p-0.05_fx-0.03_fy+0.00,-0.22311,0.480757,0.466575,0.997189,0.0167269,0.0729659,0.00315732,-1.57762,-0.00428675,-0.0122291,1.85871,-0.42703,-0.0461825,-1.59924,-0.00458181,-0.0127423,1.88703,-0.433723,-0.0467918,-0.00168259,-0.0177866,-0.167774,0.2,0.2,0,1.28,0,0,0,0.2,-0.2,0,1.28,0,0,0,-1.57762,-0.00428675,-0.0122291,1.85871,-0.42703,-0.0461825,-1.59924,-0.00458181,-0.0127423,1.88703,-0.433723,-0.0467918,-0.00168259,-0.0177866,-0.167774,0.2,0.2,0,1.28,0,0,0,0.2,-0.2,0,1.28,0,0,0
gen_000092_tz+0.01_tx+0.03_ty-0.01_p-0.05_fx-0.02_fy+0.00,-0.222276,0.4807613,0.46652,0.997817,0.0167328,0.0638047,0.00304496,-1.56927,-0.00449509,-0.012202,1.84379,-0.402109,-0.0461634,-1.59106,-0.00479759,-0.0127089,1.87204,-0.40856,-0.0467722,-0.00143557,-0.0177645,-0.149421,0.2,0.2,0,1.28,0,0,0,0.2,-0.2,0,1.28,0,0,0,-1.56927,-0.00449509,-0.012202,1.84379,-0.402109,-0.0461634,-1.59106,-0.00479759,-0.0127089,1.87204,-0.40856,-0.0467722,-0.00143557,-0.0177645,-0.149421,0.2,0.2,0,1.28,0,0,0,0.2,-0.2,0,1.28,0,0,0
gen_000093_tz+0.01_tx+0.03_ty-0.01_p-0.05_fx-0.01_fy+0.00,-0.221454,0.480765,0.46648,0.998354,0.0167346,0.0547805,0.00293389,-1.56055,-0.00469351,-0.0121815,1.82814,-0.377109,-0.0461447,-1.58249,-0.00500296,-0.0126823,1.85632,-0.383336,-0.0467527,-0.00119213,-0.0177332,-0.131353,0.2,0.2,0,1.28,0,0,0,0.2,-0.2,0,1.28,0,0,0,-1.56055,-0.00469351,-0.0121815,1.82814,-0.377109,-0.0461447,-1.58249,-0.00500296,-0.0126823,1.85632,-0.383336,-0.0467527,-0.00119213,-0.0177332,-0.131353,0.2,0.2,0,1.28,0,0,0,0.2,-0.2,0,1.28,0,0,0
gen_000094_tz+0.01_tx+0.03_ty-0.01_p-0.05_fx+0.00_fy+0.00,-0.220642,0.480768,0.466454,0.998802,0.0167329,0.0458957,0.00282392,-1.55146,-0.00488144,-0.012167,1.81176,-0.352034,-0.046126,-1.57354,-0.00519739,-0.0126617,1.83987,-0.358055,-0.0467332,-0.000952078,-0.0176937,-0.113574,0.2,0.2,0,1.28,0,0,0,0.2,-0.2,0,1.28,0,0,0,-1.55146,-0.00488144,-0.012167,1.81176,-0.352034,-0.046126,-1.57354,-0.00519739,-0.0126617,1.83987,-0.358055,-0.0467332,-0.000952078,-0.0176937,-0.113574,0.2,0.2,0,1.28,0,0,0,0.2,-0.2,0,1.28,0,0,0
gen_000095_tz+0.01_tx+0.03_ty-0.01_p-0.05_fx+0.01_fy+0.00,-0.219843,0.4807703,0.466441,0.999166,0.0167273,0.0371458,0.00271503,-1.54198,-0.00505919,-0.0121603,1.79465,-0.326892,-0.0461079,-1.56419,-0.00538119,-0.0126491,1.8227,-0.332726,-0.0467142,-0.000715486,-0.0176453,-0.0960729,0.2,0.2,0,1.28,0,0,0,0.2,-0.2,0,1.28,0,0,0,-1.54198,-0.00505919,-0.0121603,1.79465,-0.326892,-0.0461079,-1.56419,-0.00538119,-0.0126491,1.8227,-0.332726,-0.0467142,-0.000715486,-0.0176453,-0.0960729,0.2,0.2,0,1.28,0,0,0,0.2,-0.2,0,1.28,0,0,0
gen_000096_tz+0.01_tx+0.03_ty-0.01_p-0.05_fx+0.02_fy+0.00,-0.219054,0.480772,0.466441,0.99945,0.0167178,0.0285309,0.00260705,-1.53213,-0.00522636,-0.0121614,1.77682,-0.301687,-0.0460904,-1.55444,-0.005554,-0.0126444,1.80481,-0.30735,-0.0466956,-0.000482149,-0.0175884,-0.078848,0.2,0.2,0,1.28,0,0,0,0.2,-0.2,0,1.28,0,0,0,-1.53213,-0.00522636,-0.0121614,1.77682,-0.301687,-0.0460904,-1.55444,-0.005554,-0.0126444,1.80481,-0.30735,-0.0466956,-0.000482149,-0.0175884,-0.078848,0.2,0.2,0,1.28,0,0,0,0.2,-0.2,0,1.28,0,0,0
gen_000097_tz+0.01_tx+0.03_ty-0.01_p-0.05_fx+0.03_fy+0.00,-0.218277,0.480773,0.466453,0.999656,0.0167026,0.0200472,0.00250025,-1.52188,-0.00538416,-0.0121761,1.75826,-0.276421,-0.0460748,-1.54429,-0.00571713,-0.0126536,1.7862,-0.281932,-0.0466789,-0.000252628,-0.0175192,-0.0618903,0.2,0.2,0,1.28,0,0,0,0.2,-0.2,0,1.28,0,0,0,-1.52188,-0.00538416,-0.0121761,1.75826,-0.276421,-0.0460748,-1.54429,-0.00571713,-0.0126536,1.7862,-0.281932,-0.0466789,-0.000252628,-0.0175192,-0.0618903,0.2,0.2,0,1.28,0,0,0,0.2,-0.2,0,1.28,0,0,0
gen_000098_tz+0.01_tx-0.03_ty+0.00_p-0.05_fx-0.03_fy+0.00,-0.278265,0.4899768,0.466435,0.999768,0.00785192,0.0199337,0.00230923,-1.52866,-0.00508004,-0.00817877,1.76615,-0.277262,-0.0243978,-1.53882,-0.00517237,-0.00825547,1.78071,-0.281641,-0.0245269,0.000478638,0.000156962,-0.0616984,0.2,0.2,0,1.28,0,0,0,0.2,-0.2,0,1.28,0,0,0,-1.52866,-0.00508004,-0.00817877,1.76615,-0.277262,-0.0243978,-1.53882,-0.00517237,-0.00825547,1.78071,-0.281641,-0.0245269,0.000478638,0.000156962,-0.0616984,0.2,0.2,0,1.28,0,0,0,0.2,-0.2,0,1.28,0,0,0
gen_000099_tz+0.01_tx-0.03_ty+0.00_p-0.05_fx-0.02_fy+0.00,-0.277501,0.4899777,0.466459,0.999899,0.00784792,0.0115958,0.00223871,-1.51805,-0.00512335,-0.00817951,1.74685,-0.251898,-0.0243827,-1.5283,-0.005217,-0.00825501,1.76139,-0.256174,-0.0245115,0.00048617,0.000210598,-0.0450388,0.2,0.2,0,1.28,0,0,0,0.2,-0.2,0,1.28,0,0,0,-1.51805,-0.00512335,-0.00817951,1.74685,-0.251898,-0.0243827,-1.5283,-0.005217,-0.00825501,1.76139,-0.256174,-0.0245115,0.00048617,0.000210598,-0.0450388,0.2,0.2,0,1.28,0,0,0,0.2,-0.2,0,1.28,0,0,0
gen_000100_tz+0.01_tx-0.03_ty+0.00_p-0.05_fx-0.01_fy+0.00,-0.276744,0.4899782,0.466494,0.999961,0.00784159,0.0033509,0.00217129,-1.50696,-0.00516595,-0.00818653,1.72685,-0.226512,-0.0243681,-1.51728,-0.00526084,-0.00826084,1.74137,-0.230698,-0.0244966,0.000487837,0.000267445,-0.0285674,0.2,0.2,0,1.28,0,0,0,0.2,-0.2,0,1.28,0,0,0,-1.50696,-0.00516595,-0.00818653,1.72685,-0.226512,-0.0243681,-1.51728,-0.00526084,-0.00826084,1.74137,-0.230698,-0.0244966,0.000487837,0.000267445,-0.0285674,0.2,0.2,0,1.28,0,0,0,0.2,-0.2,0,1.28,0,0,0
gen_000101_tz+0.01_tx-0.03_ty+0.00_p-0.05_fx+0.00_fy+0.00,-0.275997,0.4899787,0.46654,0.999956,0.00783543,-0.00478194,0.00210349,-1.49542,-0.00520003,-0.0081945,1.70614,-0.201082,-0.0243528,-1.50582,-0.00529606,-0.00826773,1.72065,-0.205188,-0.024481,0.000490834,0.000322319,-0.0123211,0.2,0.2,0,1.28,0,0,0,0.2,-0.2,0,1.28,0,0,0,-1.49542,-0.00520003,-0.0081945,1.70614,-0.201082,-0.0243528,-1.50582,-0.00529606,-0.00826773,1.72065,-0.205188,-0.024481,0.000490834,0.000322319,-0.0123211,0.2,0.2,0,1.28,0,0,0,0.2,-0.2,0,1.28,0,0,0
gen_000102_tz+0.01_tx-0.03_ty+0.00_p-0.05_fx+0.01_fy+0.00,-0.275258,0.4899789,0.466596,0.999885,0.00782864,-0.0128098,0.00203624,-1.48342,-0.00522771,-0.00820543,1.68471,-0.17561,-0.0243374,-1.49389,-0.00532479,-0.00827765,1.69922,-0.179644,-0.0244652,0.000493298,0.000376923,0.00371539,0.2,0.2,0,1.28,0,0,0,0.2,-0.2,0,1.28,0,0,0,-1.48342,-0.00522771,-0.00820543,1.68471,-0.17561,-0.0243374,-1.49389,-0.00532479,-0.00827765,1.69922,-0.179644,-0.0244652,0.000493298,0.000376923,0.00371539,0.2,0.2,0,1.28,0,0,0,0.2,-0.2,0,1.28,0,0,0
gen_000103_tz+0.01_tx-0.03_ty+0.00_p-0.05_fx+0.02_fy+0.00,-0.274529,0.4899789,0.466661,0.999752,0.00782115,-0.0207415,0.00196942,-1.47094,-0.00524894,-0.00821968,1.66258,-0.150096,-0.0243218,-1.48147,-0.00534698,-0.00829099,1.67709,-0.154069,-0.0244493,0.000495313,0.000431484,0.0195607,0.2,0.2,0,1.28,0,0,0,0.2,-0.2,0,1.28,0,0,0,-1.47094,-0.00524894,-0.00821968,1.66258,-0.150096,-0.0243218,-1.48147,-0.00534698,-0.00829099,1.67709,-0.154069,-0.0244493,0.000495313,0.000431484,0.0195607,0.2,0.2,0,1.28,0,0,0,0.2,-0.2,0,1.28,0,0,0
gen_000104_tz+0.01_tx-0.03_ty+0.00_p-0.05_fx+0.03_fy+0.00,-0.273806,0.4899788,0.466735,0.999559,0.00781291,-0.028585,0.00190287,-1.45797,-0.00526346,-0.00823755,1.63973,-0.12454,-0.0243062,-1.46856,-0.00536241,-0.00830804,1.65425,-0.12846,-0.0244334,0.000497122,0.000486175,0.0352313,0.2,0.2,0,1.28,0,0,0,0.2,-0.2,0,1.28,0,0,0,-1.45797,-0.00526346,-0.00823755,1.63973,-0.12454,-0.0243062,-1.46856,-0.00536241,-0.00830804,1.65425,-0.12846,-0.0244334,0.000497122,0.000486175,0.0352313,0.2,0.2,0,1.28,0,0,0,0.2,-0.2,0,1.28,0,0,0
gen_000105_tz+0.01_tx-0.02_ty+0.00_p-0.05_fx-0.03_fy+0.00,-0.269043,0.4899757,0.466423,0.999562,0.00785572,0.0284225,0.00238019,-1.53891,-0.00502936,-0.00817927,1.78472,-0.302551,-0.0244124,-1.54899,-0.00512025,-0.00825727,1.7993,-0.307041,-0.0245418,0.000471387,0.000101853,-0.0786632,0.2,0.2,0,1.28,0,0,0,0.2,-0.2,0,1.28,0,0,0,-1.53891,-0.00502936,-0.00817927,1.78472,-0.302551,-0.0244124,-1.54899,-0.00512025,-0.00825727,1.7993,-0.307041,-0.0245418,0.000471387,0.000101853,-0.0786632,0.2,0.2,0,1.28,0,0,0,0.2,-0.2,0,1.28,0,0,0
gen_000106_tz+0.01_tx-0.02_ty+0.00_p-0.05_fx-0.02_fy+0.00,-0.268266,0.4899768,0.466435,0.999768,0.00785191,0.0199342,0.00230924,-1.52866,-0.00508006,-0.00817878,1.76615,-0.277262,-0.0243978,-1.53883,-0.00517239,-0.00825549,1.78071,-0.28164,-0.0245269,0.000478628,0.000156973,-0.0616995,0.2,0.2,0,1.28,0,0,0,0.2,-0.2,0,1.28,0,0,0,-1.52866,-0.00508006,-0.00817878,1.76615,-0.277262,-0.0243978,-1.53883,-0.00517239,-0.00825549,1.78071,-0.28164,-0.0245269,0.000478628,0.000156973,-0.0616995,0.2,0.2,0,1.28,0,0,0,0.2,-0.2,0,1.28,0,0,0
gen_000107_tz+0.01_tx-0.02_ty+0.00_p-0.05_fx-0.01_fy+0.00,-0.267501,0.4899777,0.466459,0.999899,0.00784774,0.0115949,0.00223895,-1.51805,-0.00512388,-0.00817992,1.74685,-0.251899,-0.0243828,-1.5283,-0.00521754,-0.00825541,1.76139,-0.256175,-0.0245116,0.000485684,0.000210975,-0.0450371,0.2,0.2,0,1.28,0,0,0,0.2,-0.2,0,1.28,0,0,0,-1.51805,-0.00512388,-0.00817992,1.74685,-0.251899,-0.0243828,-1.5283,-0.00521754,-0.00825541,1.76139,-0.256175,-0.0245116,0.000485684,0.000210975,-0.0450371,0.2,0.2,0,1.28,0,0,0,0.2,-0.2,0,1.28,0,0,0
gen_000108_tz+0.01_tx-0.02_ty+0.00_p-0.05_fx+0.00_fy+0.00,-0.266744,0.4899782,0.466494,0.999961,0.00784158,0.00335003,0.00217131,-1.50695,-0.00516601,-0.00818656,1.72685,-0.226512,-0.0243681,-1.51728,-0.0052609,-0.00826087,1.74137,-0.230699,-0.0244966,0.000487778,0.000267482,-0.0285657,0.2,0.2,0,1.28,0,0,0,0.2,-0.2,0,1.28,0,0,0,-1.50695,-0.00516601,-0.00818656,1.72685,-0.226512,-0.0243681,-1.51728,-0.0052609,-0.00826087,1.74137,-0.230699,-0.0244966,0.000487778,0.000267482,-0.0285657,0.2,0.2,0,1.28,0,0,0,0.2,-0.2,0,1.28,0,0,0
gen_000109_tz+0.01_tx-0.02_ty+0.00_p-0.05_fx+0.01_fy+0.00,-0.265997,0.4899787,0.46654,0.999956,0.00783543,-0.00478185,0.0021035,-1.49542,-0.00520003,-0.00819451,1.70614,-0.201082,-0.0243528,-1.50582,-0.00529606,-0.00826773,1.72065,-0.205188,-0.024481,0.000490832,0.00032232,-0.0123212,0.2,0.2,0,1.28,0,0,0,0.2,-0.2,0,1.28,0,0,0,-1.49542,-0.00520003,-0.00819451,1.70614,-0.201082,-0.0243528,-1.50582,-0.00529606,-0.00826773,1.72065,-0.205188,-0.024481,0.000490832,0.00032232,-0.0123212,0.2,0.2,0,1.28,0,0,0,0.2,-0.2,0,1.28,0,0,0
gen_000110_tz+0.01_tx-0.02_ty+0.00_p-0.05_fx+0.02_fy+0.00,-0.265259,0.4899789,0.466596,0.999885,0.00782864,-0.0128097,0.00203624,-1.48342,-0.00522771,-0.00820543,1.68471,-0.17561,-0.0243374,-1.49389,-0.00532479,-0.00827765,1.69922,-0.179644,-0.0244652,0.000493299,0.000376923,0.00371518,0.2,0.2,0,1.28,0,0,0,0.2,-0.2,0,1.28,0,0,0,-1.48342,-0.00522771,-0.00820543,1.68471,-0.17561,-0.0243374,-1.49389,-0.00532479,-0.00827765,1.69922,-0.179644,-0.0244652,0.000493299,0.000376923,0.00371518,0.2,0.2,0,1.28,0,0,0,0.2,-0.2,0,1.28,0,0,0
gen_000111_tz+0.01_tx-0.02_ty+0.00_p-0.05_fx+0.03_fy+0.00,-0.264529,0.4899789,0.466661,0.999752,0.00782115,-0.0207414,0.00196942,-1.47095,-0.00524893,-0.00821968,1.66258,-0.150096,-0.0243218,-1.48147,-0.00534698,-0.00829099,1.67709,-0.154069,-0.0244493,0.000495315,0.000431485,0.0195605,0.2,0.2,0,1.28,0,0,0,0.2,-0.2,0,1.28,0,0,0,-1.47095,-0.00524893,-0.00821968,1.66258,-0.150096,-0.0243218,-1.48147,-0.00534698,-0.00829099,1.67709,-0.154069,-0.0244493,0.000495315,0.000431485,0.0195605,0.2,0.2,0,1.28,0,0,0,0.2,-0.2,0,1.28,0,0,0
gen_000112_tz+0.01_tx-0.01_ty+0.00_p-0.05_fx-0.03_fy+0.00,-0.259832,0.4899744,0.466422,0.99928,0.00785893,0.0370418,0.00245207,-1.54876,-0.00497262,-0.00818167,1.80257,-0.327786,-0.0244266,-1.55875,-0.00506197,-0.00826103,1.81718,-0.332398,-0.0245562,0.000463092,4.61272e-05,-0.0958935,0.2,0.2,0,1.28,0,0,0,0.2,-0.2,0,1.28,0,0,0,-1.54876,-0.00497262,-0.00818167,1.80257,-0.327786,-0.0244266,-1.55875,-0.00506197,-0.00826103,1.81718,-0.332398,-0.0245562,0.000463092,4.61272e-05,-0.0958935,0.2,0.2,0,1.28,0,0,0,0.2,-0.2,0,1.28,0,0,0
gen_000113_tz+0.01_tx-0.01_ty+0.00_p-0.05_fx-0.02_fy+0.00,-0.259043,0.4899757,0.466423,0.999562,0.00785571,0.0284229,0.00238019,-1.53891,-0.00502937,-0.00817928,1.78472,-0.302551,-0.0244124,-1.54899,-0.00512026,-0.00825728,1.7993,-0.307041,-0.0245418,0.000471382,0.000101858,-0.0786639,0.2,0.2,0,1.28,0,0,0,0.2,-0.2,0,1.28,0,0,0,-1.53891,-0.00502937,-0.00817928,1.78472,-0.302551,-0.0244124,-1.54899,-0.00512026,-0.00825728,1.7993,-0.307041,-0.0245418,0.000471382,0.000101858,-0.0786639,0.2,0.2,0,1.28,0,0,0,0.2,-0.2,0,1.28,0,0,0
gen_000114_tz+0.01_tx-0.01_ty+0.00_p-0.05_fx-0.01_fy+0.00,-0.258265,0.4899768,0.466435,0.999768,0.00785194,0.0199338,0.0023092,-1.52866,-0.00507998,-0.00817873,1.76615,-0.277262,-0.0243978,-1.53883,-0.00517231,-0.00825543,1.78071,-0.28164,-0.0245269,0.0004787,0.00015692,-0.0616987,0.2,0.2,0,1.28,0,0,0,0.2,-0.2,0,1.28,0,0,0,-1.52866,-0.00507998,-0.00817873,1.76615,-0.277262,-0.0243978,-1.53883,-0.00517231,-0.00825543,1.78071,-0.28164,-0.0245269,0.0004787,0.00015692,-0.0616987,0.2,0.2,0,1.28,0,0,0,0.2,-0.2,0,1.28,0,0,0
gen_000115_tz+0.01_tx-0.01_ty+0.00_p-0.05_fx+0.00_fy+0.00,-0.257501,0.4899777,0.466459,0.999899,0.00784766,0.0115949,0.00223906,-1.51805,-0.00512413,-0.0081801,1.74685,-0.251899,-0.0243828,-1.5283,-0.00521779,-0.00825559,1.76139,-0.256175,-0.0245116,0.00048546,0.000211148,-0.0450371,0.2,0.2,0,1.28,0,0,0,0.2,-0.2,0,1.28,0,0,0,-1.51805,-0.00512413,-0.0081801,1.74685,-0.251899,-0.0243828,-1.5283,-0.00521779,-0.00825559,1.76139,-0.256175,-0.0245116,0.00048546,0.000211148,-0.0450371,0.2,0.2,0,1.28,0,0,0,0.2,-0.2,0,1.28,0,0,0
gen_000116_tz+0.01_tx-0.01_ty+0.00_p-0.05_fx+0.01_fy+0.00,-0.256744,0.4899782,0.466494,0.999961,0.00784157,0.00335025,0.00217131,-1.50696,-0.00516601,-0.00818657,1.72685,-0.226512,-0.0243681,-1.51728,-0.00526091,-0.00826087,1.74137,-0.230699,-0.0244966,0.000487777,0.000267483,-0.0285661,0.2,0.2,0,1.28,0,0,0,0.2,-0.2,0,1.28,0,0,0,-1.50696,-0.00516601,-0.00818657,1.72685,-0.226512,-0.0243681,-1.51728,-0.00526091,-0.00826087,1.74137,-0.230699,-0.0244966,0.000487777,0.000267483,-0.0285661,0.2,0.2,0,1.28,0,0,0,0.2,-0.2,0,1.28,0,0,0
gen_000117_tz+0.01_tx-0.01_ty+0.00_p-0.05_fx+0.02_fy+0.00,-0.255997,0.4899787,0.46654,0.999956,0.00783543,-0.00478166,0.0021035,-1.49542,-0.00520003,-0.00819451,1.70614,-0.201082,-0.0243528,-1.50582,-0.00529606,-0.00826773,1.72065,-0.205187,-0.024481,0.000490835,0.00032232,-0.0123216,0.2,0.2,0,1.28,0,0,0,0.2,-0.2,0,1.28,0,0,0,-1.49542,-0.00520003,-0.00819451,1.70614,-0.201082,-0.0243528,-1.50582,-0.00529606,-0.00826773,1.72065,-0.205187,-0.024481,0.000490835,0.00032232,-0.0123216,0.2,0.2,0,1.28,0,0,0,0.2,-0.2,0,1.28,0,0,0
gen_000118_tz+0.01_tx-0.01_ty+0.00_p-0.05_fx+0.03_fy+0.00,-0.255259,0.4899789,0.466596,0.999885,0.00782864,-0.0128095,0.00203624,-1.48342,-0.00522771,-0.00820543,1.68471,-0.17561,-0.0243374,-1.49389,-0.00532479,-0.00827766,1.69922,-0.179644,-0.0244652,0.000493302,0.000376923,0.00371486,0.2,0.2,0,1.28,0,0,0,0.2,-0.2,0,1.28,0,0,0,-1.48342,-0.00522771,-0.00820543,1.68471,-0.17561,-0.0243374,-1.49389,-0.00532479,-0.00827766,1.69922,-0.179644,-0.0244652,0.000493302,0.000376923,0.00371486,0.2,0.2,0,1.28,0,0,0,0.2,-0.2,0,1.28,0,0,0
gen_000119_tz+0.01_tx+0.00_ty+0.00_p-0.05_fx-0.03_fy+0.00,-0.250632,0.4899728,0.466435,0.998917,0.00786145,0.0457933,0.00252507,-1.55821,-0.00491025,-0.00818597,1.81969,-0.352965,-0.0244403,-1.56811,-0.00499792,-0.00826676,1.83434,-0.357708,-0.0245702,0.000453317,-9.9915e-06,-0.113395,0.2,0.2,0,1.28,0,0,0,0.2,-0.2,0,1.28,0,0,0,-1.55821,-0.00491025,-0.00818597,1.81969,-0.352965,-0.0244403,-1.56811,-0.00499792,-0.00826676,1.83434,-0.357708,-0.0245702,0.000453317,-9.9915e-06,-0.113395,0.2,0.2,0,1.28,0,0,0,0.2,-0.2,0,1.28,0,0,0
gen_000120_tz+0.01_tx+0.00_ty+0.00_p-0.05_fx-0.02_fy+0.00,-0.249832,0.4899744,0.466422,0.99928,0.00785895,0.0370411,0.00245205,-1.54876,-0.0049726,-0.00818165,1.80257,-0.327787,-0.0244266,-1.55875,-0.00506194,-0.00826101,1.81718,-0.332399,-0.0245562,0.000463113,4.61089e-05,-0.0958921,0.2,0.2,0,1.28,0,0,0,0.2,-0.2,0,1.28,0,0,0,-1.54876,-0.0049726,-0.00818165,1.80257,-0.327787,-0.0244266,-1.55875,-0.00506194,-0.00826101,1.81718,-0.332399,-0.0245562,0.000463113,4.61089e-05,-0.0958921,0.2,0.2,0,1.28,0,0,0,0.2,-0.2,0,1.28,0,0,0
gen_000121_tz+0.01_tx+0.00_ty+0.00_p-0.05_fx-0.01_fy+0.00,-0.249043,0.4899757,0.466423,0.999562,0.00785571,0.0284232,0.0023802,-1.53891,-0.00502937,-0.00817929,1.78472,-0.302551,-0.0244124,-1.54899,-0.00512027,-0.00825729,1.7993,-0.307041,-0.0245418,0.000471377,0.000101864,-0.0786646,0.2,0.2,0,1.28,0,0,0,0.2,-0.2,0,1.28,0,0,0,-1.53891,-0.00502937,-0.00817929,1.78472,-0.302551,-0.0244124,-1.54899,-0.00512027,-0.00825729,1.7993,-0.307041,-0.0245418,0.000471377,0.000101864,-0.0786646,0.2,0.2,0,1.28,0,0,0,0.2,-0.2,0,1.28,0,0,0
gen_000122_tz+0.01_tx+0.00_ty+0.00_p-0.05_fx+0.00_fy+0.00,-0.248266,0.4899768,0.466435,0.999768,0.00785193,0.0199344,0.00230921,-1.52866,-0.00507999,-0.00817874,1.76615,-0.277261,-0.0243978,-1.53883,-0.00517232,-0.00825544,1.78071,-0.28164,-0.0245269,0.000478693,0.000156927,-0.0616998,0.2,0.2,0,1.28,0,0,0,0.2,-0.2,0,1.28,0,0,0,-1.52866,-0.00507999,-0.00817874,1.76615,-0.277261,-0.0243978,-1.53883,-0.00517232,-0.00825544,1.78071,-0.28164,-0.0245269,0.000478693,0.000156927,-0.0616998,0.2,0.2,0,1.28,0,0,0,0.2,-0.2,0,1.28,0,0,0
gen_000123_tz+0.01_tx+0.00_ty+0.00_p-0.05_fx+0.01_fy+0.00,-0.247501,0.4899777,0.466459,0.999899,0.00784759,0.011595,0.00223915,-1.51805,-0.00512433,-0.00818025,1.74685,-0.251898,-0.0243829,-1.5283,-0.00521799,-0.00825574,1.76139,-0.256175,-0.0245117,0.000485283,0.000211285,-0.0450374,0.2,0.2,0,1.28,0,0,0,0.2,-0.2,0,1.28,0,0,0,-1.51805,-0.00512433,-0.00818025,1.74685,-0.251898,-0.0243829,-1.5283,-0.00521799,-0.00825574,1.76139,-0.256175,-0.0245117,0.000485283,0.000211285,-0.0450374,0.2,0.2,0,1.28,0,0,0,0.2,-0.2,0,1.28,0,0,0
gen_000124_tz+0.01_tx+0.00_ty+0.00_p-0.05_fx+0.02_fy+0.00,-0.246744,0.4899782,0.466494,0.999961,0.00784157,0.00335059,0.00217131,-1.50696,-0.00516601,-0.00818656,1.72685,-0.226512,-0.0243681,-1.51728,-0.0052609,-0.00826087,1.74137,-0.230698,-0.0244966,0.000487783,0.000267481,-0.0285668,0.2,0.2,0,1.28,0,0,0,0.2,-0.2,0,1.28,0,0,0,-1.50696,-0.00516601,-0.00818656,1.72685,-0.226512,-0.0243681,-1.51728,-0.0052609,-0.00826087,1.74137,-0.230698,-0.0244966,0.000487783,0.000267481,-0.0285668,0.2,0.2,0,1.28,0,0,0,0.2,-0.2,0,1.28,0,0,0
gen_000125_tz+0.01_tx+0.00_ty+0.00_p-0.05_fx+0.03_fy+0.00,-0.245997,0.4899787,0.46654,0.999956,0.00783542,-0.00478243,0.0021035,-1.49542,-0.00520006,-0.00819452,1.70614,-0.201083,-0.0243528,-1.50581,-0.00529609,-0.00826775,1.72065,-0.205188,-0.024481,0.000490809,0.000322337,-0.0123201,0.2,0.2,0,1.28,0,0,0,0.2,-0.2,0,1.28,0,0,0,-1.49542,-0.00520006,-0.00819452,1.70614,-0.201083,-0.0243528,-1.50581,-0.00529609,-0.00826775,1.72065,-0.205188,-0.024481,0.000490809,0.000322337,-0.0123201,0.2,0.2,0,1.28,0,0,0,0.2,-0.2,0,1.28,0,0,0
gen_000126_tz+0.01_tx+0.01_ty+0.00_p-0.05_fx-0.03_fy+0.00,-0.241444,0.489971,0.466461,0.998469,0.00786316,0.0546822,0.00259934,-1.56729,-0.00484247,-0.00819212,1.83609,-0.378079,-0.0244537,-1.57708,-0.00492834,-0.00827439,1.85078,-0.382964,-0.0245838,0.000441816,-6.63631e-05,-0.131178,0.2,0.2,0,1.28,0,0,0,0.2,-0.2,0,1.28,0,0,0,-1.56729,-0.00484247,-0.00819212,1.83609,-0.378079,-0.0244537,-1.57708,-0.00492834,-0.00827439,1.85078,-0.382964,-0.0245838,0.000441816,-6.63631e-05,-0.131178,0.2,0.2,0,1.28,0,0,0,0.2,-0.2,0,1.28,0,0,0
gen_000127_tz+0.01_tx+0.01_ty+0.00_p-0.05_fx-0.02_fy+0.00,-0.240632,0.4899728,0.466435,0.998917,0.00786144,0.0457935,0.00252507,-1.55821,-0.00491026,-0.00818598,1.81969,-0.352964,-0.0244403,-1.56811,-0.00499792,-0.00826677,1.83434,-0.357708,-0.0245702,0.000453314,-9.9887e-06,-0.113395,0.2,0.2,0,1.28,0,0,0,0.2,-0.2,0,1.28,0,0,0,-1.55821,-0.00491026,-0.00818598,1.81969,-0.352964,-0.0244403,-1.56811,-0.00499792,-0.00826677,1.83434,-0.357708,-0.0245702,0.000453314,-9.9887e-06,-0.113395,0.2,0.2,0,1.28,0,0,0,0.2,-0.2,0,1.28,0,0,0
gen_000128_tz+0.01_tx+0.01_ty+0.00_p-0.05_fx-0.01_fy+0.00,-0.239832,0.4899744,0.466422,0.99928,0.00785894,0.0370413,0.00245205,-1.54876,-0.0049726,-0.00818165,1.80257,-0.327787,-0.0244266,-1.55875,-0.00506194,-0.00826101,1.81718,-0.332398,-0.0245562,0.00046311,4.61119e-05,-0.0958926,0.2,0.2,0,1.28,0,0,0,0.2,-0.2,0,1.28,0,0,0,-1.54876,-0.0049726,-0.00818165,1.80257,-0.327787,-0.0244266,-1.55875,-0.00506194,-0.00826101,1.81718,-0.332398,-0.0245562,0.00046311,4.61119e-05,-0.0958926,0.2,0.2,0,1.28,0,0,0,0.2,-0.2,0,1.28,0,0,0
gen_000129_tz+0.01_tx+0.01_ty+0.00_p-0.05_fx+0.00_fy+0.00,-0.239043,0.4899757,0.466423,0.999562,0.00785573,0.0284224,0.00238017,-1.53891,-0.00502933,-0.00817925,1.78472,-0.302551,-0.0244124,-1.54899,-0.00512022,-0.00825725,1.7993,-0.307041,-0.0245418,0.000471415,0.000101834,-0.078663,0.2,0.2,0,1.28,0,0,0,0.2,-0.2,0,1.28,0,0,0,-1.53891,-0.00502933,-0.00817925,1.78472,-0.302551,-0.0244124,-1.54899,-0.00512022,-0.00825725,1.7993,-0.307041,-0.0245418,0.000471415,0.000101834,-0.078663,0.2,0.2,0,1.28,0,0,0,0.2,-0.2,0,1.28,0,0,0
gen_000130_tz+0.01_tx+0.01_ty+0.00_p-0.05_fx+0.01_fy+0.00,-0.238265,0.4899768,0.466435,0.999768,0.00785197,0.0199338,0.00230915,-1.52866,-0.00507987,-0.00817866,1.76615,-0.277262,-0.0243978,-1.53883,-0.0051722,-0.00825536,1.78071,-0.28164,-0.0245269,0.000478792,0.000156851,-0.0616986,0.2,0.2,0,1.28,0,0,0,0.2,-0.2,0,1.28,0,0,0,-1.52866,-0.00507987,-0.00817866,1.76615,-0.277262,-0.0243978,-1.53883,-0.0051722,-0.00825536,1.78071,-0.28164,-0.0245269,0.000478792,0.000156851,-0.0616986,0.2,0.2,0,1.28,0,0,0,0.2,-0.2,0,1.28,0,0,0
gen_000131_tz+0.01_tx+0.01_ty+0.00_p-0.05_fx+0.02_fy+0.00,-0.237501,0.4899777,0.466459,0.999899,0.00784753,0.0115952,0.00223923,-1.51805,-0.00512449,-0.00818038,1.74685,-0.251898,-0.0243829,-1.5283,-0.00521815,-0.00825586,1.76139,-0.256175,-0.0245117,0.000485138,0.000211398,-0.0450377,0.2,0.2,0,1.28,0,0,0,0.2,-0.2,0,1.28,0,0,0,-1.51805,-0.00512449,-0.00818038,1.74685,-0.251898,-0.0243829,-1.5283,-0.00521815,-0.00825586,1.76139,-0.256175,-0.0245117,0.000485138,0.000211398,-0.0450377,0.2,0.2,0,1.28,0,0,0,0.2,-0.2,0,1.28,0,0,0
gen_000132_tz+0.01_tx+0.01_ty+0.00_p-0.05_fx+0.03_fy+0.00,-0.236744,0.4899782,0.466494,0.999961,0.00784157,0.00335097,0.00217131,-1.50696,-0.005166,-0.00818656,1.72685,-0.226511,-0.0243681,-1.51728,-0.00526089,-0.00826087,1.74137,-0.230698,-0.0244966,0.000487792,0.000267478,-0.0285676,0.2,0.2,0,1.28,0,0,0,0.2,-0.2,0,1.28,0,0,0,-1.50696,-0.005166,-0.00818656,1.72685,-0.226511,-0.0243681,-1.51728,-0.00526089,-0.00826087,1.74137,-0.230698,-0.0244966,0.000487792,0.000267478,-0.0285676,0.2,0.2,0,1.28,0,0,0,0.2,-0.2,0,1.28,0,0,0
gen_000133_tz+0.01_tx+0.02_ty+0.00_p-0.05_fx-0.03_fy+0.00,-0.232266,0.4899689,0.466501,0.997934,0.00786403,0.0637088,0.00267491,-1.57599,-0.00476937,-0.00819993,1.85176,-0.403124,-0.0244665,-1.58567,-0.0048533,-0.00828373,1.86649,-0.408161,-0.0245969,0.000428472,-0.000122921,-0.149247,0.2,0.2,0,1.28,0,0,0,0.2,-0.2,0,1.28,0,0,0,-1.57599,-0.00476937,-0.00819993,1.85176,-0.403124,-0.0244665,-1.58567,-0.0048533,-0.00828373,1.86649,-0.408161,-0.0245969,0.000428472,-0.000122921,-0.149247,0.2,0.2,0,1.28,0,0,0,0.2,-0.2,0,1.28,0,0,0
gen_000134_tz+0.01_tx+0.02_ty+0.00_p-0.05_fx-0.02_fy+0.00,-0.231444,0.489971,0.466461,0.99847,0.00786317,0.0546813,0.00259932,-1.56729,-0.00484245,-0.0081921,1.83609,-0.378079,-0.0244536,-1.57708,-0.00492832,-0.00827437,1.85078,-0.382965,-0.0245838,0.000441831,-6.6379e-05,-0.131176,0.2,0.2,0,1.28,0,0,0,0.2,-0.2,0,1.28,0,0,0,-1.56729,-0.00484245,-0.0081921,1.83609,-0.378079,-0.0244536,-1.57708,-0.00492832,-0.00827437,1.85078,-0.382965,-0.0245838,0.000441831,-6.6379e-05,-0.131176,0.2,0.2,0,1.28,0,0,0,0.2,-0.2,0,1.28,0,0,0
gen_000135_tz+0.01_tx+0.02_ty+0.00_p-0.05_fx-0.01_fy+0.00,-0.230632,0.4899728,0.466435,0.998917,0.00786144,0.0457937,0.00252507,-1.55821,-0.00491026,-0.00818598,1.81969,-0.352964,-0.0244403,-1.56811,-0.00499793,-0.00826677,1.83434,-0.357707,-0.0245702,0.000453313,-9.98724e-06,-0.113395,0.2,0.2,0,1.28,0,0,0,0.2,-0.2,0,1.28,0,0,0,-1.55821,-0.00491026,-0.00818598,1.81969,-0.352964,-0.0244403,-1.56811,-0.00499793,-0.00826677,1.83434,-0.357707,-0.0245702,0.000453313,-9.98724e-06,-0.113395,0.2,0.2,0,1.28,0,0,0,0.2,-0.2,0,1.28,0,0,0
gen_000136_tz+0.01_tx+0.02_ty+0.00_p-0.05_fx+0.00_fy+0.00,-0.229832,0.4899744,0.466422,0.99928,0.00785894,0.0370414,0.00245205,-1.54876,-0.0049726,-0.00818165,1.80257,-0.327787,-0.0244266,-1.55875,-0.00506194,-0.00826101,1.81718,-0.332398,-0.0245562,0.000463111,4.61117e-05,-0.0958928,0.2,0.2,0,1.28,0,0,0,0.2,-0.2,0,1.28,0,0,0,-1.54876,-0.0049726,-0.00818165,1.80257,-0.327787,-0.0244266,-1.55875,-0.00506194,-0.00826101,1.81718,-0.332398,-0.0245562,0.000463111,4.61117e-05,-0.0958928,0.2,0.2,0,1.28,0,0,0,0.2,-0.2,0,1.28,0,0,0
gen_000137_tz+0.01_tx+0.02_ty+0.00_p-0.05_fx+0.01_fy+0.00,-0.229043,0.4899757,0.466423,0.999562,0.00785573,0.0284225,0.00238017,-1.53891,-0.00502932,-0.00817925,1.78472,-0.302551,-0.0244124,-1.54899,-0.00512022,-0.00825725,1.7993,-0.307041,-0.0245418,0.00047142,0.00010183,-0.0786632,0.2,0.2,0,1.28,0,0,0,0.2,-0.2,0,1.28,0,0,0,-1.53891,-0.00502932,-0.00817925,1.78472,-0.302551,-0.0244124,-1.54899,-0.00512022,-0.00825725,1.7993,-0.307041,-0.0245418,0.00047142,0.00010183,-0.0786632,0.2,0.2,0,1.28,0,0,0,0.2,-0.2,0,1.28,0,0,0
gen_000138_tz+0.01_tx+0.02_ty+0.00_p-0.05_fx+0.02_fy+0.00,-0.228266,0.4899768,0.466435,0.999768,0.00785198,0.0199342,0.00230915,-1.52866,-0.00507986,-0.00817864,1.76615,-0.277262,-0.0243978,-1.53883,-0.00517219,-0.00825535,1.78071,-0.28164,-0.0245269,0.000478808,0.00015684,-0.0616994,0.2,0.2,0,1.28,0,0,0,0.2,-0.2,0,1.28,0,0,0,-1.52866,-0.00507986,-0.00817864,1.76615,-0.277262,-0.0243978,-1.53883,-0.00517219,-0.00825535,1.78071,-0.28164,-0.0245269,0.000478808,0.00015684,-0.0616994,0.2,0.2,0,1.28,0,0,0,0.2,-0.2,0,1.28,0,0,0
gen_000139_tz+0.01_tx+0.02_ty+0.00_p-0.05_fx+0.03_fy+0.00,-0.227501,0.4899777,0.466459,0.999899,0.00784748,0.0115953,0.0022393,-1.51805,-0.00512464,-0.00818049,1.74685,-0.251898,-0.0243829,-1.5283,-0.0052183,-0.00825598,1.76139,-0.256175,-0.0245117,0.000485001,0.000211506,-0.0450379,0.2,0.2,0,1.28,0,0,0,0.2,-0.2,0,1.28,0,0,0,-1.51805,-0.00512464,-0.00818049,1.74685,-0.251898,-0.0243829,-1.5283,-0.0052183,-0.00825598,1.76139,-0.256175,-0.0245117,0.000485001,0.000211506,-0.0450379,0.2,0.2,0,1.28,0,0,0,0.2,-0.2,0,1.28,0,0,0
gen_000140_tz+0.01_tx+0.03_ty+0.00_p-0.05_fx-0.03_fy+0.00,-0.223101,0.4899666,0.466556,0.997306,0.00786399,0.0728739,0.00275184,-1.58431,-0.00469105,-0.00820926,1.86669,-0.428093,-0.0244788,-1.59387,-0.00477291,-0.00829464,1.88147,-0.433293,-0.0246095,0.000413156,-0.000179555,-0.167604,0.2,0.2,0,1.28,0,0,0,0.2,-0.2,0,1.28,0,0,0,-1.58431,-0.00469105,-0.00820926,1.86669,-0.428093,-0.0244788,-1.59387,-0.00477291,-0.00829464,1.88147,-0.433293,-0.0246095,0.000413156,-0.000179555,-0.167604,0.2,0.2,0,1.28,0,0,0,0.2,-0.2,0,1.28,0,0,0
gen_000141_tz+0.01_tx+0.03_ty+0.00_p-0.05_fx-0.02_fy+0.00,-0.222266,0.4899689,0.466501,0.997934,0.00786404,0.0637079,0.0026749,-1.57598,-0.00476935,-0.00819991,1.85176,-0.403125,-0.0244665,-1.58566,-0.00485328,-0.00828371,1.86649,-0.408162,-0.0245969,0.000428486,-0.000122937,-0.149245,0.2,0.2,0,1.28,0,0,0,0.2,-0.2,0,1.28,0,0,0,-1.57598,-0.00476935,-0.00819991,1.85176,-0.403125,-0.0244665,-1.58566,-0.00485328,-0.00828371,1.86649,-0.408162,-0.0245969,0.000428486,-0.000122937,-0.149245,0.2,0.2,0,1.28,0,0,0,0.2,-0.2,0,1.28,0,0,0
gen_000142_tz+0.01_tx+0.03_ty+0.00_p-0.05_fx-0.01_fy+0.00,-0.221444,0.489971,0.466461,0.99847,0.00786317,0.0546814,0.00259933,-1.56729,-0.00484245,-0.0081921,1.83609,-0.378079,-0.0244536,-1.57708,-0.00492832,-0.00827437,1.85078,-0.382964,-0.0245838,0.000441831,-6.63784e-05,-0.131177,0.2,0.2,0,1.28,0,0,0,0.2,-0.2,0,1.28,0,0,0,-1.56729,-0.00484245,-0.0081921,1.83609,-0.378079,-0.0244536,-1.57708,-0.00492832,-0.00827437,1.85078,-0.382964,-0.0245838,0.000441831,-6.63784e-05,-0.131177,0.2,0.2,0,1.28,0,0,0,0.2,-0.2,0,1.28,0,0,0
gen_000143_tz+0.01_tx+0.03_ty+0.00_p-0.05_fx+0.00_fy+0.00,-0.220632,0.4899728,0.466435,0.998917,0.00786144,0.0457937,0.00252507,-1.55821,-0.00491026,-0.00818598,1.81969,-0.352964,-0.0244403,-1.56811,-0.00499792,-0.00826677,1.83434,-0.357707,-0.0245702,0.000453314,-9.98797e-06,-0.113395,0.2,0.2,0,1.28,0,0,0,0.2,-0.2,0,1.28,0,0,0,-1.55821,-0.00491026,-0.00818598,1.81969,-0.352964,-0.0244403,-1.56811,-0.00499792,-0.00826677,1.83434,-0.357707,-0.0245702,0.000453314,-9.98797e-06,-0.113395,0.2,0.2,0,1.28,0,0,0,0.2,-0.2,0,1.28,0,0,0
gen_000144_tz+0.01_tx+0.03_ty+0.00_p-0.05_fx+0.01_fy+0.00,-0.219832,0.4899744,0.466422,0.99928,0.00785894,0.0370414,0.00245205,-1.54876,-0.0049726,-0.00818165,1.80257,-0.327787,-0.0244266,-1.55875,-0.00506194,-0.00826101,1.81718,-0.332398,-0.0245562,0.000463114,4.6109e-05,-0.0958928,0.2,0.2,0,1.28,0,0,0,0.2,-0.2,0,1.28,0,0,0,-1.54876,-0.0049726,-0.00818165,1.80257,-0.327787,-0.0244266,-1.55875,-0.00506194,-0.00826101,1.81718,-0.332398,-0.0245562,0.000463114,4.6109e-05,-0.0958928,0.2,0.2,0,1.28,0,0,0,0.2,-0.2,0,1.28,0,0,0
gen_000145_tz+0.01_tx+0.03_ty+0.00_p-0.05_fx+0.02_fy+0.00,-0.219043,0.4899757,0.466423,0.999562,0.00785573,0.0284226,0.00238017,-1.53891,-0.00502932,-0.00817925,1.78472,-0.302551,-0.0244124,-1.54899,-0.00512021,-0.00825724,1.7993,-0.307041,-0.0245418,0.000471426,0.000101825,-0.0786633,0.2,0.2,0,1.28,0,0,0,0.2,-0.2,0,1.28,0,0,0,-1.53891,-0.00502932,-0.00817925,1.78472,-0.302551,-0.0244124,-1.54899,-0.00512021,-0.00825724,1.7993,-0.307041,-0.0245418,0.000471426,0.000101825,-0.0786633,0.2,0.2,0,1.28,0,0,0,0.2,-0.2,0,1.28,0,0,0
gen_000146_tz+0.01_tx+0.03_ty+0.00_p-0.05_fx+0.03_fy+0.00,-0.218266,0.4899768,0.466435,0.999768,0.00785198,0.0199346,0.00230914,-1.52866,-0.00507984,-0.00817864,1.76615,-0.277261,-0.0243978,-1.53883,-0.00517217,-0.00825534,1.78071,-0.28164,-0.0245269,0.00047882,0.000156831,-0.0617003,0.2,0.2,0,1.28,0,0,0,0.2,-0.2,0,1.28,0,0,0,-1.52866,-0.00507984,-0.00817864,1.76615,-0.277261,-0.0243978,-1.53883,-0.00517217,-0.00825534,1.78071,-0.28164,-0.0245269,0.00047882,0.000156831,-0.0617003,0.2,0.2,0,1.28,0,0,0,0.2,-0.2,0,1.28,0,0,0
gen_000147_tz+0.01_tx-0.03_ty+0.01_p-0.05_fx-0.03_fy+0.00,-0.278262,0.499179381,0.46643,0.999799,-0.00101101,0.0199064,0.00211974,-1.53504,-0.00470255,-0.00404548,1.77328,-0.277909,-0.00255359,-1.53294,-0.00468547,-0.00400973,1.77445,-0.281176,-0.00250741,0.00120663,0.017856,-0.0616953,0.2,0.2,0,1.28,0,0,0,0.2,-0.2,0,1.28,0,0,0,-1.53504,-0.00470255,-0.00404548,1.77328,-0.277909,-0.00255359,-1.53294,-0.00468547,-0.00400973,1.77445,-0.281176,-0.00250741,0.00120663,0.017856,-0.0616953,0.2,0.2,0,1.28,0,0,0,0.2,-0.2,0,1.28,0,0,0
gen_000148_tz+0.01_tx-0.03_ty+0.01_p-0.05_fx-0.02_fy+0.00,-0.277496,0.499180534,0.466454,0.999931,-0.00100368,0.011554,0.00208703,-1.52441,-0.00464677,-0.00403393,1.75397,-0.252538,-0.00254038,-1.52238,-0.00462966,-0.00399815,1.75515,-0.255739,-0.00249455,0.000990291,0.0178931,-0.0450047,0.2,0.2,0,1.28,0,0,0,0.2,-0.2,0,1.28,0,0,0,-1.52441,-0.00464677,-0.00403393,1.75397,-0.252538,-0.00254038,-1.52238,-0.00462966,-0.00399815,1.75515,-0.255739,-0.00249455,0.000990291,0.0178931,-0.0450047,0.2,0.2,0,1.28,0,0,0,0.2,-0.2,0,1.28,0,0,0
gen_000149_tz+0.01_tx-0.03_ty+0.01_p-0.05_fx-0.01_fy+0.00,-0.276739,0.499181164,0.466489,0.999992,-0.00100165,0.00331613,0.00205778,-1.51334,-0.00459679,-0.00403787,1.73396,-0.227128,-0.00253076,-1.51137,-0.00457961,-0.00400208,1.73514,-0.230267,-0.00248525,0.000770094,0.0179367,-0.0285453,0.2,0.2,0,1.28,0,0,0,0.2,-0.2,0,1.28,0,0,0,-1.51334,-0.00459679,-0.00403787,1.73396,-0.227128,-0.00253076,-1.51137,-0.00457961,-0.00400208,1.73514,-0.230267,-0.00248525,0.000770094,0.0179367,-0.0285453,0.2,0.2,0,1.28,0,0,0,0.2,-0.2,0,1.28,0,0,0
gen_000150_tz+0.01_tx-0.03_ty+0.01_p-0.05_fx+0.00_fy+0.00,-0.275992,0.499182074,0.466535,0.999986,-0.000995866,-0.00481455,0.0020295,-1.50182,-0.00454491,-0.00403392,1.71323,-0.201684,-0.00251871,-1.49991,-0.00452773,-0.00399812,1.71442,-0.204763,-0.00247354,0.000550664,0.0179687,-0.0123012,0.2,0.2,0,1.28,0,0,0,0.2,-0.2,0,1.28,0,0,0,-1.50182,-0.00454491,-0.00403392,1.71323,-0.201684,-0.00251871,-1.49991,-0.00452773,-0.00399812,1.71442,-0.204763,-0.00247354,0.000550664,0.0179687,-0.0123012,0.2,0.2,0,1.28,0,0,0,0.2,-0.2,0,1.28,0,0,0
gen_000151_tz+0.01_tx-0.03_ty+0.01_p-0.05_fx+0.01_fy+0.00,-0.275254,0.499183187,0.466591,0.999915,-0.000987247,-0.0128409,0.00200235,-1.48982,-0.00449178,-0.00402441,1.6918,-0.176201,-0.00250483,-1.48799,-0.00447465,-0.00398861,1.693,-0.179223,-0.00246002,0.000331829,0.0179911,0.00373431,0.2,0.2,0,1.28,0,0,0,0.2,-0.2,0,1.28,0,0,0,-1.48982,-0.00449178,-0.00402441,1.6918,-0.176201,-0.00250483,-1.48799,-0.00447465,-0.00398861,1.693,-0.179223,-0.00246002,0.000331829,0.0179911,0.00373431,0.2,0.2,0,1.28,0,0,0,0.2,-0.2,0,1.28,0,0,0
gen_000152_tz+0.01_tx-0.03_ty+0.01_p-0.05_fx+0.02_fy+0.00,-0.274525,0.499184414,0.466656,0.999782,-0.000976839,-0.020772,0.00197657,-1.47735,-0.00443821,-0.00401201,1.66966,-0.150681,-0.0024898,-1.47558,-0.00442118,-0.00397622,1.67087,-0.153649,-0.00244536,0.00011295,0.018006,0.0195803,0.2,0.2,0,1.28,0,0,0,0.2,-0.2,0,1.28,0,0,0,-1.47735,-0.00443821,-0.00401201,1.66966,-0.150681,-0.0024898,-1.47558,-0.00442118,-0.00397622,1.67087,-0.153649,-0.00244536,0.00011295,0.018006,0.0195803,0.2,0.2,0,1.28,0,0,0,0.2,-0.2,0,1.28,0,0,0
gen_000153_tz+0.01_tx-0.03_ty+0.01_p-0.05_fx+0.03_fy+0.00,-0.273802,0.49918576,0.466731,0.999588,-0.000964619,-0.0286156,0.00195207,-1.46437,-0.00438409,-0.00399664,1.6468,-0.125122,-0.00247358,-1.46267,-0.00436719,-0.00396087,1.64804,-0.12804,-0.00242953,-0.000105903,0.0180136,0.0352533,0.2,0.2,0,1.28,0,0,0,0.2,-0.2,0,1.28,0,0,0,-1.46437,-0.00438409,-0.00399664,1.6468,-0.125122,-0.00247358,-1.46267,-0.00436719,-0.00396087,1.64804,-0.12804,-0.00242953,-0.000105903,0.0180136,0.0352533,0.2,0.2,0,1.28,0,0,0,0.2,-0.2,0,1.28,0,0,0
gen_000154_tz+0.01_tx-0.02_ty+0.01_p-0.05_fx-0.03_fy+0.00,-0.269039,0.499178247,0.466417,0.999594,-0.00101742,0.0283923,0.00215429,-1.54528,-0.00475907,-0.00405646,1.79186,-0.303225,-0.00256634,-1.5431,-0.00474205,-0.00402075,1.79303,-0.306562,-0.00251979,0.0014228,0.0178127,-0.0786563,0.2,0.2,0,1.28,0,0,0,0.2,-0.2,0,1.28,0,0,0,-1.54528,-0.00475907,-0.00405646,1.79186,-0.303225,-0.00256634,-1.5431,-0.00474205,-0.00402075,1.79303,-0.306562,-0.00251979,0.0014228,0.0178127,-0.0786563,0.2,0.2,0,1.28,0,0,0,0.2,-0.2,0,1.28,0,0,0
gen_000155_tz+0.01_tx-0.02_ty+0.01_p-0.05_fx-0.02_fy+0.00,-0.268262,0.499179433,0.46643,0.999799,-0.00101042,0.0199061,0.00211957,-1.53504,-0.00470203,-0.00404398,1.77328,-0.277909,-0.00255321,-1.53294,-0.00468496,-0.00400823,1.77445,-0.281176,-0.00250702,0.00120694,0.0178548,-0.0616947,0.2,0.2,0,1.28,0,0,0,0.2,-0.2,0,1.28,0,0,0,-1.53504,-0.00470203,-0.00404398,1.77328,-0.277909,-0.00255321,-1.53294,-0.00468496,-0.00400823,1.77445,-0.281176,-0.00250702,0.00120694,0.0178548,-0.0616947,0.2,0.2,0,1.28,0,0,0,0.2,-0.2,0,1.28,0,0,0
gen_000156_tz+0.01_tx-0.02_ty+0.01_p-0.05_fx-0.01_fy+0.00,-0.267496,0.499180523,0.466454,0.999931,-0.0010038,0.0115543,0.00208705,-1.52441,-0.00464686,-0.00403425,1.75397,-0.252538,-0.00254046,-1.52238,-0.00462975,-0.00399847,1.75515,-0.255738,-0.00249464,0.000990255,0.0178933,-0.0450053,0.2,0.2,0,1.28,0,0,0,0.2,-0.2,0,1.28,0,0,0,-1.52441,-0.00464686,-0.00403425,1.75397,-0.252538,-0.00254046,-1.52238,-0.00462975,-0.00399847,1.75515,-0.255738,-0.00249464,0.000990255,0.0178933,-0.0450053,0.2,0.2,0,1.28,0,0,0,0.2,-0.2,0,1.28,0,0,0
gen_000157_tz+0.01_tx-0.02_ty+0.01_p-0.05_fx+0.00_fy+0.00,-0.266739,0.499181159,0.466489,0.999992,-0.00100171,0.00331625,0.00205779,-1.51334,-0.00459683,-0.00403803,1.73396,-0.227128,-0.00253079,-1.51137,-0.00457966,-0.00400223,1.73514,-0.230267,-0.00248529,0.000770072,0.0179368,-0.0285456,0.2,0.2,0,1.28,0,0,0,0.2,-0.2,0,1.28,0,0,0,-1.51334,-0.00459683,-0.00403803,1.73396,-0.227128,-0.00253079,-1.51137,-0.00457966,-0.00400223,1.73514,-0.230267,-0.00248529,0.000770072,0.0179368,-0.0285456,0.2,0.2,0,1.28,0,0,0,0.2,-0.2,0,1.28,0,0,0
gen_000158_tz+0.01_tx-0.02_ty+0.01_p-0.05_fx+0.01_fy+0.00,-0.265992,0.499182073,0.466535,0.999986,-0.000995882,-0.00481446,0.0020295,-1.50182,-0.00454493,-0.00403397,1.71323,-0.201683,-0.00251872,-1.49991,-0.00452775,-0.00399816,1.71442,-0.204763,-0.00247355,0.000550658,0.0179688,-0.0123014,0.2,0.2,0,1.28,0,0,0,0.2,-0.2,0,1.28,0,0,0,-1.50182,-0.00454493,-0.00403397,1.71323,-0.201683,-0.00251872,-1.49991,-0.00452775,-0.00399816,1.71442,-0.204763,-0.00247355,0.000550658,0.0179688,-0.0123014,0.2,0.2,0,1.28,0,0,0,0.2,-0.2,0,1.28,0,0,0
gen_000159_tz+0.01_tx-0.02_ty+0.01_p-0.05_fx+0.02_fy+0.00,-0.265254,0.499183168,0.466591,0.999915,-0.000987464,-0.0128418,0.00200242,-1.48982,-0.00449198,-0.00402497,1.6918,-0.176201,-0.00250497,-1.48798,-0.00447485,-0.00398917,1.693,-0.179224,-0.00246016,0.000331645,0.0179915,0.00373605,0.2,0.2,0,1.28,0,0,0,0.2,-0.2,0,1.28,0,0,0,-1.48982,-0.00449198,-0.00402497,1.6918,-0.176201,-0.00250497,-1.48798,-0.00447485,-0.00398917,1.693,-0.179224,-0.00246016,0.000331645,0.0179915,0.00373605,0.2,0.2,0,1.28,0,0,0,0.2,-0.2,0,1.28,0,0,0
gen_000160_tz+0.01_tx-0.02_ty+0.01_p-0.05_fx+0.03_fy+0.00,-0.264525,0.499184414,0.466656,0.999782,-0.000976834,-0.0207719,0.00197657,-1.47735,-0.00443821,-0.004012,1.66966,-0.15068,-0.0024898,-1.47558,-0.00442118,-0.00397621,1.67087,-0.153649,-0.00244536,0.000112955,0.018006,0.0195801,0.2,0.2,0,1.28,0,0,0,0.2,-0.2,0,1.28,0,0,0,-1.47735,-0.00443821,-0.004012,1.66966,-0.15068,-0.0024898,-1.47558,-0.00442118,-0.00397621,1.67087,-0.153649,-0.00244536,0.000112955,0.018006,0.0195801,0.2,0.2,0,1.28,0,0,0,0.2,-0.2,0,1.28,0,0,0
gen_000161_tz+0.01_tx-0.01_ty+0.01_p-0.05_fx-0.03_fy+0.00,-0.259828,0.499177358,0.466417,0.999312,-0.00102028,0.0370099,0.00218994,-1.55511,-0.00481402,-0.0040602,1.80973,-0.328489,-0.0025769,-1.55286,-0.00479712,-0.00402454,1.8109,-0.3319,-0.00253001,0.00163989,0.0177578,-0.0958854,0.2,0.2,0,1.28,0,0,0,0.2,-0.2,0,1.28,0,0,0,-1.55511,-0.00481402,-0.0040602,1.80973,-0.328489,-0.0025769,-1.55286,-0.00479712,-0.00402454,1.8109,-0.3319,-0.00253001,0.00163989,0.0177578,-0.0958854,0.2,0.2,0,1.28,0,0,0,0.2,-0.2,0,1.28,0,0,0
gen_000162_tz+0.01_tx-0.01_ty+0.01_p-0.05_fx-0.02_fy+0.00,-0.259039,0.499178277,0.466417,0.999594,-0.00101708,0.0283917,0.00215418,-1.54528,-0.00475875,-0.00405559,1.79186,-0.303225,-0.00256612,-1.5431,-0.00474173,-0.00401989,1.79303,-0.306563,-0.00251957,0.00142298,0.017812,-0.0786551,0.2,0.2,0,1.28,0,0,0,0.2,-0.2,0,1.28,0,0,0,-1.54528,-0.00475875,-0.00405559,1.79186,-0.303225,-0.00256612,-1.5431,-0.00474173,-0.00401989,1.79303,-0.306563,-0.00251957,0.00142298,0.017812,-0.0786551,0.2,0.2,0,1.28,0,0,0,0.2,-0.2,0,1.28,0,0,0
gen_000163_tz+0.01_tx-0.01_ty+0.01_p-0.05_fx-0.01_fy+0.00,-0.258262,0.499179423,0.46643,0.999799,-0.00101053,0.0199064,0.00211959,-1.53504,-0.00470212,-0.00404426,1.77328,-0.277909,-0.00255328,-1.53294,-0.00468505,-0.00400852,1.77445,-0.281176,-0.0025071,0.0012069,0.017855,-0.0616955,0.2,0.2,0,1.28,0,0,0,0.2,-0.2,0,1.28,0,0,0,-1.53504,-0.00470212,-0.00404426,1.77328,-0.277909,-0.00255328,-1.53294,-0.00468505,-0.00400852,1.77445,-0.281176,-0.0025071,0.0012069,0.017855,-0.0616955,0.2,0.2,0,1.28,0,0,0,0.2,-0.2,0,1.28,0,0,0
gen_000164_tz+0.01_tx-0.01_ty+0.01_p-0.05_fx+0.00_fy+0.00,-0.257496,0.499180514,0.466454,0.999931,-0.0010039,0.0115546,0.00208708,-1.52441,-0.00464693,-0.00403451,1.75397,-0.252538,-0.00254053,-1.52238,-0.00462982,-0.00399873,1.75515,-0.255738,-0.0024947,0.000990223,0.0178935,-0.045006,0.2,0.2,0,1.28,0,0,0,0.2,-0.2,0,1.28,0,0,0,-1.52441,-0.00464693,-0.00403451,1.75397,-0.252538,-0.00254053,-1.52238,-0.00462982,-0.00399873,1.75515,-0.255738,-0.0024947,0.000990223,0.0178935,-0.045006,0.2,0.2,0,1.28,0,0,0,0.2,-0.2,0,1.28,0,0,0
gen_000165_tz+0.01_tx-0.01_ty+0.01_p-0.05_fx+0.01_fy+0.00,-0.256739,0.499181158,0.466489,0.999992,-0.00100172,0.00331644,0.0020578,-1.51334,-0.00459685,-0.00403806,1.73396,-0.227128,-0.0025308,-1.51137,-0.00457967,-0.00400227,1.73514,-0.230267,-0.0024853,0.00077007,0.0179369,-0.0285459,0.2,0.2,0,1.28,0,0,0,0.2,-0.2,0,1.28,0,0,0,-1.51334,-0.00459685,-0.00403806,1.73396,-0.227128,-0.0025308,-1.51137,-0.00457967,-0.00400227,1.73514,-0.230267,-0.0024853,0.00077007,0.0179369,-0.0285459,0.2,0.2,0,1.28,0,0,0,0.2,-0.2,0,1.28,0,0,0
gen_000166_tz+0.01_tx-0.01_ty+0.01_p-0.05_fx+0.02_fy+0.00,-0.255992,0.499182074,0.466535,0.999986,-0.000995869,-0.00481429,0.0020295,-1.50182,-0.00454492,-0.00403393,1.71323,-0.201683,-0.00251871,-1.49991,-0.00452774,-0.00399813,1.71442,-0.204763,-0.00247354,0.000550667,0.0179687,-0.0123017,0.2,0.2,0,1.28,0,0,0,0.2,-0.2,0,1.28,0,0,0,-1.50182,-0.00454492,-0.00403393,1.71323,-0.201683,-0.00251871,-1.49991,-0.00452774,-0.00399813,1.71442,-0.204763,-0.00247354,0.000550667,0.0179687,-0.0123017,0.2,0.2,0,1.28,0,0,0,0.2,-0.2,0,1.28,0,0,0
gen_000167_tz+0.01_tx-0.01_ty+0.01_p-0.05_fx+0.03_fy+0.00,-0.255254,0.499183169,0.466591,0.999915,-0.000987452,-0.0128416,0.00200242,-1.48982,-0.00449198,-0.00402494,1.6918,-0.176201,-0.00250496,-1.48798,-0.00447485,-0.00398914,1.693,-0.179224,-0.00246015,0.000331654,0.0179915,0.00373576,0.2,0.2,0,1.28,0,0,0,0.2,-0.2,0,1.28,0,0,0,-1.48982,-0.00449198,-0.00402494,1.6918,-0.176201,-0.00250496,-1.48798,-0.00447485,-0.00398914,1.693,-0.179224,-0.00246015,0.000331654,0.0179915,0.00373576,0.2,0.2,0,1.28,0,0,0,0.2,-0.2,0,1.28,0,0,0
gen_000168_tz+0.01_tx+0.00_ty+0.01_p-0.05_fx-0.03_fy+0.00,-0.250628,0.499176608,0.466429,0.998949,-0.00102074,0.0457619,0.00222701,-1.56455,-0.00486837,-0.00405972,1.82687,-0.353699,-0.00258605,-1.56223,-0.00485166,-0.00402413,1.82805,-0.357185,-0.00253883,0.00185719,0.0176936,-0.113389,0.2,0.2,0,1.28,0,0,0,0.2,-0.2,0,1.28,0,0,0,-1.56455,-0.00486837,-0.00405972,1.82687,-0.353699,-0.00258605,-1.56223,-0.00485166,-0.00402413,1.82805,-0.357185,-0.00253883,0.00185719,0.0176936,-0.113389,0.2,0.2,0,1.28,0,0,0,0.2,-0.2,0,1.28,0,0,0
gen_000169_tz+0.01_tx+0.00_ty+0.01_p-0.05_fx-0.02_fy+0.00,-0.249828,0.499177354,0.466417,0.999312,-0.00102032,0.0370102,0.00218995,-1.55511,-0.00481405,-0.00406029,1.80973,-0.328489,-0.00257692,-1.55286,-0.00479716,-0.00402463,1.8109,-0.331899,-0.00253003,0.00163988,0.0177579,-0.0958859,0.2,0.2,0,1.28,0,0,0,0.2,-0.2,0,1.28,0,0,0,-1.55511,-0.00481405,-0.00406029,1.80973,-0.328489,-0.00257692,-1.55286,-0.00479716,-0.00402463,1.8109,-0.331899,-0.00253003,0.00163988,0.0177579,-0.0958859,0.2,0.2,0,1.28,0,0,0,0.2,-0.2,0,1.28,0,0,0
gen_000170_tz+0.01_tx+0.00_ty+0.01_p-0.05_fx-0.01_fy+0.00,-0.249039,0.499178271,0.466417,0.999594,-0.00101714,0.028392,0.0021542,-1.54528,-0.0047588,-0.00405575,1.79186,-0.303225,-0.00256616,-1.5431,-0.00474179,-0.00402004,1.79303,-0.306563,-0.00251961,0.00142295,0.0178121,-0.0786557,0.2,0.2,0,1.28,0,0,0,0.2,-0.2,0,1.28,0,0,0,-1.54528,-0.0047588,-0.00405575,1.79186,-0.303225,-0.00256616,-1.5431,-0.00474179,-0.00402004,1.79303,-0.306563,-0.00251961,0.00142295,0.0178121,-0.0786557,0.2,0.2,0,1.28,0,0,0,0.2,-0.2,0,1.28,0,0,0
gen_000171_tz+0.01_tx+0.00_ty+0.01_p-0.05_fx+0.00_fy+0.00,-0.248262,0.499179418,0.46643,0.999799,-0.0010106,0.0199068,0.00211961,-1.53505,-0.00470217,-0.00404442,1.77328,-0.277908,-0.00255332,-1.53294,-0.0046851,-0.00400867,1.77445,-0.281176,-0.00250714,0.00120689,0.0178551,-0.0616962,0.2,0.2,0,1.28,0,0,0,0.2,-0.2,0,1.28,0,0,0,-1.53505,-0.00470217,-0.00404442,1.77328,-0.277908,-0.00255332,-1.53294,-0.0046851,-0.00400867,1.77445,-0.281176,-0.00250714,0.00120689,0.0178551,-0.0616962,0.2,0.2,0,1.28,0,0,0,0.2,-0.2,0,1.28,0,0,0
gen_000172_tz+0.01_tx+0.00_ty+0.01_p-0.05_fx+0.01_fy+0.00,-0.247496,0.499180516,0.466454,0.999931,-0.00100388,0.0115549,0.00208707,-1.52441,-0.00464692,-0.00403446,1.75397,-0.252537,-0.00254052,-1.52238,-0.00462981,-0.00399868,1.75515,-0.255738,-0.00249469,0.000990239,0.0178935,-0.0450067,0.2,0.2,0,1.28,0,0,0,0.2,-0.2,0,1.28,0,0,0,-1.52441,-0.00464692,-0.00403446,1.75397,-0.252537,-0.00254052,-1.52238,-0.00462981,-0.00399868,1.75515,-0.255738,-0.00249469,0.000990239,0.0178935,-0.0450067,0.2,0.2,0,1.28,0,0,0,0.2,-0.2,0,1.28,0,0,0
gen_000173_tz+0.01_tx+0.00_ty+0.01_p-0.05_fx+0.02_fy+0.00,-0.246739,0.499181162,0.466489,0.999992,-0.00100168,0.00331672,0.00205779,-1.51334,-0.00459682,-0.00403794,1.73396,-0.227128,-0.00253077,-1.51137,-0.00457964,-0.00400215,1.73513,-0.230267,-0.00248527,0.000770095,0.0179368,-0.0285465,0.2,0.2,0,1.28,0,0,0,0.2,-0.2,0,1.28,0,0,0,-1.51334,-0.00459682,-0.00403794,1.73396,-0.227128,-0.00253077,-1.51137,-0.00457964,-0.00400215,1.73513,-0.230267,-0.00248527,0.000770095,0.0179368,-0.0285465,0.2,0.2,0,1.28,0,0,0,0.2,-0.2,0,1.28,0,0,0
gen_000174_tz+0.01_tx+0.00_ty+0.01_p-0.05_fx+0.03_fy+0.00,-0.245992,0.499182076,0.466535,0.999986,-0.000995841,-0.00481406,0.0020295,-1.50182,-0.00454491,-0.00403386,1.71323,-0.201683,-0.00251869,-1.49991,-0.00452773,-0.00399806,1.71442,-0.204763,-0.00247352,0.000550684,0.0179687,-0.0123022,0.2,0.2,0,1.28,0,0,0,0.2,-0.2,0,1.28,0,0,0,-1.50182,-0.00454491,-0.00403386,1.71323,-0.201683,-0.00251869,-1.49991,-0.00452773,-0.00399806,1.71442,-0.204763,-0.00247352,0.000550684,0.0179687,-0.0123022,0.2,0.2,0,1.28,0,0,0,0.2,-0.2,0,1.28,0,0,0
gen_000175_tz+0.01_tx+0.01_ty+0.01_p-0.05_fx-0.03_fy+0.00,-0.241439,0.499175959,0.466455,0.998502,-0.00101918,0.0546514,0.0022656,-1.57361,-0.00492252,-0.0040561,1.84328,-0.378849,-0.00259408,-1.57122,-0.00490603,-0.00402057,1.84447,-0.382412,-0.00254654,0.00207438,0.0176207,-0.131176,0.2,0.2,0,1.28,0,0,0,0.2,-0.2,0,1.28,0,0,0,-1.57361,-0.00492252,-0.0040561,1.84328,-0.378849,-0.00259408,-1.57122,-0.00490603,-0.00402057,1.84447,-0.382412,-0.00254654,0.00207438,0.0176207,-0.131176,0.2,0.2,0,1.28,0,0,0,0.2,-0.2,0,1.28,0,0,0
gen_000176_tz+0.01_tx+0.01_ty+0.01_p-0.05_fx-0.02_fy+0.00,-0.240628,0.499176606,0.466429,0.998949,-0.00102076,0.0457621,0.00222702,-1.56455,-0.0048684,-0.00405979,1.82687,-0.353699,-0.00258607,-1.56223,-0.00485168,-0.00402419,1.82805,-0.357185,-0.00253885,0.00185718,0.0176936,-0.11339,0.2,0.2,0,1.28,0,0,0,0.2,-0.2,0,1.28,0,0,0,-1.56455,-0.0048684,-0.00405979,1.82687,-0.353699,-0.00258607,-1.56223,-0.00485168,-0.00402419,1.82805,-0.357185,-0.00253885,0.00185718,0.0176936,-0.11339,0.2,0.2,0,1.28,0,0,0,0.2,-0.2,0,1.28,0,0,0
gen_000177_tz+0.01_tx+0.01_ty+0.01_p-0.05_fx-0.01_fy+0.00,-0.239828,0.499177352,0.466417,0.999312,-0.00102035,0.0370104,0.00218996,-1.55511,-0.00481408,-0.00406036,1.80973,-0.328489,-0.00257694,-1.55286,-0.00479719,-0.00402471,1.8109,-0.331899,-0.00253005,0.00163986,0.0177579,-0.0958863,0.2,0.2,0,1.28,0,0,0,0.2,-0.2,0,1.28,0,0,0,-1.55511,-0.00481408,-0.00406036,1.80973,-0.328489,-0.00257694,-1.55286,-0.00479719,-0.00402471,1.8109,-0.331899,-0.00253005,0.00163986,0.0177579,-0.0958863,0.2,0.2,0,1.28,0,0,0,0.2,-0.2,0,1.28,0,0,0
gen_000178_tz+0.01_tx+0.01_ty+0.01_p-0.05_fx+0.00_fy+0.00,-0.239039,0.49917827,0.466417,0.999594,-0.00101715,0.0283922,0.0021542,-1.54528,-0.00475882,-0.00405578,1.79186,-0.303225,-0.00256616,-1.5431,-0.0047418,-0.00402007,1.79303,-0.306562,-0.00251962,0.00142295,0.0178121,-0.0786561,0.2,0.2,0,1.28,0,0,0,0.2,-0.2,0,1.28,0,0,0,-1.54528,-0.00475882,-0.00405578,1.79186,-0.303225,-0.00256616,-1.5431,-0.0047418,-0.00402007,1.79303,-0.306562,-0.00251962,0.00142295,0.0178121,-0.0786561,0.2,0.2,0,1.28,0,0,0,0.2,-0.2,0,1.28,0,0,0
gen_000179_tz+0.01_tx+0.01_ty+0.01_p-0.05_fx+0.01_fy+0.00,-0.238262,0.499179422,0.46643,0.999799,-0.00101054,0.019907,0.0021196,-1.53505,-0.00470214,-0.00404428,1.77328,-0.277908,-0.00255328,-1.53294,-0.00468506,-0.00400853,1.77445,-0.281175,-0.0025071,0.00120691,0.017855,-0.0616967,0.2,0.2,0,1.28,0,0,0,0.2,-0.2,0,1.28,0,0,0,-1.53505,-0.00470214,-0.00404428,1.77328,-0.277908,-0.00255328,-1.53294,-0.00468506,-0.00400853,1.77445,-0.281175,-0.0025071,0.00120691,0.017855,-0.0616967,0.2,0.2,0,1.28,0,0,0,0.2,-0.2,0,1.28,0,0,0
gen_000180_tz+0.01_tx+0.01_ty+0.01_p-0.05_fx+0.02_fy+0.00,-0.237496,0.499180525,0.466454,0.999931,-0.00100377,0.0115554,0.00208705,-1.52442,-0.00464685,-0.00403417,1.75397,-0.252537,-0.00254044,-1.52238,-0.00462974,-0.00399839,1.75515,-0.255737,-0.00249462,0.000990291,0.0178933,-0.0450075,0.2,0.2,0,1.28,0,0,0,0.2,-0.2,0,1.28,0,0,0,-1.52442,-0.00464685,-0.00403417,1.75397,-0.252537,-0.00254044,-1.52238,-0.00462974,-0.00399839,1.75515,-0.255737,-0.00249462,0.000990291,0.0178933,-0.0450075,0.2,0.2,0,1.28,0,0,0,0.2,-0.2,0,1.28,0,0,0
gen_000181_tz+0.01_tx+0.01_ty+0.01_p-0.05_fx+0.03_fy+0.00,-0.236739,0.499181124,0.466489,0.999992,-0.0010021,0.00331619,0.00205792,-1.51334,-0.00459721,-0.00403903,1.73396,-0.227128,-0.00253105,-1.51137,-0.00458002,-0.00400324,1.73514,-0.230267,-0.00248554,0.000769819,0.0179376,-0.0285455,0.2,0.2,0,1.28,0,0,0,0.2,-0.2,0,1.28,0,0,0,-1.51334,-0.00459721,-0.00403903,1.73396,-0.227128,-0.00253105,-1.51137,-0.00458002,-0.00400324,1.73514,-0.230267,-0.00248554,0.000769819,0.0179376,-0.0285455,0.2,0.2,0,1.28,0,0,0,0.2,-0.2,0,1.28,0,0,0
gen_000182_tz+0.01_tx+0.02_ty+0.01_p-0.05_fx-0.03_fy+0.00,-0.232262,0.499175416,0.466496,0.997967,-0.00101547,0.0636788,0.00230565,-1.58228,-0.00497631,-0.00404909,1.85897,-0.403934,-0.00260093,-1.57983,-0.0049601,-0.00401364,1.86017,-0.407577,-0.00255307,0.00229138,0.0175387,-0.149248,0.2,0.2,0,1.28,0,0,0,0.2,-0.2,0,1.28,0,0,0,-1.58228,-0.00497631,-0.00404909,1.85897,-0.403934,-0.00260093,-1.57983,-0.0049601,-0.00401364,1.86017,-0.407577,-0.00255307,0.00229138,0.0175387,-0.149248,0.2,0.2,0,1.28,0,0,0,0.2,-0.2,0,1.28,0,0,0
gen_000183_tz+0.01_tx+0.02_ty+0.01_p-0.05_fx-0.02_fy+0.00,-0.231439,0.499175958,0.466455,0.998502,-0.00101919,0.0546515,0.0022656,-1.57361,-0.00492253,-0.00405613,1.84328,-0.378849,-0.00259409,-1.57122,-0.00490604,-0.0040206,1.84447,-0.382412,-0.00254655,0.00207437,0.0176207,-0.131176,0.2,0.2,0,1.28,0,0,0,0.2,-0.2,0,1.28,0,0,0,-1.57361,-0.00492253,-0.00405613,1.84328,-0.378849,-0.00259409,-1.57122,-0.00490604,-0.0040206,1.84447,-0.382412,-0.00254655,0.00207437,0.0176207,-0.131176,0.2,0.2,0,1.28,0,0,0,0.2,-0.2,0,1.28,0,0,0
gen_000184_tz+0.01_tx+0.02_ty+0.01_p-0.05_fx-0.01_fy+0.00,-0.230628,0.499176605,0.466429,0.998949,-0.00102077,0.0457623,0.00222702,-1.56455,-0.00486841,-0.00405982,1.82687,-0.353699,-0.00258608,-1.56223,-0.0048517,-0.00402422,1.82805,-0.357184,-0.00253886,0.00185718,0.0176937,-0.11339,0.2,0.2,0,1.28,0,0,0,0.2,-0.2,0,1.28,0,0,0,-1.56455,-0.00486841,-0.00405982,1.82687,-0.353699,-0.00258608,-1.56223,-0.0048517,-0.00402422,1.82805,-0.357184,-0.00253886,0.00185718,0.0176937,-0.11339,0.2,0.2,0,1.28,0,0,0,0.2,-0.2,0,1.28,0,0,0
gen_000185_tz+0.01_tx+0.02_ty+0.01_p-0.05_fx+0.00_fy+0.00,-0.229828,0.499177352,0.466417,0.999312,-0.00102034,0.0370105,0.00218996,-1.55511,-0.00481408,-0.00406035,1.80973,-0.328489,-0.00257694,-1.55286,-0.00479718,-0.00402469,1.8109,-0.331899,-0.00253005,0.00163987,0.0177579,-0.0958865,0.2,0.2,0,1.28,0,0,0,0.2,-0.2,0,1.28,0,0,0,-1.55511,-0.00481408,-0.00406035,1.80973,-0.328489,-0.00257694,-1.55286,-0.00479718,-0.00402469,1.8109,-0.331899,-0.00253005,0.00163987,0.0177579,-0.0958865,0.2,0.2,0,1.28,0,0,0,0.2,-0.2,0,1.28,0,0,0
gen_000186_tz+0.01_tx+0.02_ty+0.01_p-0.05_fx+0.01_fy+0.00,-0.229039,0.499178274,0.466417,0.999594,-0.00101711,0.0283923,0.00215419,-1.54528,-0.00475878,-0.00405566,1.79186,-0.303225,-0.00256613,-1.5431,-0.00474177,-0.00401995,1.79303,-0.306562,-0.00251959,0.00142297,0.017812,-0.0786563,0.2,0.2,0,1.28,0,0,0,0.2,-0.2,0,1.28,0,0,0,-1.54528,-0.00475878,-0.00405566,1.79186,-0.303225,-0.00256613,-1.5431,-0.00474177,-0.00401995,1.79303,-0.306562,-0.00251959,0.00142297,0.017812,-0.0786563,0.2,0.2,0,1.28,0,0,0,0.2,-0.2,0,1.28,0,0,0
gen_000187_tz+0.01_tx+0.02_ty+0.01_p-0.05_fx+0.02_fy+0.00,-0.228262,0.499179496,0.46643,0.999799,-0.00100971,0.0199067,0.00211938,-1.53504,-0.00470144,-0.00404213,1.77328,-0.277909,-0.00255273,-1.53294,-0.00468437,-0.00400639,1.77445,-0.281176,-0.00250656,0.00120731,0.0178533,-0.0616959,0.2,0.2,0,1.28,0,0,0,0.2,-0.2,0,1.28,0,0,0,-1.53504,-0.00470144,-0.00404213,1.77328,-0.277909,-0.00255273,-1.53294,-0.00468437,-0.00400639,1.77445,-0.281176,-0.00250656,0.00120731,0.0178533,-0.0616959,0.2,0.2,0,1.28,0,0,0,0.2,-0.2,0,1.28,0,0,0
